;FLAVOR:Marlin
;TIME:658
;Filament used: 0.481793m
;Layer height: 0.2
;MINX:7
;MINY:7
;MINZ:0.2
;MAXX:213
;MAXY:213
;MAXZ:0.2
;Generated with Cura_SteamEngine 5.2.2
M82 ;absolute extrusion mode
; Ender 3 S1 Start G-code
G92 E0 ; Reset Extruder
G28 ; Home all axes
M420 S1 ;Use bed leveling data
G1 Z10.0 F3000 ; Move Z Axis up little to prevent scratching of Heat Bed
G1 X0 Y0

M104 S220
M190 S60
M109 S220

G1 X0.1 Y20 Z0.3 F5000.0 ; Move to start position
G1 X0.1 Y200.0 Z0.3 F1500.0 E15 ; Draw the first line
G1 X0.4 Y200.0 Z0.3 F5000.0 ; Move to side a little
G1 X0.4 Y20 Z0.3 F1500.0 E30 ; Draw the second line
G92 E0 ; Reset Extruder
G1 Z2.0 F3000 ; Move Z Axis up little to prevent scratching of Heat Bed
G1 X5 Y20 Z0.3 F5000.0 ; Move over to prevent blob squish
G92 E0
G92 E0
G1 F2400 E-0.8
;LAYER_COUNT:1
;LAYER:0
M107
M204 S2000
G0 F7500 X10.198 Y10.264 Z0.2
M204 S500
;TYPE:SKIRT
G1 F2400 E0
G1 F1500 X10.886 Y9.627 E0.03119
G1 X11.626 Y9.051 E0.06237
G1 X12.412 Y8.539 E0.09357
G1 X13.239 Y8.097 E0.12476
G1 X14.101 Y7.727 E0.15596
G1 X14.991 Y7.431 E0.18716
G1 X15.903 Y7.213 E0.21835
G1 X16.83 Y7.072 E0.24953
G1 X17.701 Y7.013 E0.27857
G1 X18.33 Y7 E0.29949
G1 X37.293 Y7 E0.93021
G1 X38.152 Y7.011 E0.95878
G1 X39.089 Y7.064 E0.98999
G1 X40.017 Y7.197 E1.02117
G1 X41.214 Y7.491 E1.06217
G1 X42.175 Y7.785 E1.09559
G1 X42.946 Y8.032 E1.12252
G1 X45.344 Y8.729 E1.20558
G1 X47.787 Y9.366 E1.28955
G1 X50.257 Y9.935 E1.37386
G1 X52.719 Y10.43 E1.45738
G1 X55.214 Y10.858 E1.54158
G1 X57.687 Y11.211 E1.62466
G1 X60.183 Y11.495 E1.70822
G1 X62.687 Y11.708 E1.7918
G1 X65.22 Y11.853 E1.87619
G1 X67.705 Y11.924 E1.95887
G1 X70.229 Y11.924 E2.04282
G1 X72.754 Y11.853 E2.12684
G1 X75.27 Y11.712 E2.21065
G1 X77.8 Y11.497 E2.2951
G1 X80.257 Y11.219 E2.37734
G1 X82.803 Y10.857 E2.46287
G1 X85.254 Y10.438 E2.54558
G1 X87.701 Y9.949 E2.62857
G1 X90.175 Y9.38 E2.71301
G1 X92.573 Y8.756 E2.79542
G1 X95.081 Y8.028 E2.88228
G1 X96.699 Y7.518 E2.93871
G1 X97.604 Y7.275 E2.96987
G1 X98.527 Y7.109 E3.00106
G1 X99.667 Y7.015 E3.03911
G1 X100.33 Y7 E3.06117
G1 X119.449 Y7.001 E3.69707
G1 X120.153 Y7.011 E3.72048
G1 X121.09 Y7.064 E3.7517
G1 X122.018 Y7.197 E3.78288
G1 X123.215 Y7.491 E3.82388
G1 X124.176 Y7.785 E3.8573
G1 X124.947 Y8.032 E3.88423
G1 X127.337 Y8.727 E3.96701
G1 X129.797 Y9.368 E4.05157
G1 X132.263 Y9.937 E4.13574
G1 X134.712 Y10.429 E4.21882
G1 X137.214 Y10.858 E4.30325
G1 X139.687 Y11.211 E4.38634
G1 X142.183 Y11.495 E4.46989
G1 X144.687 Y11.708 E4.55348
G1 X147.22 Y11.853 E4.63786
G1 X149.705 Y11.924 E4.72055
G1 X152.229 Y11.924 E4.8045
G1 X154.754 Y11.853 E4.88851
G1 X157.27 Y11.712 E4.97232
G1 X159.8 Y11.497 E5.05678
G1 X162.257 Y11.219 E5.13902
G1 X164.803 Y10.857 E5.22455
G1 X167.254 Y10.438 E5.30725
G1 X169.701 Y9.949 E5.39025
G1 X172.175 Y9.38 E5.47468
G1 X174.573 Y8.756 E5.5571
G1 X177.081 Y8.028 E5.64396
G1 X178.699 Y7.518 E5.70038
G1 X179.604 Y7.275 E5.73155
G1 X180.527 Y7.109 E5.76274
G1 X181.667 Y7.015 E5.80078
G1 X182.33 Y7 E5.82284
G1 X201.435 Y7.001 E6.45828
G1 X202.133 Y7.01 E6.48149
G1 X203.069 Y7.062 E6.51267
G1 X203.998 Y7.194 E6.54388
G1 X204.912 Y7.404 E6.57507
G1 X205.805 Y7.691 E6.60627
G1 X206.67 Y8.054 E6.63747
G1 X207.501 Y8.488 E6.66865
G1 X208.292 Y8.992 E6.69985
G1 X209.037 Y9.562 E6.73105
G1 X209.731 Y10.193 E6.76225
G1 X210.368 Y10.88 E6.79341
G1 X210.945 Y11.62 E6.82462
G1 X211.457 Y12.406 E6.85582
G1 X211.9 Y13.233 E6.88702
G1 X212.271 Y14.094 E6.9182
G1 X212.567 Y14.984 E6.9494
G1 X212.786 Y15.896 E6.98059
G1 X212.927 Y16.823 E7.01178
G1 X212.987 Y17.701 E7.04105
G1 X213 Y18.33 E7.06198
G1 X212.999 Y37.441 E7.69761
G1 X212.988 Y38.167 E7.72176
G1 X212.934 Y39.103 E7.75294
G1 X212.8 Y40.031 E7.78413
G1 X212.508 Y41.217 E7.82475
G1 X212.168 Y42.325 E7.8633
G1 X211.968 Y42.947 E7.88503
G1 X211.273 Y45.337 E7.96782
G1 X210.632 Y47.797 E8.05237
G1 X210.065 Y50.257 E8.13633
G1 X209.57 Y52.719 E8.21986
G1 X209.142 Y55.214 E8.30406
G1 X208.789 Y57.687 E8.38714
G1 X208.505 Y60.183 E8.4707
G1 X208.292 Y62.687 E8.55428
G1 X208.147 Y65.22 E8.63867
G1 X208.076 Y67.705 E8.72135
G1 X208.076 Y70.229 E8.8053
G1 X208.147 Y72.753 E8.88928
G1 X208.288 Y75.271 E8.97316
G1 X208.503 Y77.8 E9.05758
G1 X208.781 Y80.257 E9.13982
G1 X209.143 Y82.803 E9.22535
G1 X209.562 Y85.254 E9.30806
G1 X210.051 Y87.701 E9.39105
G1 X210.62 Y90.175 E9.47549
G1 X211.244 Y92.573 E9.5579
G1 X211.973 Y95.082 E9.6448
G1 X212.48 Y96.69 E9.70088
G1 X212.724 Y97.596 E9.73209
G1 X212.89 Y98.519 E9.76328
G1 X212.985 Y99.667 E9.80159
G1 X213 Y100.33 E9.82365
G1 X212.999 Y119.441 E10.45928
G1 X212.988 Y120.167 E10.48343
G1 X212.934 Y121.103 E10.51462
G1 X212.8 Y122.031 E10.5458
G1 X212.508 Y123.217 E10.58643
G1 X212.168 Y124.325 E10.62497
G1 X211.968 Y124.947 E10.6467
G1 X211.273 Y127.337 E10.72949
G1 X210.632 Y129.797 E10.81404
G1 X210.065 Y132.257 E10.89801
G1 X209.57 Y134.719 E10.98153
G1 X209.142 Y137.214 E11.06573
G1 X208.789 Y139.687 E11.14881
G1 X208.505 Y142.183 E11.23237
G1 X208.292 Y144.687 E11.31595
G1 X208.147 Y147.22 E11.40034
G1 X208.076 Y149.705 E11.48302
G1 X208.076 Y152.229 E11.56697
G1 X208.147 Y154.753 E11.65095
G1 X208.288 Y157.271 E11.73483
G1 X208.503 Y159.8 E11.81925
G1 X208.781 Y162.257 E11.90149
G1 X209.143 Y164.803 E11.98702
G1 X209.562 Y167.254 E12.06973
G1 X210.051 Y169.701 E12.15272
G1 X210.62 Y172.175 E12.23716
G1 X211.244 Y174.573 E12.31957
G1 X211.973 Y177.082 E12.40647
G1 X212.48 Y178.69 E12.46255
G1 X212.724 Y179.596 E12.49376
G1 X212.89 Y180.519 E12.52495
G1 X212.985 Y181.667 E12.56326
G1 X213 Y182.33 E12.58532
G1 X212.999 Y201.4 E13.21959
G1 X212.99 Y202.127 E13.24377
G1 X212.939 Y203.064 E13.27498
G1 X212.807 Y203.992 E13.30616
G1 X212.598 Y204.906 E13.33734
G1 X212.311 Y205.799 E13.36854
G1 X211.949 Y206.665 E13.39976
G1 X211.515 Y207.496 E13.43094
G1 X211.011 Y208.287 E13.46214
G1 X210.442 Y209.032 E13.49332
G1 X209.811 Y209.727 E13.52454
G1 X209.124 Y210.365 E13.55572
G1 X208.385 Y210.942 E13.58691
G1 X207.599 Y211.454 E13.6181
G1 X206.773 Y211.897 E13.64928
G1 X205.911 Y212.269 E13.68051
G1 X205.022 Y212.565 E13.71167
G1 X204.11 Y212.785 E13.74287
G1 X203.183 Y212.926 E13.77406
G1 X202.299 Y212.987 E13.80353
G1 X201.67 Y213 E13.82446
G1 X182.551 Y212.999 E14.46036
G1 X181.848 Y212.989 E14.48374
G1 X180.911 Y212.936 E14.51496
G1 X179.983 Y212.803 E14.54614
G1 X178.786 Y212.509 E14.58713
G1 X177.825 Y212.215 E14.62056
G1 X177.054 Y211.968 E14.64749
G1 X174.656 Y211.271 E14.73054
G1 X172.213 Y210.634 E14.81452
G1 X169.743 Y210.065 E14.89882
G1 X167.281 Y209.57 E14.98234
G1 X164.786 Y209.142 E15.06654
G1 X162.313 Y208.789 E15.14963
G1 X159.817 Y208.505 E15.23318
G1 X157.313 Y208.292 E15.31676
G1 X154.78 Y208.147 E15.40115
G1 X152.295 Y208.076 E15.48383
G1 X149.771 Y208.076 E15.56778
G1 X147.246 Y208.147 E15.6518
G1 X144.73 Y208.288 E15.73561
G1 X142.2 Y208.503 E15.82006
G1 X139.743 Y208.781 E15.90231
G1 X137.197 Y209.143 E15.98784
G1 X134.746 Y209.562 E16.07054
G1 X132.299 Y210.051 E16.15354
G1 X129.825 Y210.62 E16.23797
G1 X127.427 Y211.244 E16.32038
G1 X124.919 Y211.972 E16.40724
G1 X123.301 Y212.482 E16.46367
G1 X122.396 Y212.725 E16.49484
G1 X121.473 Y212.891 E16.52603
G1 X120.333 Y212.985 E16.56407
G1 X119.67 Y213 E16.58613
G1 X100.551 Y212.999 E17.22203
G1 X99.848 Y212.989 E17.24541
G1 X98.911 Y212.936 E17.27663
G1 X97.983 Y212.803 E17.30781
G1 X96.786 Y212.509 E17.34881
G1 X95.825 Y212.215 E17.38223
G1 X95.054 Y211.968 E17.40916
G1 X92.656 Y211.271 E17.49222
G1 X90.213 Y210.634 E17.57619
G1 X87.743 Y210.065 E17.66049
G1 X85.281 Y209.57 E17.74402
G1 X82.786 Y209.142 E17.82821
G1 X80.313 Y208.789 E17.9113
G1 X77.817 Y208.505 E17.99485
G1 X75.313 Y208.292 E18.07844
G1 X72.78 Y208.147 E18.16282
G1 X70.295 Y208.076 E18.24551
G1 X67.771 Y208.076 E18.32946
G1 X65.246 Y208.147 E18.41347
G1 X62.73 Y208.288 E18.49729
G1 X60.2 Y208.503 E18.58174
G1 X57.743 Y208.781 E18.66398
G1 X55.197 Y209.143 E18.74951
G1 X52.746 Y209.562 E18.83221
G1 X50.299 Y210.051 E18.91521
G1 X47.825 Y210.62 E18.99964
G1 X45.427 Y211.244 E19.08206
G1 X42.919 Y211.972 E19.16892
G1 X41.301 Y212.482 E19.22534
G1 X40.396 Y212.725 E19.25651
G1 X39.473 Y212.891 E19.2877
G1 X38.333 Y212.985 E19.32575
G1 X37.67 Y213 E19.3478
G1 X18.565 Y212.999 E19.98324
G1 X17.867 Y212.99 E20.00646
G1 X16.931 Y212.938 E20.03763
G1 X16.002 Y212.806 E20.06884
G1 X15.088 Y212.596 E20.10004
G1 X14.195 Y212.309 E20.13123
G1 X13.33 Y211.946 E20.16243
G1 X12.499 Y211.512 E20.19362
G1 X11.708 Y211.008 E20.22481
G1 X10.963 Y210.438 E20.25601
G1 X10.269 Y209.807 E20.28721
G1 X9.632 Y209.12 E20.31837
G1 X9.055 Y208.38 E20.34958
G1 X8.543 Y207.594 E20.38078
G1 X8.1 Y206.767 E20.41198
G1 X7.729 Y205.906 E20.44316
G1 X7.433 Y205.016 E20.47436
G1 X7.214 Y204.104 E20.50556
G1 X7.073 Y203.177 E20.53674
G1 X7.013 Y202.288 E20.56638
G1 X7 Y201.658 E20.58734
G1 X7 Y182.707 E21.21765
G1 X7.014 Y181.812 E21.24742
G1 X7.069 Y180.876 E21.27861
G1 X7.205 Y179.948 E21.3098
G1 X7.493 Y178.782 E21.34975
G1 X7.832 Y177.676 E21.38822
G1 X8.032 Y177.054 E21.40995
G1 X8.729 Y174.656 E21.49301
G1 X9.366 Y172.213 E21.57698
G1 X9.935 Y169.743 E21.66129
G1 X10.43 Y167.281 E21.74481
G1 X10.858 Y164.786 E21.82901
G1 X11.211 Y162.313 E21.91209
G1 X11.495 Y159.817 E21.99565
G1 X11.708 Y157.313 E22.07923
G1 X11.853 Y154.78 E22.16362
G1 X11.924 Y152.295 E22.2463
G1 X11.924 Y149.771 E22.33025
G1 X11.853 Y147.247 E22.41423
G1 X11.711 Y144.725 E22.49825
G1 X11.498 Y142.202 E22.58246
G1 X11.219 Y139.739 E22.66491
G1 X10.859 Y137.207 E22.74997
G1 X10.437 Y134.741 E22.83318
G1 X9.949 Y132.299 E22.91601
G1 X9.38 Y129.825 E23.00044
G1 X8.756 Y127.427 E23.08285
G1 X8.031 Y124.931 E23.1693
G1 X7.519 Y123.307 E23.22594
G1 X7.276 Y122.401 E23.25714
G1 X7.11 Y121.478 E23.28833
G1 X7.015 Y120.333 E23.32654
G1 X7 Y119.67 E23.3486
G1 X7 Y100.707 E23.97931
G1 X7.014 Y99.812 E24.00908
G1 X7.069 Y98.876 E24.04027
G1 X7.205 Y97.948 E24.07146
G1 X7.493 Y96.782 E24.11141
G1 X7.832 Y95.676 E24.14988
G1 X8.032 Y95.054 E24.17162
G1 X8.729 Y92.656 E24.25467
G1 X9.366 Y90.213 E24.33865
G1 X9.935 Y87.743 E24.42295
G1 X10.43 Y85.281 E24.50647
G1 X10.858 Y82.786 E24.59067
G1 X11.211 Y80.313 E24.67376
G1 X11.495 Y77.817 E24.75731
G1 X11.708 Y75.313 E24.84089
G1 X11.853 Y72.78 E24.92528
G1 X11.924 Y70.295 E25.00796
G1 X11.924 Y67.771 E25.09191
G1 X11.853 Y65.247 E25.1759
G1 X11.711 Y62.725 E25.25991
G1 X11.498 Y60.202 E25.34412
G1 X11.219 Y57.739 E25.42657
G1 X10.859 Y55.207 E25.51163
G1 X10.437 Y52.741 E25.59484
G1 X9.949 Y50.299 E25.67767
G1 X9.38 Y47.825 E25.7621
G1 X8.756 Y45.427 E25.84452
G1 X8.031 Y42.931 E25.93096
G1 X7.519 Y41.307 E25.9876
G1 X7.276 Y40.401 E26.0188
G1 X7.11 Y39.478 E26.04999
G1 X7.015 Y38.333 E26.0882
G1 X7 Y37.67 E26.11026
G1 X7.001 Y18.525 E26.74703
G1 X7.01 Y17.86 E26.76915
G1 X7.063 Y16.924 E26.80033
G1 X7.195 Y15.995 E26.83154
G1 X7.406 Y15.081 E26.86274
G1 X7.694 Y14.189 E26.89391
G1 X8.057 Y13.324 E26.92511
G1 X8.492 Y12.493 E26.95631
G1 X8.996 Y11.703 E26.98748
G1 X9.566 Y10.958 E27.01868
G1 X10.198 Y10.264 E27.0499
M204 S2000
G0 F7500 X10.589 Y10.439
M204 S500
G1 F1500 X11.274 Y9.823 E27.08054
G1 X12.01 Y9.27 E27.11116
G1 X12.791 Y8.782 E27.14179
G1 X13.611 Y8.364 E27.1724
G1 X14.465 Y8.019 E27.20303
G1 X15.345 Y7.749 E27.23365
G1 X16.245 Y7.557 E27.26426
G1 X17.159 Y7.443 E27.29489
G1 X17.712 Y7.413 E27.31331
G1 X18.33 Y7.4 E27.33387
G1 X37.293 Y7.4 E27.96458
G1 X38.147 Y7.411 E27.99299
G1 X39.066 Y7.464 E28.02361
G1 X39.977 Y7.597 E28.05423
G1 X41.097 Y7.874 E28.0926
G1 X42.058 Y8.168 E28.12603
G1 X42.807 Y8.408 E28.15219
G1 X45.246 Y9.117 E28.23666
G1 X47.702 Y9.757 E28.32108
G1 X50.16 Y10.323 E28.40497
G1 X52.672 Y10.828 E28.49019
G1 X55.132 Y11.25 E28.57321
G1 X57.617 Y11.605 E28.6567
G1 X60.137 Y11.892 E28.74106
G1 X62.67 Y12.108 E28.82561
G1 X65.185 Y12.251 E28.90939
G1 X67.729 Y12.324 E28.99404
G1 X70.24 Y12.324 E29.07756
G1 X72.787 Y12.253 E29.16231
G1 X75.292 Y12.112 E29.24575
G1 X77.808 Y11.898 E29.32974
G1 X80.321 Y11.614 E29.41385
G1 X82.855 Y11.254 E29.49898
G1 X85.328 Y10.831 E29.58243
G1 X87.763 Y10.344 E29.66502
G1 X90.292 Y9.763 E29.75133
G1 X92.723 Y9.13 E29.83488
G1 X95.174 Y8.418 E29.91977
G1 X96.819 Y7.9 E29.97713
G1 X97.708 Y7.661 E30.00775
G1 X98.615 Y7.501 E30.03838
G1 X99.679 Y7.415 E30.07388
G1 X100.33 Y7.4 E30.09554
G1 X119.444 Y7.401 E30.73128
G1 X120.148 Y7.411 E30.75469
G1 X121.067 Y7.464 E30.78531
G1 X121.978 Y7.597 E30.81593
G1 X123.098 Y7.874 E30.85431
G1 X124.059 Y8.168 E30.88773
G1 X124.808 Y8.408 E30.91389
G1 X127.239 Y9.115 E30.9981
G1 X129.704 Y9.757 E31.08282
G1 X132.174 Y10.326 E31.16712
G1 X134.665 Y10.827 E31.25163
G1 X137.132 Y11.25 E31.33488
G1 X139.617 Y11.605 E31.41837
G1 X142.137 Y11.892 E31.50273
G1 X144.67 Y12.108 E31.58728
G1 X147.185 Y12.251 E31.67107
G1 X149.729 Y12.324 E31.75572
G1 X152.24 Y12.324 E31.83923
G1 X154.787 Y12.253 E31.92398
G1 X157.292 Y12.112 E32.00743
G1 X159.808 Y11.898 E32.09141
G1 X162.321 Y11.614 E32.17553
G1 X164.855 Y11.254 E32.26066
G1 X167.328 Y10.831 E32.3441
G1 X169.763 Y10.344 E32.42669
G1 X172.292 Y9.763 E32.513
G1 X174.723 Y9.13 E32.59655
G1 X177.174 Y8.418 E32.68144
G1 X178.819 Y7.9 E32.7388
G1 X179.708 Y7.661 E32.76942
G1 X180.615 Y7.501 E32.80005
G1 X181.679 Y7.415 E32.83556
G1 X182.33 Y7.4 E32.85722
G1 X201.43 Y7.401 E33.49249
G1 X202.128 Y7.41 E33.5157
G1 X203.047 Y7.462 E33.54632
G1 X203.958 Y7.593 E33.57693
G1 X204.854 Y7.803 E33.60754
G1 X205.729 Y8.09 E33.63817
G1 X206.576 Y8.452 E33.6688
G1 X207.388 Y8.886 E33.69943
G1 X208.159 Y9.388 E33.73003
G1 X208.884 Y9.956 E33.76066
G1 X209.557 Y10.585 E33.7913
G1 X210.172 Y11.269 E33.82189
G1 X210.726 Y12.004 E33.8525
G1 X211.214 Y12.785 E33.88313
G1 X211.633 Y13.605 E33.91376
G1 X211.979 Y14.458 E33.94438
G1 X212.249 Y15.338 E33.97499
G1 X212.442 Y16.239 E34.00564
G1 X212.556 Y17.152 E34.03624
G1 X212.587 Y17.712 E34.0549
G1 X212.6 Y18.33 E34.07546
G1 X212.599 Y37.435 E34.71089
G1 X212.588 Y38.161 E34.73504
G1 X212.534 Y39.08 E34.76566
G1 X212.4 Y39.991 E34.79628
G1 X212.126 Y41.1 E34.83428
G1 X211.833 Y42.058 E34.8676
G1 X211.592 Y42.808 E34.8938
G1 X210.885 Y45.239 E34.97801
G1 X210.241 Y47.711 E35.06297
G1 X209.677 Y50.16 E35.14656
G1 X209.172 Y52.672 E35.23178
G1 X208.75 Y55.132 E35.31479
G1 X208.395 Y57.617 E35.39828
G1 X208.108 Y60.137 E35.48264
G1 X207.892 Y62.67 E35.56719
G1 X207.749 Y65.185 E35.65098
G1 X207.676 Y67.729 E35.73563
G1 X207.676 Y70.24 E35.81914
G1 X207.747 Y72.788 E35.90392
G1 X207.888 Y75.292 E35.98734
G1 X208.102 Y77.808 E36.07132
G1 X208.386 Y80.321 E36.15544
G1 X208.746 Y82.855 E36.24056
G1 X209.169 Y85.328 E36.32401
G1 X209.656 Y87.763 E36.4066
G1 X210.237 Y90.292 E36.49291
G1 X210.87 Y92.723 E36.57646
G1 X211.574 Y95.148 E36.66045
G1 X212.099 Y96.811 E36.71845
G1 X212.337 Y97.7 E36.74906
G1 X212.498 Y98.607 E36.7797
G1 X212.585 Y99.679 E36.81547
G1 X212.6 Y100.33 E36.83713
G1 X212.599 Y119.435 E37.47256
G1 X212.588 Y120.161 E37.49671
G1 X212.534 Y121.08 E37.52733
G1 X212.4 Y121.991 E37.55796
G1 X212.126 Y123.1 E37.59595
G1 X211.833 Y124.058 E37.62927
G1 X211.592 Y124.808 E37.65547
G1 X210.885 Y127.239 E37.73968
G1 X210.241 Y129.711 E37.82464
G1 X209.677 Y132.16 E37.90823
G1 X209.172 Y134.672 E37.99345
G1 X208.75 Y137.132 E38.07646
G1 X208.395 Y139.617 E38.15996
G1 X208.108 Y142.137 E38.24431
G1 X207.892 Y144.67 E38.32887
G1 X207.749 Y147.185 E38.41265
G1 X207.676 Y149.729 E38.4973
G1 X207.676 Y152.24 E38.58082
G1 X207.747 Y154.788 E38.6656
G1 X207.888 Y157.292 E38.74901
G1 X208.102 Y159.808 E38.833
G1 X208.386 Y162.321 E38.91711
G1 X208.746 Y164.855 E39.00224
G1 X209.169 Y167.328 E39.08568
G1 X209.656 Y169.763 E39.16828
G1 X210.237 Y172.292 E39.25458
G1 X210.87 Y174.723 E39.33813
G1 X211.574 Y177.148 E39.42212
G1 X212.099 Y178.811 E39.48012
G1 X212.337 Y179.7 E39.51073
G1 X212.498 Y180.607 E39.54137
G1 X212.585 Y181.679 E39.57714
G1 X212.6 Y182.33 E39.5988
G1 X212.599 Y201.395 E40.23291
G1 X212.59 Y202.122 E40.25709
G1 X212.539 Y203.041 E40.2877
G1 X212.408 Y203.953 E40.31834
G1 X212.198 Y204.849 E40.34895
G1 X211.912 Y205.724 E40.37957
G1 X211.551 Y206.571 E40.41019
G1 X211.117 Y207.383 E40.44082
