;FLAVOR:Marlin
;TIME:7321
;Filament used: 4.38426m
;Layer height: 0.2
;MINX:69.301
;MINY:69.3
;MINZ:0.2
;MAXX:150.681
;MAXY:150.681
;MAXZ:51.2
;Post-Processed by AutoTowersGenerator
;AutoTowersGenerator: Post-processing a print speed SpeedTower
;AutoTowersGenerator: Base height = 0.84 mm
;AutoTowersGenerator: Section height = 8.4 mm
;AutoTowersGenerator: Initial printed layer height = 0.2 mm
;AutoTowersGenerator: Printed layer height = 0.2 mm
;AutoTowersGenerator: Starting speed = 100 mm/s
;AutoTowersGenerator: Speed change = 20 mm/s
;AutoTowersGenerator: Reference speed = 50 mm/s
;AutoTowersGenerator: Enable LCD messages = False
;Generated with Cura_SteamEngine 5.2.2
M82 ;absolute extrusion mode
; Ender 3 S1 Start G-code
G92 E0 ; Reset Extruder
G28 ; Home all axes
M420 S1 ;Use bed leveling data
G1 Z10.0 F3000 ; Move Z Axis up little to prevent scratching of Heat Bed
G1 X0 Y0

M104 S220
M190 S60
M109 S220

G1 X0.1 Y20 Z0.3 F5000.0 ; Move to start position
G1 X0.1 Y200.0 Z0.3 F1500.0 E15 ; Draw the first line
G1 X0.4 Y200.0 Z0.3 F5000.0 ; Move to side a little
G1 X0.4 Y20 Z0.3 F1500.0 E30 ; Draw the second line
G92 E0 ; Reset Extruder
G1 Z2.0 F3000 ; Move Z Axis up little to prevent scratching of Heat Bed
G1 X5 Y20 Z0.3 F5000.0 ; Move over to prevent blob squish
G92 E0
G92 E0
G1 F2400 E-0.8
;LAYER_COUNT:256
;LAYER:0
M107
M204 S2000
G0 F7500 X73.646 Y74.178 Z0.2
M204 S500
;TYPE:SKIRT
G1 F2400 E0
G1 F1500 X74.316 Y73.522 E0.03119
G1 X74.812 Y73.102 E0.0528
G1 X75.388 Y72.643 E0.0773
G1 X76.082 Y72.12 E0.1062
G1 X76.858 Y71.594 E0.13738
G1 X77.676 Y71.135 E0.16858
G1 X78.243 Y70.869 E0.18941
G1 X79.241 Y70.439 E0.22556
G1 X79.688 Y70.261 E0.24156
G1 X80.574 Y69.952 E0.27277
G1 X81.482 Y69.719 E0.30395
G1 X82.126 Y69.603 E0.32571
G1 X82.879 Y69.49 E0.35104
G1 X83.694 Y69.388 E0.37835
G1 X84.616 Y69.317 E0.40911
G1 X85.255 Y69.302 E0.43037
G1 X134.293 Y69.3 E2.06138
G1 X135.149 Y69.311 E2.08985
G1 X136.192 Y69.376 E2.12461
G1 X137.12 Y69.485 E2.15569
G1 X137.796 Y69.585 E2.17842
G1 X138.717 Y69.762 E2.20961
G1 X139.619 Y70.017 E2.24079
G1 X140.195 Y70.224 E2.26114
G1 X140.89 Y70.496 E2.28597
G1 X141.679 Y70.829 E2.31445
G1 X142.524 Y71.237 E2.34566
G1 X143.331 Y71.715 E2.37686
G1 X143.87 Y72.09 E2.3987
G1 X144.475 Y72.538 E2.42373
G1 X145.112 Y73.034 E2.45059
G1 X145.822 Y73.646 E2.48176
G1 X146.478 Y74.316 E2.51295
G1 X146.898 Y74.812 E2.53457
G1 X147.357 Y75.388 E2.55906
G1 X147.878 Y76.079 E2.58785
G1 X148.405 Y76.855 E2.61905
G1 X148.864 Y77.673 E2.65024
G1 X149.135 Y78.251 E2.67148
G1 X149.561 Y79.241 E2.70732
G1 X149.739 Y79.688 E2.72333
G1 X150.048 Y80.574 E2.75453
G1 X150.281 Y81.482 E2.78571
G1 X150.397 Y82.126 E2.80748
G1 X150.51 Y82.879 E2.8328
G1 X150.61 Y83.676 E2.85952
G1 X150.681 Y84.612 E2.89074
G1 X150.672 Y85.549 E2.92191
G1 X150.616 Y86.225 E2.94447
G1 X150.529 Y86.985 E2.96991
G1 X150.422 Y87.757 E2.99583
G1 X150.248 Y88.678 E3.02701
G1 X149.997 Y89.582 E3.05821
G1 X149.772 Y90.208 E3.08034
G1 X149.367 Y91.225 E3.11675
G1 X149.177 Y91.667 E3.13275
G1 X148.77 Y92.512 E3.16394
G1 X148.293 Y93.32 E3.19515
G1 X147.909 Y93.872 E3.21751
G1 X147.258 Y94.743 E3.25368
G1 X146.97 Y95.108 E3.26915
G1 X146.358 Y95.819 E3.30035
G1 X145.688 Y96.475 E3.33154
G1 X145.191 Y96.895 E3.35318
G1 X144.614 Y97.355 E3.37772
G1 X143.92 Y97.88 E3.40666
G1 X143.145 Y98.408 E3.43785
G1 X142.044 Y99.007 E3.47954
G1 X141.615 Y99.21 E3.49533
G1 X139.314 Y100.34 E3.58059
G1 X137.073 Y101.52 E3.66483
G1 X134.896 Y102.748 E3.74796
G1 X132.705 Y104.065 E3.83298
G1 X130.614 Y105.404 E3.91557
G1 X128.532 Y106.822 E3.99935
G1 X126.481 Y108.306 E4.08355
G1 X124.477 Y109.845 E4.16759
G1 X122.542 Y111.418 E4.25053
G1 X120.632 Y113.062 E4.33435
G1 X118.776 Y114.756 E4.41793
G1 X116.945 Y116.523 E4.50256
G1 X115.206 Y118.299 E4.58523
G1 X113.486 Y120.158 E4.66947
G1 X111.835 Y122.048 E4.75294
G1 X110.218 Y124.008 E4.83745
G1 X108.68 Y125.983 E4.92071
G1 X107.189 Y128.012 E5.00445
G1 X105.771 Y130.061 E5.08733
G1 X104.384 Y132.192 E5.1719
G1 X103.061 Y134.361 E5.2564
G1 X101.841 Y136.489 E5.33799
G1 X100.628 Y138.753 E5.42341
G1 X99.484 Y141.041 E5.5085
G1 X99.016 Y142.027 E5.5448
G1 X98.579 Y142.856 E5.57597
G1 X97.92 Y143.856 E5.6158
G1 X97.258 Y144.743 E5.65261
G1 X96.97 Y145.108 E5.66807
G1 X96.358 Y145.819 E5.69928
G1 X95.688 Y146.475 E5.73046
G1 X95.191 Y146.895 E5.75211
G1 X94.614 Y147.355 E5.77665
G1 X93.918 Y147.88 E5.80565
G1 X93.142 Y148.406 E5.83683
G1 X92.324 Y148.865 E5.86802
G1 X91.757 Y149.131 E5.88885
G1 X90.759 Y149.561 E5.925
G1 X90.312 Y149.739 E5.941
G1 X89.426 Y150.048 E5.97221
G1 X88.518 Y150.281 E6.00339
G1 X87.874 Y150.397 E6.02515
G1 X86.784 Y150.556 E6.06179
G1 X86.32 Y150.611 E6.07733
G1 X85.385 Y150.681 E6.10852
G1 X84.447 Y150.672 E6.13972
G1 X83.772 Y150.615 E6.16225
G1 X82.697 Y150.488 E6.19825
G1 X82.246 Y150.423 E6.2134
G1 X81.324 Y150.249 E6.24461
G1 X80.42 Y149.998 E6.27582
G1 X79.786 Y149.77 E6.29823
G1 X78.764 Y149.362 E6.33483
G1 X78.321 Y149.171 E6.35087
G1 X77.476 Y148.763 E6.38208
G1 X76.669 Y148.285 E6.41328
G1 X76.129 Y147.91 E6.43514
G1 X75.516 Y147.456 E6.46051
G1 X74.883 Y146.962 E6.48722
G1 X74.173 Y146.35 E6.5184
G1 X73.518 Y145.679 E6.54959
G1 X73.102 Y145.188 E6.57099
G1 X72.643 Y144.612 E6.59549
G1 X72.122 Y143.921 E6.62427
G1 X71.595 Y143.145 E6.65547
G1 X71.136 Y142.327 E6.68667
G1 X70.865 Y141.749 E6.7079
G1 X70.439 Y140.759 E6.74374
G1 X70.261 Y140.312 E6.75975
G1 X69.952 Y139.426 E6.79096
G1 X69.719 Y138.518 E6.82214
G1 X69.603 Y137.874 E6.8439
G1 X69.49 Y137.121 E6.86922
G1 X69.388 Y136.306 E6.89654
G1 X69.317 Y135.384 E6.9273
G1 X69.302 Y134.745 E6.94856
G1 X69.301 Y85.549 E8.58482
G1 X69.311 Y84.851 E8.60804
G1 X69.376 Y83.808 E8.6428
G1 X69.483 Y82.894 E8.67341
G1 X69.582 Y82.219 E8.6961
G1 X69.758 Y81.297 E8.72732
G1 X70.011 Y80.394 E8.75851
G1 X70.226 Y79.798 E8.77958
G1 X70.499 Y79.102 E8.80445
G1 X70.829 Y78.321 E8.83265
G1 X71.237 Y77.476 E8.86386
G1 X71.715 Y76.669 E8.89505
G1 X72.09 Y76.13 E8.91689
G1 X72.538 Y75.525 E8.94193
G1 X73.034 Y74.888 E8.96878
G1 X73.646 Y74.178 E8.99996
M204 S2000
G0 F7500 X73.949 Y74.439
M204 S500
G1 F1500 X74.609 Y73.797 E9.03058
G1 X75.061 Y73.415 E9.05027
G1 X75.637 Y72.956 E9.07476
G1 X76.32 Y72.441 E9.10321
G1 X77.083 Y71.925 E9.13385
G1 X77.887 Y71.477 E9.16446
G1 X78.402 Y71.235 E9.18339
G1 X79.074 Y70.942 E9.20777
G1 X79.836 Y70.633 E9.23512
G1 X80.706 Y70.33 E9.26576
G1 X81.598 Y70.103 E9.29638
G1 X82.185 Y69.998 E9.31621
G1 X82.938 Y69.885 E9.34153
G1 X83.741 Y69.785 E9.36845
G1 X84.63 Y69.717 E9.3981
G1 X85.255 Y69.702 E9.4189
G1 X134.293 Y69.7 E11.04991
G1 X135.143 Y69.711 E11.07818
G1 X136.148 Y69.773 E11.11167
G1 X137.061 Y69.881 E11.14225
G1 X137.737 Y69.981 E11.16498
G1 X138.641 Y70.155 E11.1956
G1 X139.527 Y70.407 E11.22623
G1 X140.049 Y70.596 E11.2447
G1 X140.744 Y70.868 E11.26952
G1 X141.521 Y71.196 E11.29757
G1 X142.35 Y71.597 E11.3282
G1 X143.14 Y72.068 E11.35879
G1 X143.632 Y72.411 E11.37874
G1 X144.237 Y72.859 E11.40378
G1 X144.864 Y73.348 E11.43023
G1 X145.561 Y73.949 E11.46084
G1 X146.203 Y74.609 E11.49146
G1 X146.585 Y75.061 E11.51114
G1 X147.044 Y75.637 E11.53564
G1 X147.557 Y76.318 E11.564
G1 X148.074 Y77.08 E11.59463
G1 X148.522 Y77.884 E11.62524
G1 X148.769 Y78.41 E11.64457
G1 X149.061 Y79.081 E11.6689
G1 X149.367 Y79.836 E11.696
G1 X149.67 Y80.706 E11.72664
G1 X149.897 Y81.598 E11.75725
G1 X150.002 Y82.185 E11.77709
G1 X150.115 Y82.938 E11.80241
G1 X150.213 Y83.724 E11.82876
G1 X150.282 Y84.642 E11.85938
G1 X150.271 Y85.562 E11.88998
G1 X150.218 Y86.18 E11.91061
G1 X150.131 Y86.94 E11.93605
G1 X150.026 Y87.699 E11.96154
G1 X149.855 Y88.604 E11.99217
G1 X149.606 Y89.49 E12.02278
G1 X149.4 Y90.062 E12.043
G1 X149.126 Y90.759 E12.06791
G1 X148.809 Y91.509 E12.09499
G1 X148.409 Y92.338 E12.12561
G1 X147.939 Y93.13 E12.15624
G1 X147.588 Y93.633 E12.17664
G1 X146.944 Y94.495 E12.21243
G1 X146.656 Y94.86 E12.22789
G1 X146.054 Y95.557 E12.25852
G1 X145.395 Y96.2 E12.28915
G1 X144.942 Y96.582 E12.30885
G1 X144.365 Y97.042 E12.3334
G1 X143.681 Y97.559 E12.36191
G1 X142.92 Y98.077 E12.39253
G1 X141.873 Y98.646 E12.43217
G1 X141.419 Y98.861 E12.44887
G1 X139.115 Y99.992 E12.53424
G1 X136.896 Y101.161 E12.61766
G1 X134.672 Y102.415 E12.70258
G1 X132.53 Y103.703 E12.78571
G1 X130.37 Y105.086 E12.87102
G1 X128.295 Y106.5 E12.95453
G1 X126.255 Y107.976 E13.03828
G1 X124.243 Y109.52 E13.12263
G1 X122.254 Y111.138 E13.20791
G1 X120.386 Y112.745 E13.28987
G1 X118.492 Y114.474 E13.37516
G1 X116.682 Y116.221 E13.45883
G1 X114.892 Y118.049 E13.54393
G1 X113.189 Y119.888 E13.62729
G1 X111.526 Y121.793 E13.7114
G1 X109.926 Y123.731 E13.79498
G1 X108.358 Y125.746 E13.8799
G1 X106.871 Y127.77 E13.96344
G1 X105.424 Y129.862 E14.04804
G1 X104.035 Y131.995 E14.1327
G1 X102.74 Y134.117 E14.21538
G1 X101.476 Y136.322 E14.29992
G1 X100.275 Y138.564 E14.38451
G1 X99.132 Y140.85 E14.46952
G1 X98.655 Y141.855 E14.50652
G1 X98.225 Y142.669 E14.53714
G1 X97.598 Y143.618 E14.57497
G1 X96.944 Y144.495 E14.61136
G1 X96.656 Y144.86 E14.62682
G1 X96.054 Y145.557 E14.65745
G1 X95.395 Y146.2 E14.68808
G1 X94.942 Y146.582 E14.70778
G1 X94.076 Y147.265 E14.74447
G1 X93.68 Y147.559 E14.76087
G1 X92.917 Y148.075 E14.79151
G1 X92.113 Y148.523 E14.82212
G1 X91.598 Y148.765 E14.84105
G1 X90.926 Y149.058 E14.86543
G1 X90.164 Y149.367 E14.89278
G1 X89.294 Y149.67 E14.92342
G1 X88.402 Y149.897 E14.95403
G1 X87.815 Y150.002 E14.97387
G1 X87.062 Y150.115 E14.99919
G1 X86.273 Y150.213 E15.02564
G1 X85.355 Y150.282 E15.05625
G1 X84.434 Y150.271 E15.08689
G1 X83.818 Y150.218 E15.10745
G1 X82.754 Y150.092 E15.14309
G1 X82.303 Y150.027 E15.15824
G1 X81.398 Y149.856 E15.18888
G1 X80.512 Y149.607 E15.21949
G1 X79.932 Y149.398 E15.23999
G1 X78.922 Y148.995 E15.27616
G1 X78.479 Y148.804 E15.29221
G1 X77.65 Y148.403 E15.32283
G1 X76.86 Y147.932 E15.35343
G1 X76.367 Y147.588 E15.37342
G1 X75.489 Y146.932 E15.40987
G1 X75.131 Y146.649 E15.42505
G1 X74.435 Y146.047 E15.45566
G1 X73.793 Y145.387 E15.48628
G1 X73.415 Y144.939 E15.50578
G1 X72.956 Y144.363 E15.53028
G1 X72.443 Y143.682 E15.55863
G1 X71.926 Y142.92 E15.58926
G1 X71.478 Y142.116 E15.61987
G1 X71.231 Y141.59 E15.6392
G1 X70.939 Y140.919 E15.66354
G1 X70.633 Y140.164 E15.69063
G1 X70.33 Y139.294 E15.72128
G1 X70.103 Y138.402 E15.75189
G1 X69.998 Y137.815 E15.77172
G1 X69.885 Y137.062 E15.79705
G1 X69.785 Y136.259 E15.82396
G1 X69.717 Y135.37 E15.85362
G1 X69.702 Y134.745 E15.87441
G1 X69.7 Y85.707 E17.50542
G1 X69.711 Y84.857 E17.53369
G1 X69.773 Y83.852 E17.56718
G1 X69.879 Y82.952 E17.59733
G1 X69.978 Y82.277 E17.62002
G1 X70.151 Y81.373 E17.65063
G1 X70.402 Y80.487 E17.68126
G1 X70.598 Y79.944 E17.70046
G1 X70.871 Y79.248 E17.72532
G1 X71.196 Y78.479 E17.75309
G1 X71.597 Y77.65 E17.78372
G1 X72.068 Y76.86 E17.81431
G1 X72.411 Y76.368 E17.83426
G1 X72.859 Y75.763 E17.8593
G1 X73.348 Y75.136 E17.88574
G1 X73.949 Y74.439 E17.91636
M204 S2000
G0 F7500 X74.252 Y74.701
M204 S500
G1 F1500 X74.901 Y74.072 E17.94642
G1 X75.31 Y73.728 E17.96419
G1 X75.886 Y73.269 E17.98869
G1 X76.559 Y72.762 E18.01671
G1 X77.307 Y72.257 E18.04673
G1 X78.097 Y71.819 E18.07677
G1 X78.562 Y71.602 E18.09384
G1 X79.234 Y71.309 E18.11822
G1 X79.984 Y71.005 E18.14514
G1 X80.837 Y70.708 E18.17518
G1 X81.713 Y70.488 E18.20522
G1 X82.244 Y70.394 E18.22316
G1 X82.997 Y70.281 E18.24848
G1 X83.788 Y70.182 E18.275
G1 X84.643 Y70.117 E18.30352
G1 X85.255 Y70.102 E18.32388
G1 X134.293 Y70.1 E19.95489
G1 X135.137 Y70.111 E19.98296
G1 X136.105 Y70.171 E20.01522
G1 X137.003 Y70.277 E20.0453
G1 X137.679 Y70.377 E20.06802
G1 X138.565 Y70.548 E20.09804
G1 X139.433 Y70.798 E20.12808
G1 X139.903 Y70.969 E20.14471
G1 X140.919 Y71.372 E20.18107
G1 X141.362 Y71.563 E20.19711
G1 X142.175 Y71.957 E20.22716
G1 X142.95 Y72.422 E20.25722
G1 X143.394 Y72.733 E20.27525
G1 X143.999 Y73.181 E20.30029
G1 X144.616 Y73.662 E20.32631
G1 X145.299 Y74.252 E20.35633
G1 X145.928 Y74.901 E20.38639
G1 X146.272 Y75.31 E20.40417
G1 X146.731 Y75.886 E20.42866
G1 X147.236 Y76.556 E20.45657
G1 X147.742 Y77.304 E20.4866
G1 X148.18 Y78.094 E20.51665
G1 X148.402 Y78.57 E20.53412
G1 X148.694 Y79.241 E20.55846
G1 X148.995 Y79.984 E20.58512
G1 X149.292 Y80.837 E20.61516
G1 X149.512 Y81.713 E20.6452
G1 X149.606 Y82.244 E20.66314
G1 X149.719 Y82.997 E20.68846
G1 X149.816 Y83.771 E20.71441
G1 X149.883 Y84.671 E20.74442
G1 X149.869 Y85.574 E20.77446
G1 X149.821 Y86.134 E20.79316
G1 X149.734 Y86.894 E20.8186
G1 X149.63 Y87.642 E20.84372
G1 X149.462 Y88.529 E20.87374
G1 X149.215 Y89.398 E20.90379
G1 X149.028 Y89.916 E20.92211
G1 X148.754 Y90.613 E20.94702
G1 X148.442 Y91.351 E20.97367
G1 X148.049 Y92.164 E21.0037
G1 X147.585 Y92.939 E21.03374
G1 X147.267 Y93.395 E21.05223
G1 X146.818 Y94.001 E21.07732
G1 X146.341 Y94.612 E21.1031
G1 X145.751 Y95.296 E21.13314
G1 X145.103 Y95.924 E21.16316
G1 X144.692 Y96.27 E21.18103
G1 X143.855 Y96.931 E21.2165
G1 X143.442 Y97.239 E21.23364
G1 X142.695 Y97.746 E21.26366
G1 X141.702 Y98.284 E21.30123
G1 X141.277 Y98.485 E21.31686
G1 X138.932 Y99.637 E21.40376
G1 X136.693 Y100.816 E21.48792
G1 X134.475 Y102.066 E21.5726
G1 X132.33 Y103.356 E21.65585
G1 X130.16 Y104.746 E21.74157
G1 X128.041 Y106.189 E21.82683
G1 X126.022 Y107.65 E21.90972
G1 X123.992 Y109.208 E21.99484
G1 X122.003 Y110.826 E22.08011
G1 X120.121 Y112.446 E22.16271
G1 X118.208 Y114.192 E22.24885
G1 X116.401 Y115.936 E22.33238
G1 X114.63 Y117.744 E22.41655
G1 X112.878 Y119.637 E22.50234
G1 X111.232 Y121.521 E22.58555
G1 X109.601 Y123.498 E22.6708
G1 X108.04 Y125.503 E22.75531
G1 X106.547 Y127.535 E22.83918
G1 X105.076 Y129.663 E22.92522
G1 X103.716 Y131.75 E23.00807
G1 X102.385 Y133.931 E23.09305
G1 X101.119 Y136.141 E23.17776
G1 X99.922 Y138.375 E23.26206
G1 X98.77 Y140.678 E23.34771
G1 X98.293 Y141.684 E23.38474
G1 X97.871 Y142.482 E23.41476
G1 X97.277 Y143.381 E23.4506
G1 X96.822 Y143.996 E23.47604
G1 X96.341 Y144.612 E23.50204
G1 X95.751 Y145.296 E23.53208
G1 X95.103 Y145.924 E23.5621
G1 X94.692 Y146.27 E23.57996
G1 X94.115 Y146.73 E23.60451
G1 X93.441 Y147.238 E23.63258
G1 X92.693 Y147.743 E23.6626
G1 X91.903 Y148.181 E23.69264
G1 X91.438 Y148.398 E23.70971
G1 X90.766 Y148.691 E23.73409
G1 X90.016 Y148.995 E23.76101
G1 X89.163 Y149.292 E23.79105
G1 X88.287 Y149.512 E23.82109
G1 X87.756 Y149.606 E23.83902
G1 X87.003 Y149.719 E23.86435
G1 X86.226 Y149.816 E23.89039
G1 X85.325 Y149.883 E23.92044
G1 X84.422 Y149.869 E23.95048
G1 X83.863 Y149.821 E23.96914
G1 X83.104 Y149.734 E23.99455
G1 X82.36 Y149.631 E24.01953
G1 X81.473 Y149.462 E24.04957
G1 X80.604 Y149.216 E24.0796
G1 X80.079 Y149.026 E24.09817
G1 X79.081 Y148.628 E24.13391
G1 X78.638 Y148.437 E24.14996
G1 X77.825 Y148.043 E24.18
G1 X77.05 Y147.578 E24.21007
G1 X76.605 Y147.267 E24.22812
G1 X75.992 Y146.813 E24.25349
G1 X75.38 Y146.335 E24.27932
G1 X74.697 Y145.744 E24.30936
G1 X74.069 Y145.095 E24.3394
G1 X73.728 Y144.69 E24.35701
G1 X73.269 Y144.114 E24.38151
G1 X72.764 Y143.444 E24.40941
G1 X72.258 Y142.696 E24.43945
G1 X71.82 Y141.906 E24.46949
G1 X71.598 Y141.43 E24.48696
G1 X71.306 Y140.759 E24.5113
G1 X71.005 Y140.016 E24.53796
G1 X70.708 Y139.163 E24.568
G1 X70.488 Y138.287 E24.59804
G1 X70.394 Y137.756 E24.61598
G1 X70.281 Y137.003 E24.6413
G1 X70.182 Y136.212 E24.66782
G1 X70.117 Y135.357 E24.69634
G1 X70.102 Y134.745 E24.7167
G1 X70.1 Y85.707 E26.34771
G1 X70.111 Y84.863 E26.37578
G1 X70.171 Y83.895 E26.40804
G1 X70.275 Y83.01 E26.43768
G1 X70.374 Y82.335 E26.46037
G1 X70.544 Y81.448 E26.49041
G1 X70.793 Y80.58 E26.52044
G1 X70.97 Y80.09 E26.53777
G1 X71.243 Y79.394 E26.56264
G1 X71.563 Y78.638 E26.58994
G1 X71.957 Y77.825 E26.61999
G1 X72.422 Y77.05 E26.65005
G1 X72.733 Y76.606 E26.66808
G1 X73.181 Y76.001 E26.69312
G1 X73.662 Y75.384 E26.71914
G1 X74.252 Y74.701 E26.74916
M204 S2000
G1 F2400 E25.94916
;MESH:AutoTowersGenerator
G0 F7500 X79.644 Y84.889
G0 X86.061 Y138.954
M204 S500
;TYPE:WALL-INNER
G1 F2400 E26.74916
G1 F1500 X87.044 Y138.546 E26.78456
G1 X87.897 Y137.893 E26.82029
G1 X88.546 Y137.044 E26.85583
G1 X88.954 Y136.061 E26.89123
G1 X89.099 Y134.959 E26.9282
G1 X89.1 Y89.619 E28.43621
