;FLAVOR:Marlin
;TIME:3401
;Filament used: 1.58307m
;Layer height: 0.2
;MINX:75.6
;MINY:92.4
;MINZ:0.2
;MAXX:144.4
;MAXY:127.6
;MAXZ:42.8
;Post-Processed by AutoTowersGenerator
;AutoTowersGenerator: Post-processing a TempTower
;AutoTowersGenerator: Base height = 0.84 mm
;AutoTowersGenerator: Section height = 8.4 mm
;AutoTowersGenerator: Initial printed layer height = 0.2 mm
;AutoTowersGenerator: Printed layer height = 0.2 mm
;AutoTowersGenerator: Starting temperature = 230%
;AutoTowersGenerator: Temperature change = -5%
;AutoTowersGenerator: Enable LCD messages = False
;Generated with Cura_SteamEngine 5.2.2
M82 ;absolute extrusion mode
; Ender 3 S1 Start G-code
G92 E0 ; Reset Extruder
G28 ; Home all axes
M420 S1 ;Use bed leveling data
G1 Z10.0 F3000 ; Move Z Axis up little to prevent scratching of Heat Bed
G1 X0 Y0

M104 S220
M190 S60
M109 S220

G1 X0.1 Y20 Z0.3 F5000.0 ; Move to start position
G1 X0.1 Y200.0 Z0.3 F1500.0 E15 ; Draw the first line
G1 X0.4 Y200.0 Z0.3 F5000.0 ; Move to side a little
G1 X0.4 Y20 Z0.3 F1500.0 E30 ; Draw the second line
G92 E0 ; Reset Extruder
G1 Z2.0 F3000 ; Move Z Axis up little to prevent scratching of Heat Bed
G1 X5 Y20 Z0.3 F5000.0 ; Move over to prevent blob squish
G92 E0
G92 E0
G1 F2400 E-0.8
;LAYER_COUNT:214
;LAYER:0
M107
M204 S2000
G0 F7500 X79.486 Y95.027 Z0.2
M204 S500
;TYPE:SKIRT
G1 F2400 E0
G1 F1500 X80.226 Y94.451 E0.03119
G1 X81.012 Y93.939 E0.06239
G1 X81.839 Y93.497 E0.09358
G1 X82.701 Y93.127 E0.12478
G1 X83.591 Y92.831 E0.15597
G1 X84.503 Y92.613 E0.18716
G1 X85.43 Y92.472 E0.21835
G1 X86.301 Y92.413 E0.24738
G1 X86.93 Y92.4 E0.26831
G1 X132.851 Y92.401 E1.79565
G1 X133.549 Y92.411 E1.81887
G1 X134.485 Y92.465 E1.85005
G1 X135.413 Y92.597 E1.88122
G1 X136.327 Y92.809 E1.91243
G1 X137.219 Y93.098 E1.94362
G1 X138.084 Y93.461 E1.97482
G1 X138.914 Y93.897 E2.006
G1 X139.705 Y94.402 E2.03721
G1 X140.449 Y94.973 E2.06841
G1 X141.142 Y95.605 E2.0996
G1 X141.779 Y96.293 E2.13079
G1 X142.354 Y97.034 E2.16198
G1 X142.865 Y97.82 E2.19317
G1 X143.307 Y98.648 E2.22438
G1 X143.676 Y99.51 E2.25557
G1 X143.971 Y100.4 E2.28675
G1 X144.189 Y101.312 E2.31794
G1 X144.329 Y102.24 E2.34916
G1 X144.387 Y103.101 E2.37786
G1 X144.4 Y103.73 E2.39878
G1 X144.399 Y116 E2.80689
G1 X144.39 Y116.727 E2.83107
G1 X144.339 Y117.664 E2.86228
G1 X144.207 Y118.592 E2.89345
G1 X143.998 Y119.506 E2.92464
G1 X143.711 Y120.399 E2.95584
G1 X143.349 Y121.265 E2.98706
G1 X142.915 Y122.096 E3.01824
G1 X142.411 Y122.887 E3.04943
G1 X141.842 Y123.632 E3.08061
G1 X141.211 Y124.327 E3.11183
G1 X140.524 Y124.965 E3.14302
G1 X139.785 Y125.542 E3.1742
G1 X138.999 Y126.054 E3.2054
G1 X138.173 Y126.497 E3.23657
G1 X137.311 Y126.869 E3.2678
G1 X136.422 Y127.165 E3.29897
G1 X135.51 Y127.385 E3.33017
G1 X134.583 Y127.526 E3.36136
G1 X133.699 Y127.587 E3.39083
G1 X133.07 Y127.6 E3.41175
G1 X87.165 Y127.599 E4.93856
G1 X86.467 Y127.59 E4.96178
G1 X85.531 Y127.538 E4.99296
G1 X84.602 Y127.406 E5.02416
G1 X83.688 Y127.196 E5.05536
G1 X82.795 Y126.909 E5.08655
G1 X81.93 Y126.546 E5.11775
G1 X81.099 Y126.112 E5.14894
G1 X80.308 Y125.608 E5.18013
G1 X79.563 Y125.038 E5.21133
G1 X78.869 Y124.407 E5.24253
G1 X78.232 Y123.72 E5.27369
G1 X77.655 Y122.98 E5.3049
G1 X77.143 Y122.194 E5.3361
G1 X76.7 Y121.367 E5.3673
G1 X76.329 Y120.506 E5.39849
G1 X76.033 Y119.616 E5.42968
G1 X75.814 Y118.704 E5.46088
G1 X75.673 Y117.777 E5.49206
G1 X75.613 Y116.888 E5.5217
G1 X75.6 Y116.258 E5.54266
G1 X75.601 Y103.925 E5.95285
G1 X75.61 Y103.26 E5.97497
G1 X75.663 Y102.324 E6.00616
G1 X75.795 Y101.395 E6.03736
G1 X76.006 Y100.481 E6.06856
G1 X76.294 Y99.589 E6.09974
G1 X76.657 Y98.724 E6.13094
G1 X77.092 Y97.893 E6.16214
G1 X77.596 Y97.103 E6.19331
G1 X78.166 Y96.358 E6.2245
G1 X78.798 Y95.664 E6.25572
G1 X79.486 Y95.027 E6.28691
M204 S2000
G0 F7500 X79.874 Y95.223
M204 S500
G1 F1500 X80.61 Y94.67 E6.31753
G1 X81.391 Y94.182 E6.34816
G1 X82.211 Y93.764 E6.37877
G1 X83.065 Y93.419 E6.40941
G1 X83.945 Y93.149 E6.44002
G1 X84.845 Y92.957 E6.47063
G1 X85.759 Y92.843 E6.50126
G1 X86.312 Y92.813 E6.51968
G1 X86.93 Y92.8 E6.54024
G1 X132.693 Y92.8 E8.06233
G1 X133.543 Y92.811 E8.0906
G1 X134.462 Y92.864 E8.12122
G1 X135.373 Y92.997 E8.15184
G1 X136.269 Y93.208 E8.18245
G1 X137.143 Y93.496 E8.21306
G1 X137.99 Y93.859 E8.24371
G1 X138.801 Y94.294 E8.27432
G1 X139.571 Y94.798 E8.30493
G1 X140.295 Y95.367 E8.33556
G1 X140.967 Y95.997 E8.36619
G1 X141.582 Y96.682 E8.39681
G1 X142.135 Y97.418 E8.42743
G1 X142.622 Y98.199 E8.45804
G1 X143.039 Y99.02 E8.48867
G1 X143.384 Y99.874 E8.5193
G1 X143.653 Y100.754 E8.54991
G1 X143.845 Y101.655 E8.58055
G1 X143.958 Y102.568 E8.61115
G1 X143.987 Y103.112 E8.62927
G1 X144 Y103.73 E8.64983
G1 X143.999 Y115.995 E9.05776
G1 X143.99 Y116.722 E9.08194
G1 X143.939 Y117.641 E9.11256
G1 X143.808 Y118.553 E9.1432
G1 X143.598 Y119.449 E9.17381
G1 X143.312 Y120.324 E9.20443
G1 X142.951 Y121.171 E9.23505
G1 X142.517 Y121.983 E9.26567
G1 X142.015 Y122.755 E9.2963
G1 X141.447 Y123.48 E9.32694
G1 X140.819 Y124.153 E9.35755
G1 X140.135 Y124.769 E9.38817
G1 X139.4 Y125.323 E9.41878
G1 X138.62 Y125.812 E9.4494
G1 X137.8 Y126.231 E9.48003
G1 X136.947 Y126.577 E9.51064
G1 X136.067 Y126.848 E9.54127
G1 X135.167 Y127.041 E9.57188
G1 X134.253 Y127.156 E9.60252
G1 X133.688 Y127.187 E9.62134
G1 X133.07 Y127.2 E9.6419
G1 X87.17 Y127.199 E11.16854
G1 X86.472 Y127.19 E11.19176
G1 X85.553 Y127.138 E11.22237
G1 X84.642 Y127.007 E11.25299
G1 X83.746 Y126.797 E11.2836
G1 X82.871 Y126.51 E11.31422
G1 X82.024 Y126.148 E11.34486
G1 X81.212 Y125.714 E11.37548
G1 X80.441 Y125.212 E11.40608
G1 X79.716 Y124.644 E11.43672
G1 X79.043 Y124.015 E11.46735
G1 X78.428 Y123.331 E11.49795
G1 X77.874 Y122.596 E11.52856
G1 X77.386 Y121.815 E11.55919
G1 X76.967 Y120.995 E11.58982
G1 X76.621 Y120.142 E11.62043
G1 X76.351 Y119.262 E11.65105
G1 X76.158 Y118.361 E11.6817
G1 X76.044 Y117.448 E11.7123
G1 X76.013 Y116.877 E11.73132
G1 X76 Y116.258 E11.75191
G1 X76.001 Y103.931 E12.16191
G1 X76.01 Y103.266 E12.18403
G1 X76.062 Y102.346 E12.21468
G1 X76.194 Y101.435 E12.24529
G1 X76.405 Y100.539 E12.27591
G1 X76.692 Y99.664 E12.30654
G1 X77.055 Y98.818 E12.33716
G1 X77.489 Y98.006 E12.36778
G1 X77.992 Y97.235 E12.3984
G1 X78.561 Y96.511 E12.42902
G1 X79.189 Y95.839 E12.45962
G1 X79.874 Y95.223 E12.49026
M204 S2000
G0 F7500 X80.262 Y95.424
M204 S500
G1 F1500 X80.994 Y94.894 E12.52031
G1 X81.769 Y94.431 E12.55034
G1 X82.582 Y94.038 E12.58038
G1 X83.427 Y93.718 E12.61043
G1 X84.296 Y93.475 E12.64044
G1 X85.184 Y93.309 E12.67049
G1 X86.323 Y93.213 E12.7085
G1 X86.93 Y93.2 E12.7287
G1 X132.693 Y93.2 E14.25078
G1 X133.537 Y93.211 E14.27885
G1 X134.439 Y93.264 E14.30891
G1 X135.332 Y93.396 E14.33893
G1 X136.21 Y93.607 E14.36897
G1 X137.066 Y93.895 E14.399
G1 X137.893 Y94.257 E14.42903
G1 X138.685 Y94.692 E14.45908
G1 X139.436 Y95.194 E14.48913
G1 X140.139 Y95.761 E14.51917
G1 X140.789 Y96.388 E14.54921
G1 X141.381 Y97.07 E14.57924
G1 X141.911 Y97.801 E14.60927
G1 X142.373 Y98.577 E14.63931
G1 X142.766 Y99.39 E14.66935
G1 X143.084 Y100.235 E14.69938
G1 X143.327 Y101.105 E14.72942
G1 X143.492 Y101.993 E14.75946
G1 X143.587 Y103.123 E14.79718
G1 X143.6 Y103.73 E14.81737
G1 X143.599 Y115.99 E15.22514
G1 X143.59 Y116.717 E15.24932
G1 X143.539 Y117.619 E15.27937
G1 X143.408 Y118.513 E15.30942
G1 X143.199 Y119.391 E15.33944
G1 X142.913 Y120.248 E15.36949
G1 X142.552 Y121.076 E15.39953
G1 X142.12 Y121.868 E15.42954
G1 X141.619 Y122.62 E15.45959
G1 X141.053 Y123.324 E15.48964
G1 X140.428 Y123.975 E15.51965
G1 X139.747 Y124.569 E15.54971
G1 X139.016 Y125.1 E15.57976
G1 X138.242 Y125.564 E15.60977
G1 X137.429 Y125.958 E15.63982
G1 X136.585 Y126.278 E15.66984
G1 X135.715 Y126.523 E15.69991
G1 X134.828 Y126.689 E15.72992
G1 X133.677 Y126.787 E15.76834
G1 X133.07 Y126.8 E15.78853
G1 X87.175 Y126.799 E17.31501
G1 X86.477 Y126.79 E17.33823
G1 X85.576 Y126.739 E17.36824
G1 X84.682 Y126.607 E17.3983
G1 X83.804 Y126.398 E17.42832
G1 X82.947 Y126.111 E17.45838
G1 X82.12 Y125.75 E17.48839
G1 X81.327 Y125.317 E17.51844
G1 X80.576 Y124.816 E17.54847
G1 X79.872 Y124.25 E17.57851
G1 X79.221 Y123.624 E17.60855
G1 X78.628 Y122.943 E17.63858
G1 X78.098 Y122.212 E17.66861
G1 X77.634 Y121.437 E17.69866
G1 X77.24 Y120.624 E17.72871
G1 X76.92 Y119.78 E17.75873
G1 X76.676 Y118.91 E17.78878
G1 X76.51 Y118.022 E17.81883
G1 X76.413 Y116.867 E17.85738
G1 X76.4 Y116.258 E17.87764
G1 X76.401 Y103.936 E18.28747
G1 X76.41 Y103.271 E18.30959
G1 X76.462 Y102.369 E18.33964
G1 X76.594 Y101.476 E18.36966
G1 X76.804 Y100.598 E18.39969
G1 X77.091 Y99.741 E18.42975
G1 X77.453 Y98.914 E18.45977
G1 X77.886 Y98.122 E18.4898
G1 X78.388 Y97.371 E18.51984
G1 X78.955 Y96.667 E18.54991
G1 X79.581 Y96.017 E18.57992
G1 X80.262 Y95.424 E18.60996
M204 S2000
G1 F2400 E17.80996
;MESH:AutoTowersGenerator
G0 F7500 X87.014 Y102.735
G0 X87.2 Y116
M204 S500
;TYPE:WALL-INNER
G1 F2400 E18.60996
G1 F1500 X132.8 Y116 E20.12662
G1 X132.8 Y110 E20.32618
G1 X132.8 Y104 E20.52574
G1 X87.2 Y104 E22.0424
G1 X87.2 Y116 E22.44152
M204 S2000
G0 F7500 X86.8 Y116.4
M204 S500
;TYPE:WALL-OUTER
G1 F1500 X133.2 Y116.4 E23.98479
G1 X133.2 Y110 E24.19766
G1 X133.2 Y103.6 E24.41052
G1 X86.8 Y103.6 E25.95379
G1 X86.8 Y116.4 E26.37952
M204 S2000
G0 F7500 X87.07 Y116.13
G0 X87.3 Y115.64
G0 X87.56 Y115.64
M204 S500
;TYPE:SKIN
G1 F1500 X132.44 Y115.64 E27.87224
G1 X132.44 Y110 E28.05983
G1 X132.44 Y104.36 E28.24741
G1 X87.56 Y104.36 E29.74013
G1 X87.56 Y115.64 E30.1153
M204 S2000
G0 F7500 X88.286 Y115.439
M204 S500
G1 F1500 X87.759 Y114.912 E30.14009
M204 S2000
G0 F7500 X87.759 Y114.346
M204 S500
G1 F1500 X88.852 Y115.439 E30.1915
M204 S2000
G0 F7500 X89.417 Y115.439
M204 S500
G1 F1500 X87.759 Y113.781 E30.26949
M204 S2000
G0 F7500 X87.759 Y113.215
M204 S500
G1 F1500 X89.983 Y115.439 E30.3741
M204 S2000
G0 F7500 X90.549 Y115.439
M204 S500
G1 F1500 X87.759 Y112.649 E30.50533
M204 S2000
G0 F7500 X87.759 Y112.084
M204 S500
G1 F1500 X91.114 Y115.439 E30.66314
M204 S2000
G0 F7500 X91.68 Y115.439
M204 S500
G1 F1500 X87.759 Y111.518 E30.84757
M204 S2000
G0 F7500 X87.759 Y110.952
M204 S500
G1 F1500 X92.246 Y115.439 E31.05863
M204 S2000
G0 F7500 X92.812 Y115.439
M204 S500
G1 F1500 X87.759 Y110.387 E31.29628
M204 S2000
G0 F7500 X87.759 Y109.821
M204 S500
G1 F1500 X93.377 Y115.439 E31.56053
M204 S2000
G0 F7500 X93.943 Y115.439
M204 S500
G1 F1500 X87.759 Y109.255 E31.85141
M204 S2000
G0 F7500 X87.759 Y108.69
M204 S500
G1 F1500 X94.509 Y115.439 E32.16889
M204 S2000
G0 F7500 X95.074 Y115.439
M204 S500
G1 F1500 X87.759 Y108.124 E32.51296
M204 S2000
G0 F7500 X87.759 Y107.558
M204 S500
G1 F1500 X95.64 Y115.439 E32.88366
M204 S2000
G0 F7500 X96.206 Y115.439
M204 S500
G1 F1500 X87.759 Y106.993 E33.28096
M204 S2000
G0 F7500 X87.759 Y106.427
M204 S500
G1 F1500 X96.771 Y115.439 E33.70485
M204 S2000
G0 F7500 X97.337 Y115.439
M204 S500
G1 F1500 X87.759 Y105.861 E34.15537
M204 S2000
G0 F7500 X87.759 Y105.295
M204 S500
G1 F1500 X97.903 Y115.439 E34.63252
M204 S2000
G0 F7500 X98.468 Y115.439
M204 S500
G1 F1500 X87.759 Y104.73 E35.13624
M204 S2000
G0 F7500 X88.155 Y104.559
M204 S500
G1 F1500 X99.034 Y115.439 E35.64797
M204 S2000
G0 F7500 X99.6 Y115.439
M204 S500
G1 F1500 X88.72 Y104.559 E36.15974
M204 S2000
G0 F7500 X89.286 Y104.559
M204 S500
G1 F1500 X100.165 Y115.439 E36.67147
M204 S2000
G0 F7500 X100.731 Y115.439
M204 S500
G1 F1500 X89.852 Y104.559 E37.18321
M204 S2000
G0 F7500 X90.417 Y104.559
M204 S500
G1 F1500 X101.297 Y115.439 E37.69497
M204 S2000
G0 F7500 X101.862 Y115.439
M204 S500
G1 F1500 X90.983 Y104.559 E38.20671
M204 S2000
G0 F7500 X91.549 Y104.559
M204 S500
G1 F1500 X102.428 Y115.439 E38.71845
M204 S2000
G0 F7500 X102.994 Y115.439
M204 S500
G1 F1500 X92.114 Y104.559 E39.23021
M204 S2000
G0 F7500 X92.68 Y104.559
M204 S500
G1 F1500 X103.56 Y115.439 E39.74197
M204 S2000
G0 F7500 X104.125 Y115.439
M204 S500
G1 F1500 X93.246 Y104.559 E40.25371
M204 S2000
G0 F7500 X93.811 Y104.559
M204 S500
G1 F1500 X104.691 Y115.439 E40.76547
M204 S2000
G0 F7500 X105.257 Y115.439
M204 S500
G1 F1500 X94.377 Y104.559 E41.27724
M204 S2000
G0 F7500 X94.943 Y104.559
M204 S500
G1 F1500 X105.822 Y115.439 E41.78897
M204 S2000
G0 F7500 X106.388 Y115.439
M204 S500
G1 F1500 X95.508 Y104.559 E42.30074
M204 S2000
G0 F7500 X96.074 Y104.559
M204 S500
G1 F1500 X106.954 Y115.439 E42.8125
M204 S2000
G0 F7500 X107.519 Y115.439
M204 S500
G1 F1500 X96.64 Y104.559 E43.32424
M204 S2000
G0 F7500 X97.205 Y104.559
M204 S500
G1 F1500 X108.085 Y115.439 E43.836
M204 S2000
G0 F7500 X108.651 Y115.439
M204 S500
G1 F1500 X97.771 Y104.559 E44.34776
M204 S2000
G0 F7500 X98.337 Y104.559
M204 S500
G1 F1500 X109.216 Y115.439 E44.8595
M204 S2000
G0 F7500 X109.782 Y115.439
M204 S500
G1 F1500 X98.903 Y104.559 E45.37124
M204 S2000
G0 F7500 X99.468 Y104.559
M204 S500
G1 F1500 X110.348 Y115.439 E45.883
M204 S2000
G0 F7500 X110.913 Y115.439
M204 S500
G1 F1500 X100.034 Y104.559 E46.39474
M204 S2000
G0 F7500 X100.6 Y104.559
M204 S500
G1 F1500 X111.479 Y115.439 E46.90648
M204 S2000
G0 F7500 X112.045 Y115.439
M204 S500
G1 F1500 X101.165 Y104.559 E47.41824
M204 S2000
G0 F7500 X101.731 Y104.559
M204 S500
G1 F1500 X112.61 Y115.439 E47.92998
M204 S2000
G0 F7500 X113.176 Y115.439
M204 S500
G1 F1500 X102.297 Y104.559 E48.44171
M204 S2000
G0 F7500 X102.862 Y104.559
M204 S500
G1 F1500 X113.742 Y115.439 E48.95348
M204 S2000
G0 F7500 X114.308 Y115.439
M204 S500
G1 F1500 X103.428 Y104.559 E49.46524
M204 S2000
G0 F7500 X103.994 Y104.559
M204 S500
G1 F1500 X114.873 Y115.439 E49.97698
M204 S2000
G0 F7500 X115.439 Y115.439
M204 S500
G1 F1500 X104.559 Y104.559 E50.48874
M204 S2000
G0 F7500 X105.125 Y104.559
M204 S500
G1 F1500 X116.005 Y115.439 E51.0005
M204 S2000
G0 F7500 X116.57 Y115.439
M204 S500
G1 F1500 X105.691 Y104.559 E51.51224
M204 S2000
G0 F7500 X106.256 Y104.559
M204 S500
G1 F1500 X117.136 Y115.439 E52.024
M204 S2000
G0 F7500 X117.702 Y115.439
M204 S500
G1 F1500 X106.822 Y104.559 E52.53576
M204 S2000
G0 F7500 X107.388 Y104.559
M204 S500
G1 F1500 X118.267 Y115.439 E53.0475
M204 S2000
G0 F7500 X118.833 Y115.439
M204 S500
G1 F1500 X107.953 Y104.559 E53.55926
M204 S2000
G0 F7500 X108.519 Y104.559
M204 S500
G1 F1500 X119.399 Y115.439 E54.07102
M204 S2000
G0 F7500 X119.964 Y115.439
M204 S500
G1 F1500 X109.085 Y104.559 E54.58276
M204 S2000
G0 F7500 X109.651 Y104.559
M204 S500
G1 F1500 X120.53 Y115.439 E55.0945
M204 S2000
G0 F7500 X121.096 Y115.439
M204 S500
G1 F1500 X110.216 Y104.559 E55.60626
M204 S2000
G0 F7500 X110.782 Y104.559
M204 S500
G1 F1500 X121.661 Y115.439 E56.118
M204 S2000
G0 F7500 X122.227 Y115.439
M204 S500
G1 F1500 X111.348 Y104.559 E56.62974
M204 S2000
G0 F7500 X111.913 Y104.559
M204 S500
G1 F1500 X122.793 Y115.439 E57.1415
M204 S2000
G0 F7500 X123.359 Y115.439
M204 S500
G1 F1500 X112.479 Y104.559 E57.65326
M204 S2000
G0 F7500 X113.045 Y104.559
M204 S500
G1 F1500 X123.924 Y115.439 E58.165
M204 S2000
G0 F7500 X124.49 Y115.439
M204 S500
G1 F1500 X113.61 Y104.559 E58.67676
M204 S2000
G0 F7500 X114.176 Y104.559
M204 S500
G1 F1500 X125.056 Y115.439 E59.18852
M204 S2000
G0 F7500 X125.621 Y115.439
M204 S500
G1 F1500 X114.742 Y104.559 E59.70026
M204 S2000
G0 F7500 X115.307 Y104.559
M204 S500
G1 F1500 X126.187 Y115.439 E60.21202
M204 S2000
G0 F7500 X126.753 Y115.439
M204 S500
G1 F1500 X115.873 Y104.559 E60.72379
M204 S2000
G0 F7500 X116.439 Y104.559
M204 S500
G1 F1500 X127.318 Y115.439 E61.23553
M204 S2000
G0 F7500 X127.884 Y115.439
M204 S500
G1 F1500 X117.004 Y104.559 E61.74729
M204 S2000
G0 F7500 X117.57 Y104.559
M204 S500
G1 F1500 X128.45 Y115.439 E62.25905
M204 S2000
G0 F7500 X129.015 Y115.439
M204 S500
G1 F1500 X118.136 Y104.559 E62.77079
M204 S2000
G0 F7500 X118.702 Y104.559
M204 S500
G1 F1500 X129.581 Y115.439 E63.28253
M204 S2000
G0 F7500 X130.147 Y115.439
M204 S500
G1 F1500 X119.267 Y104.559 E63.79429
M204 S2000
G0 F7500 X119.833 Y104.559
M204 S500
G1 F1500 X130.712 Y115.439 E64.30603
M204 S2000
G0 F7500 X131.278 Y115.439
M204 S500
G1 F1500 X120.399 Y104.559 E64.81776
M204 S2000
G0 F7500 X120.964 Y104.559
M204 S500
G1 F1500 X131.844 Y115.439 E65.32953
M204 S2000
G0 F7500 X132.239 Y115.269
M204 S500
G1 F1500 X121.53 Y104.559 E65.83327
