;FLAVOR:Marlin
;TIME:6035
;Filament used: 3.49121m
;Layer height: 0.2
;MINX:77.05
;MINY:94.07
;MINZ:0.2
;MAXX:143.778
;MAXY:125.93
;MAXZ:75.6
;POSTPROCESSED
;Generated with Cura_SteamEngine 5.2.2
M82 ;absolute extrusion mode
; Ender 3 S1 Start G-code
G92 E0 ; Reset Extruder
G28 ; Home all axes
M420 S1 ;Use bed leveling data
G1 Z10.0 F3000 ; Move Z Axis up little to prevent scratching of Heat Bed
G1 X0 Y0

M104 S220
M190 S60
M109 S220

G1 X0.1 Y20 Z0.3 F5000.0 ; Move to start position
G1 X0.1 Y200.0 Z0.3 F1500.0 E15 ; Draw the first line
G1 X0.4 Y200.0 Z0.3 F5000.0 ; Move to side a little
G1 X0.4 Y20 Z0.3 F1500.0 E30 ; Draw the second line
G92 E0 ; Reset Extruder
G1 Z2.0 F3000 ; Move Z Axis up little to prevent scratching of Heat Bed
G1 X5 Y20 Z0.3 F5000.0 ; Move over to prevent blob squish
G92 E0
G92 E0
G1 F2400 E-0.8
;LAYER_COUNT:378
;LAYER:0
;TYPE:CUSTOM LAYER
M104 S220
M107
M204 S2000
G0 F7500 X80.95 Y96.744 Z0.2
M204 S500
;TYPE:SKIRT
G1 F2400 E0
G1 F1500 X81.691 Y96.169 E0.0312
G1 X82.479 Y95.66 E0.0624
G1 X83.306 Y95.219 E0.09357
G1 X84.52 Y94.719 E0.13724
G1 X85.515 Y94.42 E0.17179
G1 X86.433 Y94.228 E0.20299
G1 X87.364 Y94.115 E0.23418
G1 X88.048 Y94.082 E0.25696
G1 X88.791 Y94.07 E0.28167
G1 X132.133 Y94.071 E1.72323
G1 X132.832 Y94.081 E1.74648
G1 X133.769 Y94.135 E1.7777
G1 X134.697 Y94.267 E1.80888
G1 X135.611 Y94.479 E1.84008
G1 X136.503 Y94.768 E1.87127
G1 X137.368 Y95.131 E1.90247
G1 X138.198 Y95.567 E1.93365
G1 X138.988 Y96.072 E1.96484
G1 X139.733 Y96.643 E1.99606
G1 X140.426 Y97.275 E2.02725
G1 X141.063 Y97.963 E2.05844
G1 X141.505 Y98.519 E2.08206
G1 X142.041 Y99.288 E2.11324
G1 X142.509 Y100.101 E2.14444
G1 X142.907 Y100.95 E2.17563
G1 X143.231 Y101.83 E2.20682
G1 X143.479 Y102.735 E2.23803
G1 X143.648 Y103.657 E2.2692
G1 X143.752 Y104.949 E2.31231
G1 X143.778 Y106.26 E2.35593
G1 X143.776 Y114.221 E2.62071
G1 X143.766 Y114.938 E2.64456
G1 X143.713 Y115.875 E2.67577
G1 X143.58 Y116.803 E2.70696
G1 X143.369 Y117.717 E2.73815
G1 X143.081 Y118.609 E2.76933
G1 X142.717 Y119.474 E2.80054
G1 X142.282 Y120.305 E2.83174
G1 X141.736 Y121.16 E2.86548
G1 X141.117 Y121.968 E2.89934
G1 X140.486 Y122.661 E2.93051
G1 X139.798 Y123.298 E2.96169
G1 X139.058 Y123.875 E2.9929
G1 X138.271 Y124.386 E3.02411
G1 X137.444 Y124.828 E3.0553
G1 X136.583 Y125.198 E3.08647
G1 X135.692 Y125.493 E3.11769
G1 X134.78 Y125.712 E3.14888
G1 X133.853 Y125.852 E3.18007
G1 X132.867 Y125.913 E3.21292
G1 X131.814 Y125.93 E3.24795
G1 X88.754 Y125.93 E4.68013
G1 X87.914 Y125.918 E4.70807
G1 X86.978 Y125.865 E4.73925
G1 X86.049 Y125.732 E4.77047
G1 X85.135 Y125.52 E4.80167
G1 X84.243 Y125.231 E4.83286
G1 X83.379 Y124.868 E4.86403
G1 X82.548 Y124.432 E4.89524
G1 X81.758 Y123.927 E4.92643
G1 X81.013 Y123.356 E4.95765
G1 X80.32 Y122.725 E4.98882
G1 X79.684 Y122.036 E5.02001
G1 X79.108 Y121.296 E5.0512
G1 X78.597 Y120.509 E5.08241
G1 X78.156 Y119.682 E5.11358
G1 X77.786 Y118.82 E5.14478
G1 X77.491 Y117.929 E5.176
G1 X77.273 Y117.017 E5.20718
G1 X77.133 Y116.09 E5.23837
G1 X77.073 Y115.144 E5.26989
G1 X77.051 Y114.068 E5.30569
G1 X77.05 Y105.625 E5.5865
G1 X77.06 Y104.971 E5.60826
G1 X77.115 Y104.035 E5.63944
G1 X77.248 Y103.106 E5.67066
G1 X77.461 Y102.193 E5.70184
G1 X77.75 Y101.301 E5.73303
G1 X78.115 Y100.437 E5.76422
G1 X78.552 Y99.607 E5.79542
G1 X79.057 Y98.817 E5.8266
G1 X79.629 Y98.073 E5.85782
G1 X80.261 Y97.381 E5.88899
G1 X80.95 Y96.744 E5.9202
M204 S2000
G0 F7500 X81.339 Y96.942
M204 S500
G1 F1500 X82.075 Y96.389 E5.95082
G1 X82.857 Y95.903 E5.98144
G1 X83.678 Y95.487 E6.01205
G1 X84.661 Y95.094 E6.04726
G1 X85.63 Y94.804 E6.08091
G1 X86.532 Y94.617 E6.11154
G1 X87.446 Y94.51 E6.14215
G1 X88.055 Y94.482 E6.16243
G1 X88.798 Y94.47 E6.18714
G1 X132.128 Y94.471 E7.6283
G1 X132.827 Y94.481 E7.65156
G1 X133.746 Y94.534 E7.68217
G1 X134.657 Y94.667 E7.71279
G1 X135.553 Y94.878 E7.74341
G1 X136.427 Y95.166 E7.77402
G1 X137.273 Y95.529 E7.80464
G1 X138.085 Y95.964 E7.83527
G1 X138.855 Y96.468 E7.86588
G1 X139.579 Y97.037 E7.89651
G1 X140.251 Y97.666 E7.92712
G1 X141.143 Y98.698 E7.97249
G1 X141.712 Y99.517 E8.00566
G1 X142.17 Y100.315 E8.03627
G1 X142.557 Y101.151 E8.06691
G1 X142.87 Y102.017 E8.09753
G1 X143.107 Y102.906 E8.12813
G1 X143.266 Y103.813 E8.15876
G1 X143.353 Y104.958 E8.19695
G1 X143.376 Y106.032 E8.23268
G1 X143.376 Y114.216 E8.50488
G1 X143.366 Y114.933 E8.52873
G1 X143.313 Y115.852 E8.55935
G1 X143.181 Y116.763 E8.58997
G1 X142.97 Y117.659 E8.62058
G1 X142.682 Y118.534 E8.65122
G1 X142.319 Y119.38 E8.68184
G1 X141.885 Y120.191 E8.71243
G1 X141.405 Y120.935 E8.74188
G1 X140.8 Y121.724 E8.77495
G1 X140.178 Y122.404 E8.8056
G1 X139.5 Y123.026 E8.83621
G1 X138.77 Y123.588 E8.86685
G1 X137.995 Y124.084 E8.89745
G1 X137.179 Y124.511 E8.92808
G1 X136.33 Y124.865 E8.95868
G1 X135.452 Y125.145 E8.98933
G1 X134.554 Y125.347 E9.01994
G1 X133.642 Y125.471 E9.05055
G1 X132.86 Y125.513 E9.0766
G1 X131.814 Y125.53 E9.1114
G1 X88.76 Y125.53 E10.54338
G1 X87.92 Y125.518 E10.57132
G1 X87 Y125.465 E10.60197
G1 X86.089 Y125.332 E10.63259
G1 X85.193 Y125.121 E10.66321
G1 X84.319 Y124.833 E10.69381
G1 X83.473 Y124.47 E10.72443
G1 X82.661 Y124.035 E10.75507
G1 X81.891 Y123.531 E10.78568
G1 X81.167 Y122.962 E10.81631
G1 X80.495 Y122.333 E10.84692
G1 X79.88 Y121.647 E10.87756
G1 X79.327 Y120.911 E10.90818
G1 X78.84 Y120.13 E10.9388
G1 X78.423 Y119.309 E10.96942
G1 X78.078 Y118.456 E11.00003
G1 X77.809 Y117.575 E11.03066
G1 X77.617 Y116.675 E11.06127
G1 X77.505 Y115.761 E11.0919
G1 X77.473 Y115.136 E11.11271
G1 X77.451 Y114.06 E11.14851
G1 X77.45 Y105.631 E11.42886
G1 X77.46 Y104.977 E11.45061
G1 X77.514 Y104.058 E11.48123
G1 X77.648 Y103.147 E11.51186
G1 X77.86 Y102.251 E11.54248
G1 X78.149 Y101.377 E11.5731
G1 X78.513 Y100.531 E11.60373
G1 X78.949 Y99.72 E11.63436
G1 X79.453 Y98.95 E11.66496
G1 X80.023 Y98.227 E11.69559
G1 X80.653 Y97.556 E11.7262
G1 X81.339 Y96.942 E11.75682
M204 S2000
G0 F7500 X81.726 Y97.143
M204 S500
G1 F1500 X82.458 Y96.614 E11.78686
G1 X83.234 Y96.152 E11.8169
G1 X84.048 Y95.761 E11.84693
G1 X84.88 Y95.446 E11.87652
G1 X85.745 Y95.187 E11.90655
G1 X86.63 Y95.007 E11.93659
G1 X87.527 Y94.905 E11.96662
G1 X88.061 Y94.882 E11.98439
G1 X88.969 Y94.869 E12.0146
G1 X132.122 Y94.871 E13.44987
G1 X132.821 Y94.881 E13.47312
G1 X133.722 Y94.934 E13.50314
G1 X134.616 Y95.066 E13.5332
G1 X135.494 Y95.277 E13.56323
G1 X136.35 Y95.565 E13.59327
G1 X137.177 Y95.927 E13.6233
G1 X137.969 Y96.361 E13.65334
G1 X138.72 Y96.864 E13.6834
G1 X139.423 Y97.431 E13.71344
G1 X140.073 Y98.058 E13.74348
G1 X140.827 Y98.943 E13.78215
G1 X141.383 Y99.745 E13.8146
G1 X141.831 Y100.53 E13.84467
G1 X142.207 Y101.351 E13.8747
G1 X142.509 Y102.202 E13.90473
G1 X142.735 Y103.076 E13.93476
G1 X142.882 Y103.967 E13.96479
G1 X142.953 Y104.967 E13.99814
G1 X142.976 Y106.041 E14.03387
G1 X142.976 Y114.21 E14.30557
G1 X142.966 Y114.927 E14.32942
G1 X142.913 Y115.829 E14.35947
G1 X142.781 Y116.722 E14.3895
G1 X142.571 Y117.6 E14.41952
G1 X142.283 Y118.457 E14.44959
G1 X141.921 Y119.284 E14.47962
G1 X141.487 Y120.076 E14.50966
G1 X141.032 Y120.764 E14.53709
G1 X140.482 Y121.481 E14.56715
G1 X139.871 Y122.145 E14.59716
G1 X139.203 Y122.753 E14.6272
G1 X138.484 Y123.3 E14.65725
G1 X137.72 Y123.781 E14.68728
G1 X136.916 Y124.192 E14.71731
G1 X136.078 Y124.531 E14.74738
G1 X135.215 Y124.794 E14.77738
G1 X134.331 Y124.98 E14.80743
G1 X133.434 Y125.087 E14.83747
G1 X132.853 Y125.113 E14.85682
G1 X131.814 Y125.13 E14.89138
G1 X88.765 Y125.13 E16.3232
G1 X87.925 Y125.118 E16.35114
G1 X87.024 Y125.065 E16.38116
G1 X86.13 Y124.933 E16.41121
G1 X85.252 Y124.722 E16.44125
G1 X84.396 Y124.434 E16.47129
G1 X83.569 Y124.072 E16.50131
G1 X82.777 Y123.638 E16.53135
G1 X82.027 Y123.135 E16.56138
G1 X81.324 Y122.568 E16.59142
G1 X80.673 Y121.942 E16.62146
G1 X80.081 Y121.26 E16.6515
G1 X79.552 Y120.528 E16.68154
G1 X79.089 Y119.753 E16.71156
G1 X78.697 Y118.939 E16.74161
G1 X78.378 Y118.094 E16.77166
G1 X78.135 Y117.224 E16.8017
G1 X77.97 Y116.336 E16.83174
G1 X77.873 Y115.128 E16.87205
G1 X77.849 Y113.843 E16.91479
G1 X77.85 Y105.637 E17.18773
G1 X77.86 Y104.983 E17.20948
G1 X77.914 Y104.082 E17.2395
G1 X78.047 Y103.188 E17.26956
G1 X78.259 Y102.31 E17.29961
G1 X78.548 Y101.455 E17.32962
G1 X78.911 Y100.628 E17.35966
G1 X79.346 Y99.836 E17.38972
G1 X79.849 Y99.086 E17.41975
G1 X80.416 Y98.384 E17.44977
G1 X81.044 Y97.734 E17.47983
G1 X81.726 Y97.143 E17.50984
M204 S2000
G1 F2400 E16.70984
;MESH:PLATempTower
G0 F7500 X88.463 Y104.404
G0 X88.649 Y114.331
M204 S500
;TYPE:WALL-INNER
G1 F2400 E17.50984
G1 F1500 X132.177 Y114.33 E18.95759
G1 X132.177 Y105.671 E19.24559
G1 X88.65 Y105.67 E20.6933
G1 X88.649 Y114.331 E20.98137
M204 S2000
G0 F7500 X88.249 Y114.731
M204 S500
;TYPE:WALL-OUTER
G1 F1500 X132.577 Y114.73 E22.45572
G1 X132.577 Y105.271 E22.77033
G1 X88.25 Y105.27 E24.24465
G1 X88.249 Y114.731 E24.55933
M204 S2000
G0 F7500 X88.519 Y114.461
G0 X88.749 Y113.97
G0 X89.01 Y113.97
M204 S500
;TYPE:SKIN
G1 F1500 X131.817 Y113.97 E25.98309
G1 X131.817 Y110 E26.11514
G1 X131.817 Y106.031 E26.24715
G1 X89.011 Y106.031 E27.67088
G1 X89.01 Y113.97 E27.93493
M204 S2000
G0 F7500 X89.444 Y113.769
M204 S500
G1 F1500 X89.21 Y113.534 E27.94596
M204 S2000
G0 F7500 X89.21 Y112.968
M204 S500
G1 F1500 X90.01 Y113.769 E27.98362
M204 S2000
G0 F7500 X90.576 Y113.769
M204 S500
G1 F1500 X89.21 Y112.403 E28.04787
M204 S2000
G0 F7500 X89.21 Y111.837
M204 S500
G1 F1500 X91.141 Y113.769 E28.13872
M204 S2000
G0 F7500 X91.707 Y113.769
M204 S500
G1 F1500 X89.21 Y111.271 E28.25619
M204 S2000
G0 F7500 X89.21 Y110.706
M204 S500
G1 F1500 X92.273 Y113.769 E28.40027
M204 S2000
G0 F7500 X92.838 Y113.769
M204 S500
G1 F1500 X89.21 Y110.14 E28.57094
M204 S2000
G0 F7500 X89.21 Y109.575
M204 S500
G1 F1500 X93.404 Y113.769 E28.76822
M204 S2000
G0 F7500 X93.97 Y113.769
M204 S500
G1 F1500 X89.21 Y109.009 E28.99211
M204 S2000
G0 F7500 X89.21 Y108.444
M204 S500
G1 F1500 X94.535 Y113.769 E29.24258
M204 S2000
G0 F7500 X95.101 Y113.769
M204 S500
G1 F1500 X89.21 Y107.878 E29.51968
M204 S2000
G0 F7500 X89.21 Y107.312
M204 S500
G1 F1500 X95.667 Y113.769 E29.82339
M204 S2000
G0 F7500 X96.232 Y113.769
M204 S500
G1 F1500 X89.21 Y106.746 E30.15371
M204 S2000
G0 F7500 X89.26 Y106.23
M204 S500
G1 F1500 X96.798 Y113.769 E30.5083
M204 S2000
G0 F7500 X97.364 Y113.769
M204 S500
G1 F1500 X89.825 Y106.23 E30.86291
M204 S2000
G0 F7500 X90.391 Y106.23
M204 S500
G1 F1500 X97.93 Y113.769 E31.21752
M204 S2000
G0 F7500 X98.495 Y113.769
M204 S500
G1 F1500 X90.957 Y106.23 E31.57211
M204 S2000
G0 F7500 X91.522 Y106.23
M204 S500
G1 F1500 X99.061 Y113.769 E31.92672
M204 S2000
G0 F7500 X99.627 Y113.769
M204 S500
G1 F1500 X92.088 Y106.23 E32.28133
M204 S2000
G0 F7500 X92.654 Y106.23
M204 S500
G1 F1500 X100.192 Y113.769 E32.63592
M204 S2000
G0 F7500 X100.758 Y113.769
M204 S500
G1 F1500 X93.22 Y106.23 E32.99051
M204 S2000
G0 F7500 X93.785 Y106.23
M204 S500
G1 F1500 X101.324 Y113.769 E33.34512
M204 S2000
G0 F7500 X101.889 Y113.769
M204 S500
G1 F1500 X94.351 Y106.23 E33.69971
M204 S2000
G0 F7500 X94.917 Y106.23
M204 S500
G1 F1500 X102.455 Y113.769 E34.0543
M204 S2000
G0 F7500 X103.021 Y113.769
M204 S500
G1 F1500 X95.482 Y106.23 E34.40891
M204 S2000
G0 F7500 X96.048 Y106.23
M204 S500
G1 F1500 X103.586 Y113.769 E34.7635
M204 S2000
G0 F7500 X104.152 Y113.769
M204 S500
G1 F1500 X96.614 Y106.23 E35.11808
M204 S2000
G0 F7500 X97.179 Y106.23
M204 S500
G1 F1500 X104.718 Y113.769 E35.4727
M204 S2000
G0 F7500 X105.283 Y113.769
M204 S500
G1 F1500 X97.745 Y106.23 E35.82728
M204 S2000
G0 F7500 X98.311 Y106.23
M204 S500
G1 F1500 X105.849 Y113.769 E36.18187
M204 S2000
G0 F7500 X106.415 Y113.769
M204 S500
G1 F1500 X98.876 Y106.23 E36.53648
M204 S2000
G0 F7500 X99.442 Y106.23
M204 S500
G1 F1500 X106.981 Y113.769 E36.89109
M204 S2000
G0 F7500 X107.546 Y113.769
M204 S500
G1 F1500 X100.008 Y106.23 E37.24568
M204 S2000
G0 F7500 X100.573 Y106.23
M204 S500
G1 F1500 X108.112 Y113.769 E37.60029
M204 S2000
G0 F7500 X108.678 Y113.769
M204 S500
G1 F1500 X101.139 Y106.23 E37.9549
M204 S2000
G0 F7500 X101.705 Y106.23
M204 S500
G1 F1500 X109.243 Y113.769 E38.30949
M204 S2000
G0 F7500 X109.809 Y113.769
M204 S500
G1 F1500 X102.27 Y106.23 E38.6641
M204 S2000
G0 F7500 X102.836 Y106.23
M204 S500
G1 F1500 X110.375 Y113.769 E39.01872
M204 S2000
G0 F7500 X110.94 Y113.769
M204 S500
G1 F1500 X103.402 Y106.23 E39.3733
M204 S2000
G0 F7500 X103.968 Y106.23
M204 S500
G1 F1500 X111.506 Y113.769 E39.72789
M204 S2000
G0 F7500 X112.072 Y113.769
M204 S500
G1 F1500 X104.533 Y106.23 E40.0825
M204 S2000
G0 F7500 X105.099 Y106.23
M204 S500
G1 F1500 X112.637 Y113.769 E40.43709
M204 S2000
G0 F7500 X113.203 Y113.769
M204 S500
G1 F1500 X105.665 Y106.23 E40.79168
M204 S2000
G0 F7500 X106.23 Y106.23
M204 S500
G1 F1500 X113.769 Y113.769 E41.14629
M204 S2000
G0 F7500 X114.334 Y113.769
M204 S500
G1 F1500 X106.796 Y106.23 E41.50088
M204 S2000
G0 F7500 X107.362 Y106.23
M204 S500
G1 F1500 X114.9 Y113.769 E41.85547
M204 S2000
G0 F7500 X115.466 Y113.769
M204 S500
G1 F1500 X107.927 Y106.23 E42.21008
M204 S2000
G0 F7500 X108.493 Y106.23
M204 S500
G1 F1500 X116.031 Y113.769 E42.56467
M204 S2000
G0 F7500 X116.597 Y113.769
M204 S500
G1 F1500 X109.059 Y106.23 E42.91925
M204 S2000
G0 F7500 X109.624 Y106.23
M204 S500
G1 F1500 X117.163 Y113.769 E43.27386
M204 S2000
G0 F7500 X117.729 Y113.769
M204 S500
G1 F1500 X110.19 Y106.23 E43.62848
M204 S2000
G0 F7500 X110.756 Y106.23
M204 S500
G1 F1500 X118.294 Y113.769 E43.98306
M204 S2000
G0 F7500 X118.86 Y113.769
M204 S500
G1 F1500 X111.321 Y106.23 E44.33768
M204 S2000
G0 F7500 X111.887 Y106.23
M204 S500
G1 F1500 X119.426 Y113.769 E44.69229
M204 S2000
G0 F7500 X119.991 Y113.769
M204 S500
G1 F1500 X112.453 Y106.23 E45.04687
M204 S2000
G0 F7500 X113.018 Y106.23
M204 S500
G1 F1500 X120.557 Y113.769 E45.40149
M204 S2000
G0 F7500 X121.123 Y113.769
M204 S500
G1 F1500 X113.584 Y106.23 E45.7561
M204 S2000
G0 F7500 X114.15 Y106.23
M204 S500
G1 F1500 X121.688 Y113.769 E46.11069
M204 S2000
G0 F7500 X122.254 Y113.769
M204 S500
G1 F1500 X114.716 Y106.23 E46.46527
M204 S2000
G0 F7500 X115.281 Y106.23
M204 S500
G1 F1500 X122.82 Y113.769 E46.81989
M204 S2000
G0 F7500 X123.385 Y113.769
M204 S500
G1 F1500 X115.847 Y106.23 E47.17447
M204 S2000
G0 F7500 X116.413 Y106.23
M204 S500
G1 F1500 X123.951 Y113.769 E47.52906
M204 S2000
G0 F7500 X124.517 Y113.769
M204 S500
G1 F1500 X116.978 Y106.23 E47.88367
M204 S2000
G0 F7500 X117.544 Y106.23
M204 S500
G1 F1500 X125.082 Y113.769 E48.23826
M204 S2000
G0 F7500 X125.648 Y113.769
M204 S500
G1 F1500 X118.11 Y106.23 E48.59285
M204 S2000
G0 F7500 X118.675 Y106.23
M204 S500
G1 F1500 X126.214 Y113.769 E48.94746
M204 S2000
G0 F7500 X126.78 Y113.769
M204 S500
G1 F1500 X119.241 Y106.23 E49.30207
M204 S2000
G0 F7500 X119.807 Y106.23
M204 S500
G1 F1500 X127.345 Y113.769 E49.65666
M204 S2000
G0 F7500 X127.911 Y113.769
M204 S500
G1 F1500 X120.372 Y106.23 E50.01127
M204 S2000
G0 F7500 X120.938 Y106.23
M204 S500
G1 F1500 X128.477 Y113.769 E50.36588
M204 S2000
G0 F7500 X129.042 Y113.769
M204 S500
G1 F1500 X121.504 Y106.23 E50.72047
M204 S2000
G0 F7500 X122.069 Y106.23
M204 S500
G1 F1500 X129.608 Y113.769 E51.07508
M204 S2000
G0 F7500 X130.174 Y113.769
M204 S500
G1 F1500 X122.635 Y106.23 E51.42969
M204 S2000
G0 F7500 X123.201 Y106.23
M204 S500
G1 F1500 X130.739 Y113.769 E51.78428
M204 S2000
G0 F7500 X131.305 Y113.769
M204 S500
G1 F1500 X123.767 Y106.23 E52.13887
M204 S2000
G0 F7500 X124.332 Y106.23
M204 S500
G1 F1500 X131.615 Y113.513 E52.48144
M204 S2000
G0 F7500 X131.615 Y112.948
M204 S500
G1 F1500 X124.898 Y106.23 E52.79741
M204 S2000
G0 F7500 X125.464 Y106.23
M204 S500
G1 F1500 X131.615 Y112.382 E53.08676
M204 S2000
G0 F7500 X131.615 Y111.816
M204 S500
G1 F1500 X126.029 Y106.23 E53.34951
M204 S2000
G0 F7500 X126.595 Y106.23
M204 S500
G1 F1500 X131.615 Y111.251 E53.58565
M204 S2000
G0 F7500 X131.615 Y110.685
M204 S500
G1 F1500 X127.161 Y106.23 E53.79518
M204 S2000
G0 F7500 X127.726 Y106.23
M204 S500
G1 F1500 X131.615 Y110.119 E53.97811
M204 S2000
G0 F7500 X131.615 Y109.554
M204 S500
G1 F1500 X128.292 Y106.23 E54.13443
M204 S2000
G0 F7500 X128.858 Y106.23
M204 S500
