;FLAVOR:Marlin
;TIME:4257
;Filament used: 2.93467m
;Layer height: 0.2
;MINX:81.091
;MINY:53
;MINZ:0.2
;MAXX:150.107
;MAXY:167
;MAXZ:16.4
;Generated with Cura_SteamEngine 5.4.0
M82 ;absolute extrusion mode
; Ender 3 S1 Start G-code
G92 E0 ; Reset Extruder
G28 ; Home all axes
M420 S1 ;Use bed leveling data
G1 Z10.0 F3000 ; Move Z Axis up little to prevent scratching of Heat Bed
G1 X0 Y0

M104 S205.0
M190 S60
M109 S205.0

G1 X0.1 Y20 Z0.3 F5000.0 ; Move to start position
G1 X0.1 Y200.0 Z0.3 F1500.0 E15 ; Draw the first line
G1 X0.4 Y200.0 Z0.3 F5000.0 ; Move to side a little
G1 X0.4 Y20 Z0.3 F1500.0 E30 ; Draw the second line
G92 E0 ; Reset Extruder
G1 Z2.0 F3000 ; Move Z Axis up little to prevent scratching of Heat Bed
G1 X5 Y20 Z0.3 F5000.0 ; Move over to prevent blob squish
G92 E0
G92 E0
G1 F2400 E-0.8
;LAYER_COUNT:82
;LAYER:0
M107
M204 S2000
G0 F7500 X93.627 Y59.749 Z0.2
M204 S500
;TYPE:SKIRT
G1 F2400 E0
G1 F1500 X94.185 Y58.908 E0.03357
G1 X94.793 Y58.147 E0.06597
G1 X95.416 Y57.493 E0.09601
G1 X96.2 Y56.802 E0.13077
G1 X96.928 Y56.268 E0.1608
G1 X97.898 Y55.686 E0.19842
G1 X98.583 Y55.324 E0.22419
G1 X100.363 Y54.424 E0.29053
G1 X101.004 Y54.111 E0.31425
G1 X101.899 Y53.725 E0.34667
G1 X102.822 Y53.422 E0.37898
G1 X103.77 Y53.199 E0.41138
G1 X104.663 Y53.069 E0.44139
G1 X105.478 Y53.015 E0.46856
G1 X106.065 Y53.002 E0.48808
G1 X113.541 Y53 E0.73674
G1 X114.444 Y53.014 E0.76677
G1 X115.417 Y53.075 E0.7992
G1 X116.38 Y53.222 E0.8316
G1 X117.326 Y53.454 E0.864
G1 X118.248 Y53.769 E0.8964
G1 X119.123 Y54.156 E0.92823
G1 X119.746 Y54.475 E0.95151
G1 X121.627 Y55.498 E1.02272
G1 X122.386 Y55.927 E1.05172
G1 X123.21 Y56.443 E1.08406
G1 X123.931 Y56.986 E1.11408
G1 X124.707 Y57.689 E1.1489
G1 X125.366 Y58.404 E1.18124
G1 X125.96 Y59.176 E1.21364
G1 X126.484 Y59.998 E1.24606
G1 X126.917 Y60.831 E1.27729
G1 X127.288 Y61.727 E1.30954
G1 X127.534 Y62.482 E1.33595
G1 X127.735 Y63.193 E1.36053
G1 X142.586 Y119.203 E3.2878
G1 X142.774 Y119.957 E3.31365
G1 X143 Y121.148 E3.35397
G1 X143.108 Y121.968 E3.38148
G1 X143.487 Y124.556 E3.46847
G1 X143.928 Y127.064 E3.55317
G1 X144.429 Y129.508 E3.63615
G1 X144.999 Y131.937 E3.71913
G1 X145.647 Y134.383 E3.80329
G1 X146.374 Y136.84 E3.88851
G1 X147.14 Y139.184 E3.97053
G1 X148.003 Y141.599 E4.05583
G1 X148.911 Y143.926 E4.13891
G1 X149.289 Y144.856 E4.1723
G1 X149.618 Y145.792 E4.2053
G1 X149.86 Y146.734 E4.23765
G1 X150.009 Y147.625 E4.26769
G1 X150.091 Y148.791 E4.30657
G1 X150.103 Y149.539 E4.33145
G1 X150.107 Y155.294 E4.52286
G1 X150.096 Y156.152 E4.5514
G1 X150.04 Y157.125 E4.58382
G1 X149.903 Y158.052 E4.61499
G1 X149.668 Y159.035 E4.6486
G1 X149.358 Y159.957 E4.68095
G1 X148.982 Y160.817 E4.71217
G1 X148.498 Y161.703 E4.74575
G1 X147.956 Y162.512 E4.77814
G1 X147.345 Y163.27 E4.81052
G1 X146.72 Y163.922 E4.84056
G1 X145.932 Y164.609 E4.87533
G1 X145.173 Y165.16 E4.90653
G1 X144.307 Y165.678 E4.94009
G1 X143.43 Y166.101 E4.97247
G1 X142.519 Y166.444 E5.00485
G1 X141.579 Y166.706 E5.03731
G1 X140.615 Y166.885 E5.06992
G1 X139.486 Y166.983 E5.10761
G1 X138.81 Y166.999 E5.1301
G1 X99.376 Y167 E6.44168
G1 X98.519 Y166.988 E6.47019
G1 X97.547 Y166.93 E6.50257
G1 X96.583 Y166.785 E6.535
G1 X95.637 Y166.555 E6.56738
G1 X94.715 Y166.243 E6.59975
G1 X93.824 Y165.851 E6.63213
G1 X92.97 Y165.381 E6.66455
G1 X92.162 Y164.838 E6.69693
G1 X91.459 Y164.272 E6.72695
G1 X90.706 Y163.547 E6.76171
G1 X90.069 Y162.811 E6.79409
G1 X89.538 Y162.08 E6.82414
G1 X89.003 Y161.183 E6.85888
G1 X88.581 Y160.304 E6.89131
G1 X88.24 Y159.393 E6.92366
G1 X87.98 Y158.455 E6.95603
G1 X87.802 Y157.486 E6.9888
G1 X87.702 Y156.248 E7.03011
G1 X87.675 Y155.005 E7.07146
G1 X87.637 Y144.446 E7.42266
G1 X87.655 Y141.813 E7.51024
G1 X87.651 Y129.978 E7.90387
G1 X87.673 Y128.462 E7.9543
G1 X87.75 Y125.889 E8.03991
G1 X87.792 Y122.644 E8.14785
G1 X87.639 Y87.652 E9.3117
G1 X87.666 Y82.561 E9.48103
G1 X87.684 Y81.684 E9.51021
G1 X87.751 Y80.714 E9.54255
G1 X87.898 Y79.767 E9.57442
G1 X88.003 Y79.302 E9.59028
G1 X88.213 Y78.454 E9.61933
G1 X92.289 Y63.089 E10.14805
G1 X92.485 Y62.391 E10.17216
G1 X92.78 Y61.5 E10.20338
G1 X93.18 Y60.573 E10.23696
G1 X93.627 Y59.749 E10.26814
M204 S2000
G0 F7500 X93.979 Y59.94
M204 S500
G1 F1500 X94.498 Y59.157 E10.29938
G1 X95.083 Y58.423 E10.3306
G1 X95.706 Y57.769 E10.36064
G1 X96.437 Y57.125 E10.39305
G1 X97.165 Y56.591 E10.42308
G1 X98.085 Y56.04 E10.45874
G1 X98.764 Y55.681 E10.48429
G1 X100.538 Y54.783 E10.55042
G1 X101.163 Y54.478 E10.57355
G1 X102.024 Y54.105 E10.60476
G1 X102.914 Y53.811 E10.63594
G1 X103.828 Y53.595 E10.66717
G1 X104.721 Y53.465 E10.69719
G1 X105.487 Y53.415 E10.72272
G1 X106.065 Y53.402 E10.74195
G1 X113.535 Y53.4 E10.9904
G1 X114.42 Y53.413 E11.01984
G1 X115.357 Y53.47 E11.05106
G1 X116.285 Y53.611 E11.08228
G1 X117.197 Y53.833 E11.1135
G1 X118.086 Y54.135 E11.14473
G1 X118.961 Y54.522 E11.17655
G1 X119.555 Y54.826 E11.19874
G1 X121.43 Y55.846 E11.26974
G1 X122.174 Y56.266 E11.29815
G1 X122.969 Y56.763 E11.32934
G1 X123.69 Y57.306 E11.35936
G1 X124.413 Y57.96 E11.39178
G1 X125.049 Y58.649 E11.42297
G1 X125.623 Y59.392 E11.4542
G1 X126.129 Y60.183 E11.48543
G1 X126.547 Y60.984 E11.51548
G1 X126.918 Y61.88 E11.54774
G1 X127.149 Y62.591 E11.5726
G1 X127.348 Y63.296 E11.59696
G1 X142.198 Y119.3 E13.52404
G1 X142.381 Y120.032 E13.54913
G1 X142.603 Y121.2 E13.58868
G1 X142.712 Y122.026 E13.61639
G1 X143.093 Y124.625 E13.70375
G1 X143.536 Y127.144 E13.78882
G1 X144.037 Y129.588 E13.8718
G1 X144.612 Y132.039 E13.95553
G1 X145.263 Y134.496 E14.04007
G1 X145.99 Y136.953 E14.1253
G1 X146.763 Y139.319 E14.20808
G1 X147.63 Y141.744 E14.29374
G1 X148.54 Y144.077 E14.37703
G1 X148.918 Y145.007 E14.41042
G1 X149.231 Y145.892 E14.44164
G1 X149.465 Y146.8 E14.47283
G1 X149.614 Y147.691 E14.50287
G1 X149.691 Y148.797 E14.53975
G1 X149.703 Y149.539 E14.56443
G1 X149.707 Y155.289 E14.75568
G1 X149.697 Y156.129 E14.78362
G1 X149.644 Y157.067 E14.81486
G1 X149.514 Y157.96 E14.84488
G1 X149.289 Y158.908 E14.87728
G1 X148.991 Y159.797 E14.90847
G1 X148.615 Y160.657 E14.93969
G1 X148.166 Y161.481 E14.9709
G1 X147.644 Y162.261 E15.00212
G1 X147.056 Y162.993 E15.03334
G1 X146.431 Y163.645 E15.06338
G1 X145.697 Y164.285 E15.09577
G1 X144.938 Y164.836 E15.12697
G1 X144.133 Y165.318 E15.15818
G1 X143.288 Y165.727 E15.1894
G1 X142.411 Y166.059 E15.22059
G1 X141.506 Y166.313 E15.25185
G1 X140.58 Y166.486 E15.28318
G1 X139.451 Y166.584 E15.32088
G1 X138.81 Y166.599 E15.3422
G1 X99.381 Y166.6 E16.65362
G1 X98.542 Y166.589 E16.68152
G1 X97.606 Y166.534 E16.71271
G1 X96.677 Y166.396 E16.74395
G1 X95.765 Y166.176 E16.77515
G1 X94.876 Y165.877 E16.80635
G1 X94.016 Y165.5 E16.83758
G1 X93.193 Y165.049 E16.86879
G1 X92.413 Y164.526 E16.90003
G1 X91.71 Y163.96 E16.93004
G1 X91.008 Y163.285 E16.96243
G1 X90.393 Y162.576 E16.99365
G1 X89.862 Y161.845 E17.0237
G1 X89.363 Y161.009 E17.05608
G1 X88.955 Y160.163 E17.08732
G1 X88.625 Y159.286 E17.11849
G1 X88.373 Y158.382 E17.1497
G1 X88.201 Y157.453 E17.18113
G1 X88.102 Y156.239 E17.22164
G1 X88.075 Y155.004 E17.26272
G1 X88.037 Y144.449 E17.61379
G1 X88.055 Y141.816 E17.70136
G1 X88.051 Y129.984 E18.0949
G1 X88.073 Y128.474 E18.14513
G1 X88.15 Y125.901 E18.23074
G1 X88.192 Y122.649 E18.33891
G1 X88.039 Y87.654 E19.50286
G1 X88.066 Y82.569 E19.67199
G1 X88.083 Y81.711 E19.70054
G1 X88.146 Y80.775 E19.73174
G1 X88.288 Y79.855 E19.7627
G1 X88.391 Y79.398 E19.77828
G1 X88.6 Y78.557 E19.8071
G1 X92.674 Y63.197 E20.33564
G1 X92.865 Y62.517 E20.35914
G1 X93.16 Y61.626 E20.39035
G1 X93.532 Y60.764 E20.42158
G1 X93.979 Y59.94 E20.45276
M204 S2000
G0 F7500 X94.313 Y60.16
M204 S500
G1 F1500 X94.811 Y59.406 E20.48281
G1 X95.373 Y58.699 E20.51285
G1 X95.996 Y58.045 E20.54289
G1 X96.674 Y57.448 E20.57294
G1 X97.402 Y56.914 E20.60297
G1 X98.272 Y56.394 E20.63668
G1 X98.945 Y56.038 E20.662
G1 X100.714 Y55.142 E20.72796
G1 X101.322 Y54.845 E20.75046
G1 X102.15 Y54.485 E20.78049
G1 X103.007 Y54.2 E20.81053
G1 X103.886 Y53.991 E20.84058
G1 X104.779 Y53.861 E20.8706
G1 X105.496 Y53.815 E20.89449
G1 X106.065 Y53.802 E20.91342
G1 X113.529 Y53.8 E21.16168
G1 X114.396 Y53.812 E21.19052
G1 X115.298 Y53.866 E21.22057
G1 X116.191 Y54 E21.2506
G1 X117.069 Y54.212 E21.28065
G1 X117.924 Y54.501 E21.31066
G1 X118.799 Y54.888 E21.34249
G1 X119.364 Y55.177 E21.36359
G1 X121.234 Y56.195 E21.43441
G1 X121.962 Y56.605 E21.4622
G1 X122.728 Y57.083 E21.49223
G1 X123.449 Y57.626 E21.52225
G1 X124.12 Y58.232 E21.55232
G1 X124.733 Y58.894 E21.58233
G1 X125.286 Y59.608 E21.61237
G1 X125.774 Y60.368 E21.64241
G1 X126.192 Y61.169 E21.67246
G1 X126.538 Y62.003 E21.70249
G1 X126.764 Y62.7 E21.72686
G1 X126.961 Y63.399 E21.75101
G1 X141.81 Y119.397 E23.67788
G1 X141.988 Y120.107 E23.70223
G1 X142.206 Y121.252 E23.741
G1 X142.316 Y122.084 E23.76891
G1 X142.699 Y124.694 E23.85665
G1 X143.144 Y127.224 E23.94209
G1 X143.645 Y129.668 E24.02507
G1 X144.225 Y132.141 E24.10955
G1 X144.879 Y134.609 E24.19447
G1 X145.606 Y137.066 E24.27969
G1 X146.386 Y139.454 E24.36325
G1 X147.257 Y141.889 E24.44926
G1 X148.167 Y144.222 E24.53255
G1 X148.541 Y145.141 E24.56555
G1 X148.844 Y145.992 E24.5956
G1 X149.07 Y146.866 E24.62562
G1 X149.219 Y147.757 E24.65567
G1 X149.291 Y148.804 E24.69057
G1 X149.303 Y149.539 E24.71502
G1 X149.307 Y155.285 E24.90614
G1 X149.298 Y156.107 E24.93348
G1 X149.248 Y157.009 E24.96352
G1 X149.118 Y157.902 E24.99354
G1 X148.91 Y158.781 E25.02358
G1 X148.624 Y159.638 E25.05363
G1 X148.264 Y160.466 E25.08366
G1 X147.833 Y161.259 E25.11368
G1 X147.332 Y162.011 E25.14373
G1 X146.767 Y162.716 E25.17378
G1 X146.142 Y163.368 E25.20382
G1 X145.462 Y163.962 E25.23385
G1 X144.732 Y164.493 E25.26388
G1 X143.958 Y164.958 E25.29391
G1 X143.146 Y165.353 E25.32394
G1 X142.302 Y165.674 E25.35398
G1 X141.432 Y165.92 E25.38405
G1 X140.545 Y166.087 E25.41407
G1 X139.416 Y166.185 E25.45176
G1 X138.81 Y166.199 E25.47192
G1 X99.386 Y166.2 E26.78317
G1 X98.565 Y166.19 E26.81048
G1 X97.664 Y166.138 E26.84049
G1 X96.77 Y166.007 E26.87054
G1 X95.892 Y165.797 E26.90057
G1 X95.036 Y165.51 E26.9306
G1 X94.208 Y165.149 E26.96064
G1 X93.415 Y164.716 E26.99069
G1 X92.664 Y164.214 E27.02074
G1 X91.961 Y163.648 E27.05076
G1 X91.31 Y163.022 E27.08079
G1 X90.717 Y162.341 E27.11083
G1 X90.186 Y161.61 E27.14088
G1 X89.723 Y160.835 E27.17091
G1 X89.329 Y160.022 E27.20095
G1 X89.01 Y159.178 E27.23096
G1 X88.766 Y158.308 E27.26102
G1 X88.6 Y157.42 E27.29106
G1 X88.502 Y156.23 E27.33078
G1 X88.475 Y155.003 E27.3716
G1 X88.437 Y144.452 E27.72253
G1 X88.455 Y141.819 E27.8101
G1 X88.451 Y129.99 E28.20354
G1 X88.473 Y128.486 E28.25357
G1 X88.55 Y125.913 E28.33918
G1 X88.592 Y122.654 E28.44759
G1 X88.439 Y87.656 E29.61164
G1 X88.466 Y82.577 E29.78057
G1 X88.482 Y81.737 E29.80851
G1 X88.541 Y80.836 E29.83854
G1 X88.678 Y79.943 E29.86859
G1 X88.779 Y79.495 E29.88386
G1 X88.987 Y78.66 E29.91249
G1 X93.059 Y63.305 E30.44085
G1 X93.245 Y62.642 E30.46375
G1 X93.527 Y61.784 E30.49379
G1 X93.884 Y60.954 E30.52384
G1 X94.313 Y60.16 E30.55386
M204 S2000
G1 F2400 E29.75386
;MESH:new-Dorsal-Support-Free.STL
G0 F7500 X97.986 Y129.375
G0 X99.276 Y155.4
M204 S500
;TYPE:WALL-INNER
G1 F2400 E30.55386
G1 F1500 X138.507 Y155.4 E31.85869
G1 X138.503 Y149.314 E32.06111
G1 X127.497 Y142.461 E32.49233
G1 X127.38 Y142.341 E32.4979
G1 X127.264 Y142.019 E32.50929
G1 X127.265 Y129.363 E32.93023
G1 X127.339 Y129.104 E32.93919
G1 X131.459 Y122.489 E33.19839
G1 X116.449 Y65.888 E35.14602
G1 X114.086 Y64.6 E35.23553
G1 X105.942 Y64.6 E35.5064
G1 X103.569 Y65.804 E35.5949
G1 X99.27 Y82.015 E36.15272
G1 X99.238 Y87.483 E36.33459
G1 X99.4 Y124.436 E37.56366
G1 X99.251 Y129.409 E37.72914
G1 X99.255 Y142.802 E38.17459
G1 X99.236 Y143.926 E38.21198
G1 X99.276 Y155.4 E38.59361
M204 S2000
G0 F7500 X98.878 Y155.8
M204 S500
;TYPE:WALL-OUTER
G1 F1500 X138.907 Y155.8 E39.92498
G1 X138.903 Y149.092 E40.14809
G1 X127.71 Y142.125 E40.5866
G1 X127.665 Y142.009 E40.59073
G1 X127.667 Y129.333 E41.01234
G1 X131.89 Y122.553 E41.27801
G1 X116.791 Y65.619 E43.2371
G1 X114.188 Y64.2 E43.33571
G1 X105.846 Y64.2 E43.61316
G1 X103.228 Y65.528 E43.7108
G1 X98.87 Y81.962 E44.27629
G1 X98.838 Y87.485 E44.45999
G1 X99 Y124.424 E45.6886
G1 X98.851 Y129.403 E45.85427
G1 X98.855 Y142.795 E46.29969
G1 X98.836 Y143.923 E46.33722
G1 X98.878 Y155.8 E46.73225
M204 S2000
G0 F7500 X99.148 Y155.53
G0 X99.375 Y155.04
G0 X99.635 Y155.04
M204 S500
;TYPE:SKIN
G1 F1500 X99.596 Y143.933 E47.10167
G1 X99.615 Y142.806 E47.13916
G1 X99.612 Y129.419 E47.58441
G1 X99.76 Y124.441 E47.75006
G1 X99.598 Y87.539 E48.97743
G1 X99.63 Y82.06 E49.15967
G1 X103.875 Y66.053 E49.71047
G1 X106.029 Y64.96 E49.7908
G1 X113.994 Y64.96 E50.05572
G1 X116.141 Y66.13 E50.13705
G1 X131.073 Y122.428 E52.07427
G1 X127.025 Y128.929 E52.32898
G1 X126.908 Y129.322 E52.34262
G1 X126.905 Y142.038 E52.76556
G1 X127.002 Y142.417 E52.77857
G1 X127.244 Y142.729 E52.7917
G1 X138.143 Y149.514 E53.21871
G1 X138.146 Y155.04 E53.40251
G1 X99.635 Y155.04 E54.68339
M204 S2000
G0 F7500 X99.967 Y154.838
M204 S500
G1 F1500 X99.832 Y154.704 E54.68971
M204 S2000
G0 F7500 X99.83 Y154.136
M204 S500
G1 F1500 X100.532 Y154.838 E54.72273
M204 S2000
G0 F7500 X101.098 Y154.838
M204 S500
G1 F1500 X99.828 Y153.568 E54.78247
M204 S2000
G0 F7500 X99.827 Y153.001
M204 S500
G1 F1500 X101.664 Y154.838 E54.86888
M204 S2000
G0 F7500 X102.229 Y154.838
M204 S500
G1 F1500 X99.825 Y152.433 E54.98198
M204 S2000
G0 F7500 X99.822 Y151.866
M204 S500
G1 F1500 X102.795 Y154.838 E55.12179
M204 S2000
G0 F7500 X103.361 Y154.838
M204 S500
G1 F1500 X99.82 Y151.298 E55.28833
M204 S2000
G0 F7500 X99.819 Y150.731
M204 S500
G1 F1500 X103.927 Y154.838 E55.48153
M204 S2000
G0 F7500 X104.492 Y154.838
M204 S500
G1 F1500 X99.817 Y150.163 E55.70143
M204 S2000
G0 F7500 X99.815 Y149.595
M204 S500
G1 F1500 X105.058 Y154.838 E55.94804
M204 S2000
G0 F7500 X105.624 Y154.838
M204 S500
G1 F1500 X99.813 Y149.027 E56.22138
M204 S2000
G0 F7500 X99.811 Y148.46
M204 S500
G1 F1500 X106.189 Y154.838 E56.52138
M204 S2000
G0 F7500 X106.755 Y154.838
M204 S500
G1 F1500 X99.809 Y147.892 E56.8481
M204 S2000
G0 F7500 X99.807 Y147.324
M204 S500
G1 F1500 X107.321 Y154.838 E57.20153
M204 S2000
G0 F7500 X107.886 Y154.838
M204 S500
G1 F1500 X99.805 Y146.757 E57.58164
M204 S2000
G0 F7500 X99.803 Y146.189
M204 S500
G1 F1500 X108.452 Y154.838 E57.98846
M204 S2000
G0 F7500 X109.018 Y154.838
M204 S500
G1 F1500 X99.801 Y145.622 E58.42198
M204 S2000
G0 F7500 X99.799 Y145.054
M204 S500
G1 F1500 X109.583 Y154.838 E58.88219
M204 S2000
G0 F7500 X110.149 Y154.838
M204 S500
G1 F1500 X99.797 Y144.486 E59.36911
M204 S2000
G0 F7500 X99.796 Y143.919
M204 S500
G1 F1500 X110.715 Y154.838 E59.88271
M204 S2000
G0 F7500 X111.28 Y154.838
M204 S500
G1 F1500 X99.805 Y143.363 E60.42246
M204 S2000
G0 F7500 X99.814 Y142.806
M204 S500
G1 F1500 X111.846 Y154.838 E60.9884
M204 S2000
G0 F7500 X112.412 Y154.838
M204 S500
G1 F1500 X99.814 Y142.24 E61.58098
M204 S2000
G0 F7500 X99.814 Y141.675
M204 S500
G1 F1500 X112.977 Y154.838 E62.20012
M204 S2000
G0 F7500 X113.543 Y154.838
M204 S500
G1 F1500 X99.814 Y141.109 E62.84589
M204 S2000
G0 F7500 X99.814 Y140.543
M204 S500
G1 F1500 X114.109 Y154.838 E63.51829
M204 S2000
G0 F7500 X114.675 Y154.838
M204 S500
G1 F1500 X99.813 Y139.977 E64.21733
M204 S2000
G0 F7500 X99.813 Y139.411
M204 S500
G1 F1500 X115.24 Y154.838 E64.94296
M204 S2000
G0 F7500 X115.806 Y154.838
M204 S500
G1 F1500 X99.813 Y138.846 E65.6952
M204 S2000
G0 F7500 X99.813 Y138.28
M204 S500
G1 F1500 X116.372 Y154.838 E66.47406
M204 S2000
G0 F7500 X116.937 Y154.838
M204 S500
G1 F1500 X99.813 Y137.714 E67.27952
M204 S2000
G0 F7500 X99.813 Y137.148
M204 S500
G1 F1500 X117.503 Y154.838 E68.11161
M204 S2000
G0 F7500 X118.069 Y154.838
M204 S500
G1 F1500 X99.813 Y136.582 E68.97031
M204 S2000
G0 F7500 X99.813 Y136.016
M204 S500
G1 F1500 X118.634 Y154.838 E69.85562
M204 S2000
G0 F7500 X119.2 Y154.838
M204 S500
G1 F1500 X99.813 Y135.451 E70.76752
M204 S2000
G0 F7500 X99.813 Y134.885
M204 S500
G1 F1500 X119.766 Y154.838 E71.70605
M204 S2000
G0 F7500 X120.331 Y154.838
M204 S500
G1 F1500 X99.812 Y134.319 E72.6712
M204 S2000
G0 F7500 X99.812 Y133.753
