;FLAVOR:Marlin
;TIME:3321
;Filament used: 2.54238m
;Layer height: 0.2
;MINX:69.893
;MINY:53
;MINZ:0.2
;MAXX:150.108
;MAXY:167
;MAXZ:5.6
;Generated with Cura_SteamEngine 5.4.0
M82 ;absolute extrusion mode
; Ender 3 S1 Start G-code
G92 E0 ; Reset Extruder
G28 ; Home all axes
M420 S1 ;Use bed leveling data
G1 Z10.0 F3000 ; Move Z Axis up little to prevent scratching of Heat Bed
G1 X0 Y0

M104 S205.0
M190 S60
M109 S205.0

G1 X0.1 Y20 Z0.3 F5000.0 ; Move to start position
G1 X0.1 Y200.0 Z0.3 F1500.0 E15 ; Draw the first line
G1 X0.4 Y200.0 Z0.3 F5000.0 ; Move to side a little
G1 X0.4 Y20 Z0.3 F1500.0 E30 ; Draw the second line
G92 E0 ; Reset Extruder
G1 Z2.0 F3000 ; Move Z Axis up little to prevent scratching of Heat Bed
G1 X5 Y20 Z0.3 F5000.0 ; Move over to prevent blob squish
G92 E0
G92 E0
G1 F2400 E-0.8
;LAYER_COUNT:28
;LAYER:0
M107
M204 S2000
G0 F7500 X72.068 Y57.454 Z0.2
M204 S500
;TYPE:SKIRT
G1 F2400 E0
G1 F1500 X72.659 Y56.726 E0.03119
G1 X73.361 Y56.001 E0.06475
G1 X74.071 Y55.387 E0.09597
G1 X74.89 Y54.797 E0.12955
G1 X75.729 Y54.301 E0.16196
G1 X76.543 Y53.91 E0.192
G1 X77.52 Y53.542 E0.22672
G1 X78.424 Y53.292 E0.25792
G1 X79.426 Y53.109 E0.2918
G1 X80.597 Y53.013 E0.33087
G1 X81.204 Y53 E0.35107
G1 X138.412 Y53 E2.25381
G1 X139.292 Y53.013 E2.28308
G1 X140.264 Y53.072 E2.31547
G1 X141.227 Y53.218 E2.34787
G1 X142.174 Y53.449 E2.38029
G1 X143.062 Y53.749 E2.41146
G1 X143.954 Y54.139 E2.44384
G1 X144.837 Y54.626 E2.47738
G1 X145.588 Y55.128 E2.50743
G1 X146.403 Y55.786 E2.54227
G1 X147.101 Y56.464 E2.57463
G1 X147.737 Y57.201 E2.60701
G1 X148.307 Y57.991 E2.63941
G1 X148.769 Y58.767 E2.66945
G1 X149.223 Y59.709 E2.70423
G1 X149.552 Y60.587 E2.73541
G1 X149.821 Y61.559 E2.76896
G1 X149.998 Y62.525 E2.80162
G1 X150.093 Y63.655 E2.83934
G1 X150.108 Y64.33 E2.8618
G1 X150.107 Y70.449 E3.06531
G1 X150.095 Y71.19 E3.08996
G1 X150.036 Y72.162 E3.12235
G1 X149.89 Y73.125 E3.15475
G1 X149.668 Y74.041 E3.1861
G1 X149.306 Y75.095 E3.22316
G1 X148.837 Y76.263 E3.26502
G1 X148.779 Y76.433 E3.271
G1 X148.376 Y77.43 E3.30677
G1 X147.52 Y79.734 E3.38851
G1 X146.695 Y82.163 E3.47384
G1 X145.952 Y84.568 E3.55756
G1 X145.28 Y86.986 E3.64103
G1 X144.67 Y89.456 E3.72565
G1 X144.14 Y91.887 E3.8084
G1 X143.678 Y94.341 E3.89146
G1 X143.163 Y97.655 E4.003
G1 X142.986 Y98.944 E4.04628
G1 X142.778 Y100.03 E4.08306
G1 X142.588 Y100.799 E4.1094
G1 X127.75 Y156.749 E6.03464
G1 X127.536 Y157.512 E6.06099
G1 X127.23 Y158.436 E6.09337
G1 X126.874 Y159.266 E6.1234
G1 X126.377 Y160.186 E6.15818
G1 X125.859 Y160.969 E6.18941
G1 X125.23 Y161.758 E6.22297
G1 X124.608 Y162.412 E6.25299
G1 X123.824 Y163.101 E6.2877
G1 X123.051 Y163.668 E6.31959
G1 X122.596 Y163.956 E6.3375
G1 X122.047 Y164.275 E6.35862
G1 X120.132 Y165.321 E6.43119
G1 X119.327 Y165.744 E6.46144
G1 X118.446 Y166.156 E6.49379
G1 X117.598 Y166.467 E6.52383
G1 X116.587 Y166.737 E6.55863
G1 X115.619 Y166.903 E6.5913
G1 X114.44 Y166.989 E6.63062
G1 X113.748 Y167 E6.65363
G1 X106.356 Y166.999 E6.89949
G1 X105.634 Y166.988 E6.92351
G1 X104.646 Y166.928 E6.95643
G1 X103.682 Y166.782 E6.98886
G1 X102.735 Y166.551 E7.02128
G1 X101.811 Y166.237 E7.05374
G1 X100.851 Y165.81 E7.08869
G1 X100.304 Y165.527 E7.10917
G1 X98.33 Y164.451 E7.18394
G1 X97.668 Y164.077 E7.20923
G1 X96.844 Y163.56 E7.24159
G1 X96.066 Y162.971 E7.27404
G1 X95.347 Y162.317 E7.30637
G1 X94.685 Y161.602 E7.33878
G1 X94.111 Y160.859 E7.37001
G1 X93.568 Y160.009 E7.40355
G1 X93.118 Y159.144 E7.43599
G1 X92.762 Y158.284 E7.46694
G1 X92.561 Y157.683 E7.48802
G1 X92.404 Y157.146 E7.50663
G1 X77.423 Y100.834 E9.44472
G1 X77.232 Y100.069 E9.47094
G1 X77.015 Y98.936 E9.50931
G1 X76.873 Y97.888 E9.54449
G1 X76.493 Y95.314 E9.63103
G1 X76.05 Y92.816 E9.71541
G1 X75.543 Y90.36 E9.79882
G1 X74.978 Y87.967 E9.8806
G1 X74.322 Y85.497 E9.9656
G1 X73.602 Y83.073 E10.0497
G1 X72.812 Y80.665 E10.13399
G1 X71.965 Y78.304 E10.21742
G1 X71.044 Y75.96 E10.30118
G1 X70.699 Y75.107 E10.33179
G1 X70.376 Y74.189 E10.36415
G1 X70.134 Y73.247 E10.3965
G1 X69.986 Y72.356 E10.42654
G1 X69.903 Y71.171 E10.46605
G1 X69.893 Y70.539 E10.48708
G1 X69.893 Y64.509 E10.68764
G1 X69.905 Y63.808 E10.71095
G1 X69.965 Y62.835 E10.74338
G1 X70.112 Y61.874 E10.77571
G1 X70.343 Y60.926 E10.80817
G1 X70.645 Y60.037 E10.83939
G1 X71.052 Y59.115 E10.87291
G1 X71.523 Y58.263 E10.90529
G1 X72.068 Y57.454 E10.93774
M204 S2000
G0 F7500 X72.379 Y57.706
M204 S500
G1 F1500 X72.97 Y56.978 E10.96892
G1 X73.623 Y56.304 E11.00014
G1 X74.333 Y55.69 E11.03136
G1 X75.094 Y55.141 E11.06257
G1 X75.902 Y54.662 E11.09381
G1 X76.716 Y54.271 E11.12384
G1 X77.627 Y53.928 E11.15622
G1 X78.531 Y53.678 E11.18742
G1 X79.459 Y53.508 E11.2188
G1 X80.606 Y53.413 E11.25708
G1 X81.213 Y53.4 E11.27727
G1 X138.406 Y53.4 E13.17952
G1 X139.268 Y53.412 E13.20819
G1 X140.205 Y53.468 E13.23941
G1 X141.133 Y53.607 E13.27062
G1 X142.046 Y53.828 E13.30186
G1 X142.902 Y54.116 E13.3319
G1 X143.794 Y54.506 E13.36428
G1 X144.615 Y54.959 E13.39547
G1 X145.366 Y55.461 E13.42551
G1 X146.125 Y56.073 E13.45794
G1 X146.799 Y56.726 E13.48916
G1 X147.413 Y57.435 E13.52035
G1 X147.963 Y58.196 E13.55158
G1 X148.425 Y58.972 E13.58162
G1 X148.848 Y59.849 E13.614
G1 X149.177 Y60.727 E13.64519
G1 X149.428 Y61.632 E13.67642
G1 X149.599 Y62.559 E13.70778
G1 X149.694 Y63.689 E13.74549
G1 X149.708 Y64.33 E13.76682
G1 X149.707 Y70.443 E13.97014
G1 X149.696 Y71.166 E13.99419
G1 X149.64 Y72.103 E14.02541
G1 X149.501 Y73.031 E14.05662
G1 X149.279 Y73.947 E14.08797
G1 X148.935 Y74.946 E14.12311
G1 X148.458 Y76.135 E14.16572
G1 X148.408 Y76.283 E14.17091
G1 X148.005 Y77.28 E14.20668
G1 X147.141 Y79.605 E14.28918
G1 X146.316 Y82.034 E14.3745
G1 X145.57 Y84.45 E14.4586
G1 X144.895 Y86.879 E14.54245
G1 X144.279 Y89.371 E14.62783
G1 X143.749 Y91.802 E14.71058
G1 X143.285 Y94.267 E14.79401
G1 X142.768 Y97.594 E14.90599
G1 X142.593 Y98.869 E14.9488
G1 X142.39 Y99.934 E14.98486
G1 X142.201 Y100.696 E15.01097
G1 X127.365 Y156.641 E16.93602
G1 X127.156 Y157.387 E16.96179
G1 X126.862 Y158.278 E16.993
G1 X126.506 Y159.108 E17.02304
G1 X126.043 Y159.965 E17.05543
G1 X125.525 Y160.748 E17.08666
G1 X124.94 Y161.482 E17.11788
G1 X124.318 Y162.136 E17.1479
G1 X123.587 Y162.779 E17.18028
G1 X122.837 Y163.33 E17.21123
G1 X122.395 Y163.61 E17.22863
G1 X121.855 Y163.924 E17.24941
G1 X119.946 Y164.967 E17.32176
G1 X119.157 Y165.382 E17.35141
G1 X118.308 Y165.78 E17.3826
G1 X117.46 Y166.091 E17.41264
G1 X116.519 Y166.343 E17.44504
G1 X115.59 Y166.504 E17.4764
G1 X114.434 Y166.589 E17.51495
G1 X113.748 Y166.6 E17.53777
G1 X106.362 Y166.599 E17.78343
G1 X105.658 Y166.589 E17.80685
G1 X104.705 Y166.532 E17.8386
G1 X103.776 Y166.393 E17.86985
G1 X102.863 Y166.172 E17.90109
G1 X101.973 Y165.871 E17.93234
G1 X101.034 Y165.454 E17.96651
G1 X100.495 Y165.176 E17.98668
G1 X98.527 Y164.103 E18.06123
G1 X97.88 Y163.738 E18.08594
G1 X97.085 Y163.241 E18.11713
G1 X96.335 Y162.675 E18.14838
G1 X95.64 Y162.045 E18.17958
G1 X95.002 Y161.357 E18.21078
G1 X94.428 Y160.614 E18.24201
G1 X93.923 Y159.824 E18.2732
G1 X93.488 Y158.991 E18.30445
G1 X93.132 Y158.131 E18.33541
G1 X92.945 Y157.571 E18.35505
G1 X92.791 Y157.043 E18.37334
G1 X77.811 Y100.737 E20.31123
G1 X77.625 Y99.994 E20.3367
G1 X77.408 Y98.861 E20.37507
G1 X77.269 Y97.83 E20.40967
G1 X76.889 Y95.256 E20.49621
G1 X76.444 Y92.746 E20.581
G1 X75.935 Y90.279 E20.66478
G1 X75.365 Y87.864 E20.74731
G1 X74.708 Y85.394 E20.83232
G1 X73.982 Y82.948 E20.91718
G1 X73.192 Y80.54 E21.00147
G1 X72.341 Y78.169 E21.08526
G1 X71.415 Y75.81 E21.16955
G1 X71.076 Y74.974 E21.19955
G1 X70.763 Y74.089 E21.23077
G1 X70.529 Y73.181 E21.26196
G1 X70.381 Y72.29 E21.292
G1 X70.303 Y71.165 E21.32951
G1 X70.293 Y70.533 E21.35053
G1 X70.293 Y64.515 E21.55069
G1 X70.304 Y63.832 E21.57341
G1 X70.361 Y62.895 E21.60463
G1 X70.501 Y61.968 E21.63581
G1 X70.722 Y61.055 E21.66706
G1 X71.024 Y60.166 E21.69829
G1 X71.402 Y59.308 E21.72947
G1 X71.855 Y58.486 E21.76069
G1 X72.379 Y57.706 E21.79194
M204 S2000
G0 F7500 X72.69 Y57.958
M204 S500
G1 F1500 X73.258 Y57.256 E21.82197
G1 X73.885 Y56.606 E21.85201
G1 X74.567 Y56.014 E21.88205
G1 X75.299 Y55.485 E21.91209
G1 X76.075 Y55.023 E21.94213
G1 X76.889 Y54.632 E21.97216
G1 X77.734 Y54.313 E22.0022
G1 X78.604 Y54.071 E22.03224
G1 X79.492 Y53.907 E22.06227
G1 X80.615 Y53.813 E22.09975
G1 X81.222 Y53.8 E22.11995
G1 X138.401 Y53.8 E24.02173
G1 X139.245 Y53.811 E24.0498
G1 X140.147 Y53.864 E24.07985
G1 X141.04 Y53.996 E24.10988
G1 X141.918 Y54.207 E24.13991
G1 X142.774 Y54.495 E24.16995
G1 X143.601 Y54.857 E24.19998
G1 X144.393 Y55.292 E24.23003
G1 X145.144 Y55.794 E24.26007
G1 X145.847 Y56.361 E24.29011
G1 X146.497 Y56.988 E24.32015
G1 X147.089 Y57.67 E24.35019
G1 X147.619 Y58.401 E24.38022
G1 X148.081 Y59.177 E24.41026
G1 X148.474 Y59.99 E24.44029
G1 X148.792 Y60.835 E24.47032
G1 X149.035 Y61.705 E24.50037
G1 X149.2 Y62.593 E24.53041
G1 X149.295 Y63.723 E24.56812
G1 X149.308 Y64.33 E24.58832
G1 X149.307 Y70.437 E24.79144
G1 X149.297 Y71.143 E24.81492
G1 X149.244 Y72.045 E24.84497
G1 X149.112 Y72.938 E24.875
G1 X148.901 Y73.817 E24.90506
G1 X148.564 Y74.797 E24.93953
G1 X148.078 Y76.009 E24.98296
G1 X148.037 Y76.133 E24.98731
G1 X147.634 Y77.13 E25.02307
G1 X146.762 Y79.476 E25.10632
G1 X145.937 Y81.905 E25.19164
G1 X145.188 Y84.332 E25.27612
G1 X144.51 Y86.772 E25.36035
G1 X143.888 Y89.286 E25.44648
G1 X143.358 Y91.717 E25.52924
G1 X142.892 Y94.193 E25.61304
G1 X142.373 Y97.533 E25.72546
G1 X142.2 Y98.794 E25.76779
G1 X142.002 Y99.837 E25.8031
G1 X141.814 Y100.593 E25.82901
G1 X126.98 Y156.533 E27.75389
G1 X126.776 Y157.262 E27.77907
G1 X126.494 Y158.12 E27.80911
G1 X126.138 Y158.95 E27.83915
G1 X125.709 Y159.745 E27.86919
G1 X125.212 Y160.499 E27.89923
G1 X124.65 Y161.206 E27.92927
G1 X124.028 Y161.86 E27.95929
G1 X123.35 Y162.457 E27.98933
G1 X122.623 Y162.992 E28.01935
G1 X122.194 Y163.264 E28.03625
G1 X121.663 Y163.573 E28.05668
G1 X119.76 Y164.613 E28.12881
G1 X118.987 Y165.02 E28.15787
G1 X118.17 Y165.404 E28.18789
G1 X117.322 Y165.715 E28.21793
G1 X116.45 Y165.949 E28.24796
G1 X115.56 Y166.105 E28.27802
G1 X114.428 Y166.189 E28.31577
G1 X113.748 Y166.2 E28.33839
G1 X106.368 Y166.199 E28.58385
G1 X105.664 Y166.189 E28.60727
G1 X104.763 Y166.136 E28.63729
G1 X103.869 Y166.004 E28.66734
G1 X102.991 Y165.793 E28.69738
G1 X102.135 Y165.505 E28.72742
G1 X101.217 Y165.098 E28.76082
G1 X100.687 Y164.825 E28.78064
G1 X98.723 Y163.754 E28.85505
G1 X98.092 Y163.399 E28.87913
G1 X97.325 Y162.921 E28.90919
G1 X96.603 Y162.378 E28.93924
G1 X95.933 Y161.773 E28.96926
G1 X95.318 Y161.112 E28.99929
G1 X94.765 Y160.398 E29.02933
G1 X94.277 Y159.638 E29.05937
G1 X93.857 Y158.838 E29.08942
G1 X93.511 Y158.004 E29.11945
G1 X93.329 Y157.459 E29.13856
G1 X93.178 Y156.94 E29.15654
G1 X78.199 Y100.64 E31.09423
G1 X78.018 Y99.919 E31.11895
G1 X77.801 Y98.786 E31.15732
G1 X77.665 Y97.772 E31.19135
G1 X77.285 Y95.198 E31.27789
G1 X76.838 Y92.676 E31.36308
G1 X76.327 Y90.198 E31.44723
G1 X75.752 Y87.761 E31.53051
G1 X75.094 Y85.291 E31.61553
G1 X74.362 Y82.823 E31.70115
G1 X73.572 Y80.415 E31.78544
G1 X72.717 Y78.034 E31.86958
G1 X71.786 Y75.659 E31.95443
G1 X71.453 Y74.84 E31.98383
G1 X71.15 Y73.989 E32.01388
G1 X70.924 Y73.115 E32.0439
G1 X70.776 Y72.224 E32.07394
G1 X70.703 Y71.159 E32.10945
G1 X70.693 Y70.527 E32.13047
G1 X70.693 Y64.521 E32.33023
G1 X70.703 Y63.856 E32.35235
G1 X70.757 Y62.954 E32.38241
G1 X70.89 Y62.061 E32.41244
G1 X71.101 Y61.183 E32.44247
G1 X71.39 Y60.327 E32.47252
G1 X71.753 Y59.5 E32.50256
G1 X72.187 Y58.709 E32.53257
G1 X72.69 Y57.958 E32.56263
M204 S2000
G1 F2400 E31.76263
;MESH:new-Ventral-Section-Support-free.STL
G0 F7500 X104.216 Y88.229
G0 X104.694 Y101.348
M204 S500
;TYPE:WALL-INNER
G1 F2400 E32.56263
G1 F1500 X104.528 Y101.209 E32.56983
G1 X104.437 Y101.059 E32.57567
G1 X104.393 Y100.886 E32.58161
G1 X104.395 Y88.252 E33.00181
G1 X104.43 Y88.11 E33.00668
G1 X104.58 Y87.888 E33.01559
G1 X104.722 Y87.789 E33.02135
G1 X104.951 Y87.727 E33.02924
G1 X115.078 Y87.731 E33.36606
G1 X115.264 Y87.789 E33.37254
G1 X115.491 Y87.988 E33.38258
G1 X115.59 Y88.252 E33.39196
G1 X115.592 Y100.886 E33.81217
G1 X115.54 Y101.078 E33.81879
G1 X115.419 Y101.251 E33.82581
G1 X115.247 Y101.371 E33.83278
G1 X115.074 Y101.422 E33.83878
G1 X104.952 Y101.425 E34.17544
G1 X104.694 Y101.348 E34.1844
M204 S2000
G1 F2400 E33.3844
G0 F7500 X104.887 Y101.601
G0 X103.77 Y153.978
G0 X105.959 Y155.4
M204 S500
G1 F2400 E34.1844
G1 F1500 X114.095 Y155.399 E34.455
G1 X116.448 Y154.117 E34.54412
G1 X131.46 Y97.511 E36.49193
G1 X127.325 Y90.866 E36.75224
G1 X127.266 Y90.684 E36.7586
G1 X127.267 Y77.966 E37.18161
G1 X127.324 Y77.755 E37.18888
G1 X127.472 Y77.553 E37.1972
G1 X138.508 Y70.668 E37.62984
G1 X138.508 Y64.6 E37.83166
G1 X81.492 Y64.6 E39.72802
G1 X81.492 Y70.667 E39.92981
G1 X92.478 Y77.505 E40.3602
G1 X92.649 Y77.666 E40.36802
G1 X92.754 Y77.924 E40.37728
G1 X92.761 Y90.675 E40.80138
G1 X92.67 Y90.923 E40.81017
G1 X88.547 Y97.54 E41.06948
G1 X103.599 Y154.112 E43.01653
G1 X105.959 Y155.4 E43.10595
M204 S2000
G0 F7500 X105.857 Y155.8
M204 S500
;TYPE:WALL-OUTER
G1 F1500 X114.197 Y155.799 E43.38334
G1 X116.79 Y154.386 E43.48156
G1 X131.891 Y97.447 E45.44083
G1 X127.668 Y90.665 E45.70656
G1 X127.668 Y77.984 E46.12833
G1 X127.727 Y77.87 E46.1326
G1 X138.908 Y70.89 E46.571
G1 X138.908 Y64.2 E46.79351
G1 X81.092 Y64.2 E48.71647
G1 X81.092 Y70.889 E48.93895
G1 X92.299 Y77.87 E49.3781
G1 X92.356 Y77.971 E49.38196
G1 X92.358 Y90.665 E49.80416
G1 X88.116 Y97.476 E50.07104
G1 X103.257 Y154.381 E52.02956
G1 X105.857 Y155.8 E52.12808
M204 S2000
G1 F2400 E51.32808
G0 F7500 X105.94 Y155.274
G0 X103.77 Y153.978
G0 X104.887 Y101.601
G0 X115.149 Y100.954
M204 S500
G1 F2400 E52.12808
G1 F1500 X115.032 Y101.027 E52.13266
G1 X104.964 Y101.025 E52.46753
G1 X104.836 Y100.954 E52.47239
G1 X104.791 Y100.844 E52.47635
G1 X104.792 Y88.301 E52.89353
G1 X104.839 Y88.195 E52.89739
G1 X104.944 Y88.126 E52.90156
G1 X115.022 Y88.127 E53.23676
G1 X115.132 Y88.18 E53.24082
G1 X115.193 Y88.301 E53.24533
G1 X115.194 Y100.87 E53.66337
G1 X115.149 Y100.954 E53.66654
M204 S2000
G1 F2400 E52.86654
G0 F7500 X114.9 Y101.527
G0 X105.965 Y101.601
G0 X103.77 Y153.978
G0 X106.051 Y155.04
M204 S500
;TYPE:SKIN
G1 F2400 E53.66654
G1 F1500 X103.908 Y153.87 E53.74775
G1 X88.934 Y97.601 E55.6844
G1 X93.047 Y90.995 E55.94322
G1 X93.114 Y90.728 E55.95238
G1 X93.115 Y77.807 E56.38213
G1 X92.95 Y77.467 E56.3947
G1 X92.749 Y77.257 E56.40437
G1 X81.853 Y70.467 E56.83138
G1 X81.853 Y64.961 E57.01451
G1 X138.148 Y64.96 E58.88689
G1 X138.148 Y70.469 E59.07012
G1 X127.276 Y77.258 E59.49644
G1 X127 Y77.592 E59.51085
G1 X126.915 Y77.881 E59.52087
G1 X126.912 Y90.721 E59.94793
G1 X126.999 Y91.019 E59.95825
G1 X131.073 Y97.572 E60.21489
G1 X116.139 Y153.875 E62.15229
G1 X114.003 Y155.038 E62.23318
G1 X106.051 Y155.04 E62.49767
M204 S2000
G1 F2400 E61.69767
G0 F7500 X105.926 Y155.267
G0 X103.77 Y153.978
G0 X104.887 Y101.601
G0 X115.392 Y101.701
M204 S500
G1 F2400 E62.49767
G1 F1500 X115.666 Y101.515 E62.50868
G1 X115.836 Y101.289 E62.51809
G1 X115.951 Y100.922 E62.53088
G1 X115.948 Y88.207 E62.95378
G1 X115.882 Y87.962 E62.96222
G1 X115.663 Y87.633 E62.97537
G1 X115.368 Y87.44 E62.98709
G1 X115.058 Y87.367 E62.99769
G1 X104.897 Y87.369 E63.33564
G1 X104.556 Y87.469 E63.34746
G1 X104.32 Y87.634 E63.35704
G1 X104.094 Y87.982 E63.37084
G1 X104.039 Y88.198 E63.37825
G1 X104.033 Y100.908 E63.80099
G1 X104.109 Y101.206 E63.81122
G1 X104.31 Y101.504 E63.82317
G1 X104.57 Y101.69 E63.83381
G1 X104.862 Y101.779 E63.84396
G1 X115.02 Y101.786 E64.18182
G1 X115.392 Y101.701 E64.19451
M204 S2000
G1 F2400 E63.39451
G0 F7500 X114.9 Y101.527
G0 X115.422 Y101.254
G0 X115.77 Y88.229
G0 X115.77 Y64.8
G0 X137.569 Y65.161
M204 S500
G1 F2400 E64.19451
G1 F1500 X137.947 Y65.539 E64.21229
M204 S2000
G0 F7500 X137.947 Y66.105
M204 S500
G1 F1500 X137.003 Y65.161 E64.25669
M204 S2000
G0 F7500 X136.437 Y65.161
M204 S500
G1 F1500 X137.947 Y66.67 E64.32769
M204 S2000
G0 F7500 X137.947 Y67.236
M204 S500
G1 F1500 X135.871 Y65.161 E64.42532
M204 S2000
G0 F7500 X135.306 Y65.161
M204 S500
