;FLAVOR:Marlin
;TIME:1759
;Filament used: 1.18601m
;Layer height: 0.2
;MINX:77.987
;MINY:51.921
;MINZ:0.2
;MAXX:142.016
;MAXY:168.075
;MAXZ:2
;Generated with Cura_SteamEngine 5.2.2
M82 ;absolute extrusion mode
; Ender 3 S1 Start G-code
G92 E0 ; Reset Extruder
G28 ; Home all axes
M420 S1 ;Use bed leveling data
G1 Z10.0 F3000 ; Move Z Axis up little to prevent scratching of Heat Bed
G1 X0 Y0

M104 S228
M190 S0
M109 S228

G1 X0.1 Y20 Z0.3 F5000.0 ; Move to start position
G1 X0.1 Y200.0 Z0.3 F1500.0 E15 ; Draw the first line
G1 X0.4 Y200.0 Z0.3 F5000.0 ; Move to side a little
G1 X0.4 Y20 Z0.3 F1500.0 E30 ; Draw the second line
G92 E0 ; Reset Extruder
G1 Z2.0 F3000 ; Move Z Axis up little to prevent scratching of Heat Bed
G1 X5 Y20 Z0.3 F5000.0 ; Move over to prevent blob squish
G92 E0
G92 E0
G1 F2400 E-0.8
;LAYER_COUNT:10
;LAYER:0
M107
M204 S2000
G0 F7500 X90.324 Y57.529 Z0.2
M204 S500
;TYPE:SKIRT
G1 F2400 E0
G1 F1500 X90.784 Y56.911 E0.02562
G1 X90.969 Y56.68 E0.03547
G1 X91.586 Y55.973 E0.06668
G1 X92.247 Y55.334 E0.09726
G1 X92.481 Y55.126 E0.10767
G1 X93.208 Y54.534 E0.13885
G1 X94.282 Y53.826 E0.18164
G1 X94.55 Y53.671 E0.19193
G1 X95.381 Y53.236 E0.22313
G1 X96.246 Y52.874 E0.25432
G1 X97.416 Y52.515 E0.29502
G1 X97.695 Y52.446 E0.30458
G1 X99.018 Y52.203 E0.34932
G1 X99.591 Y52.14 E0.36849
G1 X100.55 Y52.056 E0.40051
G1 X101.745 Y51.977 E0.44035
G1 X102.674 Y51.94 E0.47127
G1 X103.517 Y51.921 E0.49931
G1 X104.67 Y51.955 E0.53768
G1 X105.651 Y52.045 E0.57045
G1 X108.151 Y52.355 E0.65423
G1 X110.64 Y52.597 E0.73741
G1 X113.142 Y52.768 E0.82082
G1 X115.661 Y52.869 E0.90467
G1 X118.188 Y52.899 E0.98872
G1 X120.681 Y52.858 E1.07165
G1 X123.236 Y52.744 E1.15672
G1 X124.844 Y52.641 E1.21031
G1 X125.815 Y52.622 E1.24261
G1 X126.305 Y52.634 E1.25891
G1 X127.05 Y52.678 E1.28373
G1 X127.711 Y52.748 E1.30584
G1 X128.092 Y52.799 E1.31863
G1 X128.907 Y52.94 E1.34614
G1 X129.404 Y53.045 E1.36303
G1 X130.168 Y53.235 E1.38922
G1 X130.516 Y53.335 E1.40126
G1 X131.716 Y53.756 E1.44356
G1 X132.092 Y53.913 E1.45711
G1 X132.942 Y54.311 E1.48833
G1 X133.945 Y54.904 E1.52708
G1 X134.324 Y55.156 E1.54222
G1 X135.082 Y55.708 E1.5734
G1 X135.79 Y56.323 E1.6046
G1 X136.26 Y56.795 E1.62675
G1 X136.542 Y57.096 E1.64047
G1 X137.154 Y57.807 E1.67167
G1 X137.703 Y58.568 E1.70288
G1 X138.25 Y59.495 E1.73868
G1 X138.491 Y59.953 E1.75589
G1 X138.892 Y60.801 E1.78709
G1 X139.219 Y61.679 E1.81826
G1 X139.47 Y62.583 E1.84946
G1 X139.643 Y63.505 E1.88066
G1 X139.738 Y64.441 E1.91195
G1 X139.768 Y64.961 E1.92928
G1 X139.783 Y65.861 E1.95921
G1 X139.762 Y66.728 E1.98806
G1 X139.723 Y67.724 E2.02121
G1 X139.695 Y70.244 E2.10503
G1 X139.738 Y72.738 E2.188
G1 X139.854 Y75.295 E2.27313
G1 X140.037 Y77.772 E2.35574
G1 X140.295 Y80.293 E2.44003
G1 X140.622 Y82.796 E2.52398
G1 X140.972 Y85.031 E2.59923
G1 X141.271 Y87.092 E2.66849
G1 X141.422 Y88.294 E2.70879
G1 X141.661 Y90.475 E2.78176
G1 X141.803 Y91.974 E2.83184
G1 X141.888 Y93.015 E2.86658
G1 X141.964 Y94.122 E2.90349
G1 X141.993 Y94.728 E2.92366
G1 X142.016 Y96.15 E2.97097
G1 X142.012 Y96.622 E2.98667
G1 X141.979 Y97.573 E3.01832
G1 X141.933 Y98.332 E3.04361
G1 X141.864 Y99.15 E3.07091
G1 X141.786 Y99.848 E3.09427
G1 X141.723 Y100.298 E3.10938
G1 X141.583 Y101.167 E3.13866
G1 X141.51 Y101.571 E3.15231
G1 X141.227 Y102.988 E3.20037
G1 X141.042 Y103.84 E3.22937
G1 X140.836 Y104.683 E3.25823
G1 X140.677 Y105.268 E3.2784
G1 X140.572 Y105.619 E3.29058
G1 X140.165 Y106.891 E3.335
G1 X140.015 Y107.317 E3.35002
G1 X139.099 Y109.805 E3.43821
G1 X138.295 Y112.19 E3.52192
G1 X137.559 Y114.602 E3.60579
G1 X136.9 Y116.999 E3.68847
G1 X136.293 Y119.478 E3.77336
G1 X135.763 Y121.946 E3.85732
G1 X135.306 Y124.415 E3.94083
G1 X134.915 Y126.91 E4.02483
G1 X134.599 Y129.389 E4.10795
G1 X134.352 Y131.884 E4.19134
G1 X134.174 Y134.414 E4.2757
G1 X134.069 Y136.911 E4.35882
G1 X134.034 Y139.435 E4.44278
G1 X134.071 Y141.958 E4.5267
G1 X134.179 Y144.479 E4.61063
G1 X134.355 Y146.952 E4.69309
G1 X134.738 Y150.62 E4.81575
G1 X134.82 Y151.534 E4.84627
G1 X134.864 Y152.471 E4.87747
G1 X134.841 Y153.224 E4.90253
G1 X134.807 Y153.752 E4.92012
G1 X134.65 Y155.025 E4.96278
G1 X134.577 Y155.424 E4.97628
G1 X134.281 Y156.645 E5.01806
G1 X134.114 Y157.194 E5.03715
G1 X133.635 Y158.476 E5.08267
G1 X133.423 Y158.951 E5.09997
G1 X132.771 Y160.192 E5.14659
G1 X132.448 Y160.722 E5.16724
G1 X131.926 Y161.502 E5.19845
G1 X131.629 Y161.889 E5.21468
G1 X131.326 Y162.266 E5.23077
G1 X130.492 Y163.191 E5.27219
G1 X130.077 Y163.602 E5.29162
G1 X129.103 Y164.459 E5.33477
G1 X128.621 Y164.835 E5.3551
G1 X127.857 Y165.38 E5.38631
G1 X127.344 Y165.694 E5.40632
G1 X126.83 Y165.99 E5.42605
G1 X125.899 Y166.469 E5.46087
G1 X125.53 Y166.637 E5.47435
G1 X124.742 Y166.96 E5.50268
G1 X124.424 Y167.076 E5.51394
G1 X123.568 Y167.349 E5.54382
G1 X122.92 Y167.527 E5.56617
G1 X121.868 Y167.761 E5.60202
G1 X121.408 Y167.84 E5.61754
G1 X120.429 Y167.963 E5.65036
G1 X119.647 Y168.026 E5.67645
G1 X118.958 Y168.065 E5.6994
G1 X118.318 Y168.075 E5.72069
G1 X117.607 Y168.066 E5.74434
G1 X116.996 Y168.045 E5.76468
G1 X116.314 Y167.995 E5.78742
G1 X115.496 Y167.909 E5.81478
G1 X114.876 Y167.828 E5.83557
G1 X114.227 Y167.717 E5.85747
G1 X113.393 Y167.548 E5.88578
G1 X112.833 Y167.421 E5.90488
G1 X112.189 Y167.247 E5.92706
G1 X111.449 Y167.023 E5.95278
G1 X110.831 Y166.82 E5.97441
G1 X110.216 Y166.59 E5.99625
G1 X109.48 Y166.29 E6.02269
G1 X108.875 Y166.026 E6.04464
G1 X108.301 Y165.746 E6.06588
G1 X107.581 Y165.369 E6.09292
G1 X107.024 Y165.06 E6.1141
G1 X106.468 Y164.722 E6.13574
G1 X105.836 Y164.312 E6.1608
G1 X105.276 Y163.928 E6.18338
G1 X104.78 Y163.558 E6.20396
G1 X104.152 Y163.062 E6.23058
G1 X103.642 Y162.638 E6.25264
G1 X103.166 Y162.21 E6.27393
G1 X102.609 Y161.678 E6.29955
G1 X102.15 Y161.218 E6.32116
G1 X101.702 Y160.733 E6.34312
G1 X101.203 Y160.159 E6.36842
G1 X100.783 Y159.651 E6.39034
G1 X100.397 Y159.147 E6.41146
G1 X99.97 Y158.554 E6.43576
G1 X99.582 Y157.987 E6.45861
G1 X99.221 Y157.414 E6.48114
G1 X98.852 Y156.786 E6.50536
G1 X98.518 Y156.185 E6.52823
G1 X98.225 Y155.609 E6.54973
G1 X97.871 Y154.856 E6.5774
G1 X96.719 Y152.303 E6.67056
G1 X95.616 Y150.035 E6.75444
G1 X94.449 Y147.799 E6.83833
G1 X93.226 Y145.609 E6.92176
G1 X91.929 Y143.434 E7.00598
G1 X90.572 Y141.296 E7.09021
G1 X89.173 Y139.226 E7.17331
G1 X87.713 Y137.191 E7.25661
G1 X86.18 Y135.179 E7.34074
G1 X84.606 Y133.227 E7.42414
G1 X82.948 Y131.286 E7.50904
G1 X81.698 Y129.895 E7.57125
G1 X81.178 Y129.328 E7.59683
G1 X80.821 Y128.92 E7.61487
G1 X80.631 Y128.691 E7.62476
G1 X80.064 Y127.944 E7.65595
G1 X79.562 Y127.152 E7.68714
G1 X79.129 Y126.32 E7.71834
G1 X78.719 Y125.314 E7.75447
G1 X78.609 Y125.001 E7.7655
G1 X78.336 Y124.104 E7.79669
G1 X78.141 Y123.187 E7.82787
G1 X78.024 Y122.256 E7.85908
G1 X77.987 Y121.319 E7.89027
G1 X78.003 Y120.753 E7.9091
G1 X78.035 Y120.168 E7.92859
G1 X78.102 Y119.338 E7.95628
G1 X78.14 Y118.963 E7.96882
G1 X78.267 Y117.911 E8.00406
G1 X78.322 Y117.52 E8.0172
G1 X78.416 Y116.953 E8.03631
G1 X78.61 Y115.919 E8.0713
G1 X78.797 Y115.05 E8.10087
G1 X78.939 Y114.483 E8.12031
G1 X79.102 Y113.925 E8.13964
G1 X79.753 Y111.862 E8.21159
G1 X80.461 Y109.391 E8.29709
G1 X81.085 Y106.959 E8.3806
G1 X81.652 Y104.455 E8.46599
G1 X82.13 Y102.025 E8.54836
G1 X82.546 Y99.545 E8.632
G1 X82.889 Y97.076 E8.7149
G1 X83.171 Y94.513 E8.80066
G1 X83.387 Y91.957 E8.88598
G1 X83.5 Y90.921 E8.92064
G1 X83.669 Y89.704 E8.96151
G1 X84.009 Y87.628 E9.03148
G1 X84.259 Y86.25 E9.07806
G1 X84.727 Y83.439 E9.17284
G1 X85.036 Y81.392 E9.24169
G1 X85.225 Y80.293 E9.27878
G1 X85.536 Y78.754 E9.331
G1 X85.81 Y77.514 E9.37324
G1 X86.269 Y75.57 E9.43968
G1 X86.785 Y73.081 E9.52422
G1 X87.224 Y70.61 E9.60769
G1 X87.591 Y68.146 E9.69055
G1 X87.897 Y65.592 E9.77611
G1 X88.084 Y63.641 E9.84129
G1 X88.219 Y62.679 E9.8736
G1 X88.272 Y62.394 E9.88325
G1 X88.483 Y61.48 E9.91444
G1 X88.755 Y60.629 E9.94416
G1 X88.88 Y60.287 E9.95627
G1 X89.24 Y59.421 E9.98746
G1 X89.666 Y58.598 E10.01829
G1 X89.824 Y58.322 E10.02886
G1 X90.324 Y57.529 E10.06004
M204 S2000
G0 F7500 X90.662 Y57.742
M204 S500
G1 F1500 X91.096 Y57.161 E10.08416
G1 X91.281 Y56.93 E10.09401
G1 X91.887 Y56.237 E10.12463
G1 X92.513 Y55.633 E10.15356
G1 X92.747 Y55.425 E10.16397
G1 X93.461 Y54.844 E10.19459
G1 X94.482 Y54.172 E10.23524
G1 X94.75 Y54.017 E10.24554
G1 X95.566 Y53.591 E10.27616
G1 X96.416 Y53.238 E10.30677
G1 X97.512 Y52.903 E10.34489
G1 X97.791 Y52.834 E10.35444
G1 X99.066 Y52.6 E10.39756
G1 X99.626 Y52.538 E10.4163
G1 X100.578 Y52.455 E10.44808
G1 X101.761 Y52.376 E10.48752
G1 X102.479 Y52.346 E10.51142
G1 X103.526 Y52.321 E10.54625
G1 X104.637 Y52.354 E10.58322
G1 X105.601 Y52.442 E10.61542
G1 X108.098 Y52.751 E10.6991
G1 X110.61 Y52.996 E10.78305
G1 X113.095 Y53.166 E10.86589
G1 X115.677 Y53.269 E10.95184
G1 X118.155 Y53.299 E11.03426
G1 X120.742 Y53.256 E11.12032
G1 X123.277 Y53.143 E11.20472
G1 X124.869 Y53.041 E11.25777
G1 X125.806 Y53.022 E11.28895
G1 X126.296 Y53.034 E11.30525
G1 X127.013 Y53.076 E11.32914
G1 X127.658 Y53.145 E11.35071
G1 X128.039 Y53.196 E11.3635
G1 X128.824 Y53.331 E11.38999
G1 X129.321 Y53.436 E11.40688
G1 X130.058 Y53.619 E11.43214
G1 X130.406 Y53.719 E11.44418
G1 X131.562 Y54.125 E11.48494
G1 X131.938 Y54.282 E11.49849
G1 X132.772 Y54.674 E11.52914
G1 X133.723 Y55.237 E11.5659
G1 X134.102 Y55.489 E11.58103
G1 X134.846 Y56.032 E11.61167
G1 X135.54 Y56.637 E11.64229
G1 X135.968 Y57.069 E11.66252
G1 X136.25 Y57.37 E11.67624
G1 X136.85 Y58.068 E11.70685
G1 X137.387 Y58.816 E11.73748
G1 X137.896 Y59.681 E11.77086
G1 X138.137 Y60.139 E11.78807
G1 X138.53 Y60.972 E11.8187
G1 X138.849 Y61.835 E11.84931
G1 X139.092 Y62.723 E11.87993
G1 X139.257 Y63.629 E11.91056
G1 X139.338 Y64.464 E11.93846
G1 X139.368 Y64.984 E11.95578
G1 X139.383 Y65.852 E11.98466
G1 X139.357 Y66.881 E12.01889
G1 X139.323 Y67.739 E12.04745
G1 X139.295 Y70.247 E12.13087
G1 X139.338 Y72.764 E12.2146
G1 X139.453 Y75.304 E12.29917
G1 X139.638 Y77.805 E12.38258
G1 X139.899 Y80.357 E12.4679
G1 X140.223 Y82.831 E12.55089
G1 X140.558 Y84.966 E12.62277
G1 X140.904 Y87.364 E12.70335
G1 X141.024 Y88.337 E12.73596
G1 X141.263 Y90.518 E12.80894
G1 X141.404 Y92.006 E12.85865
G1 X141.5 Y93.192 E12.89822
G1 X141.565 Y94.149 E12.93013
G1 X141.593 Y94.745 E12.94997
G1 X141.616 Y96.156 E12.99691
G1 X141.612 Y96.611 E13.01204
G1 X141.58 Y97.549 E13.04326
G1 X141.534 Y98.308 E13.06855
G1 X141.466 Y99.115 E13.09549
G1 X141.389 Y99.801 E13.11845
G1 X141.328 Y100.234 E13.13299
G1 X141.118 Y101.493 E13.17544
G1 X140.795 Y103.102 E13.23003
G1 X140.652 Y103.755 E13.25226
G1 X140.448 Y104.586 E13.28072
G1 X140.292 Y105.16 E13.3005
G1 X139.897 Y106.43 E13.34474
G1 X139.585 Y107.329 E13.37639
G1 X138.724 Y109.664 E13.45916
G1 X137.917 Y112.062 E13.54332
G1 X137.177 Y114.484 E13.62755
G1 X136.503 Y116.937 E13.71216
G1 X135.907 Y119.371 E13.79551
G1 X135.365 Y121.895 E13.88137
G1 X134.916 Y124.317 E13.9633
G1 X134.523 Y126.834 E14.04803
G1 X134.199 Y129.37 E14.13306
G1 X133.953 Y131.849 E14.21592
G1 X133.776 Y134.37 E14.29997
G1 X133.669 Y136.924 E14.38499
G1 X133.634 Y139.434 E14.46848
G1 X133.671 Y141.981 E14.55321
G1 X133.779 Y144.491 E14.63677
G1 X133.957 Y146.992 E14.72016
G1 X134.34 Y150.656 E14.84269
G1 X134.422 Y151.57 E14.87321
G1 X134.464 Y152.489 E14.90381
G1 X134.442 Y153.198 E14.9274
G1 X134.408 Y153.726 E14.945
G1 X134.257 Y154.953 E14.98612
G1 X134.184 Y155.352 E14.99961
G1 X133.898 Y156.529 E15.0399
G1 X133.731 Y157.078 E15.05898
G1 X133.27 Y158.313 E15.10283
G1 X133.058 Y158.788 E15.12013
G1 X132.43 Y159.984 E15.16506
G1 X132.107 Y160.514 E15.1857
G1 X131.317 Y161.638 E15.23139
G1 X131.014 Y162.015 E15.24748
G1 X130.211 Y162.907 E15.2874
G1 X129.796 Y163.318 E15.30683
G1 X128.857 Y164.144 E15.34842
G1 X128.375 Y164.52 E15.36875
G1 X127.625 Y165.054 E15.39938
G1 X127.145 Y165.348 E15.4181
G1 X126.631 Y165.644 E15.43783
G1 X125.733 Y166.105 E15.4714
G1 X125.364 Y166.273 E15.48488
G1 X124.605 Y166.584 E15.51217
G1 X124.287 Y166.7 E15.52342
G1 X123.462 Y166.963 E15.55222
G1 X122.814 Y167.141 E15.57458
G1 X121.8 Y167.367 E15.60913
G1 X121.34 Y167.446 E15.62465
G1 X120.397 Y167.565 E15.65627
G1 X119.615 Y167.628 E15.68236
G1 X118.94 Y167.665 E15.70484
G1 X118.323 Y167.675 E15.72537
G1 X117.612 Y167.666 E15.74902
G1 X117.013 Y167.645 E15.76895
G1 X116.356 Y167.597 E15.79086
G1 X115.538 Y167.511 E15.81822
G1 X114.932 Y167.432 E15.83855
G1 X114.307 Y167.325 E15.85964
G1 X113.473 Y167.156 E15.88794
G1 X112.925 Y167.032 E15.90663
G1 X112.305 Y166.864 E15.92799
G1 X111.565 Y166.64 E15.95371
G1 X110.96 Y166.441 E15.97489
G1 X110.367 Y166.22 E15.99594
G1 X109.631 Y165.92 E16.02237
G1 X109.04 Y165.661 E16.04383
G1 X108.487 Y165.392 E16.06429
G1 X107.767 Y165.015 E16.09132
G1 X107.222 Y164.712 E16.11206
G1 X106.686 Y164.387 E16.13291
G1 X106.054 Y163.977 E16.15796
G1 X105.506 Y163.601 E16.18007
G1 X105.028 Y163.244 E16.19991
G1 X104.4 Y162.748 E16.22653
G1 X103.901 Y162.333 E16.24811
G1 X103.443 Y161.92 E16.26863
G1 X102.886 Y161.388 E16.29424
G1 X102.436 Y160.938 E16.31541
G1 X102.004 Y160.47 E16.33659
G1 X101.505 Y159.896 E16.36189
G1 X101.094 Y159.399 E16.38334
G1 X100.722 Y158.913 E16.4037
G1 X100.295 Y158.32 E16.428
G1 X99.914 Y157.763 E16.45045
G1 X99.566 Y157.211 E16.47215
G1 X99.197 Y156.583 E16.49638
G1 X98.869 Y155.993 E16.51883
G1 X98.586 Y155.438 E16.53955
G1 X98.313 Y154.86 E16.56081
G1 X97.08 Y152.129 E16.66047
G1 X95.973 Y149.853 E16.74465
G1 X94.795 Y147.598 E16.82927
G1 X93.576 Y145.415 E16.91243
G1 X92.268 Y143.22 E16.99742
G1 X90.925 Y141.104 E17.08077
G1 X89.497 Y138.991 E17.1656
G1 X88.04 Y136.961 E17.2487
G1 X86.494 Y134.931 E17.33357
G1 X84.906 Y132.962 E17.41771
G1 X83.266 Y131.042 E17.50169
G1 X81.995 Y129.628 E17.56493
G1 X81.473 Y129.058 E17.59063
G1 X80.939 Y128.435 E17.61793
G1 X80.383 Y127.702 E17.64853
G1 X79.892 Y126.923 E17.67915
G1 X79.471 Y126.105 E17.70975
G1 X79.097 Y125.182 E17.74287
G1 X78.987 Y124.869 E17.75391
G1 X78.719 Y123.988 E17.78454
G1 X78.53 Y123.087 E17.81516
G1 X78.419 Y122.173 E17.84578
G1 X78.387 Y121.253 E17.8764
G1 X78.403 Y120.775 E17.89231
G1 X78.458 Y119.86 E17.92279
G1 X78.537 Y119.011 E17.95115
G1 X78.664 Y117.959 E17.9864
G1 X78.717 Y117.582 E17.99906
G1 X78.809 Y117.026 E18.0178
G1 X79.003 Y115.992 E18.05279
G1 X79.187 Y115.137 E18.08188
G1 X79.325 Y114.591 E18.10061
G1 X79.483 Y114.045 E18.11952
G1 X80.152 Y111.923 E18.19352
G1 X80.848 Y109.496 E18.2775
G1 X81.477 Y107.042 E18.36176
G1 X82.034 Y104.583 E18.44561
G1 X82.522 Y102.104 E18.52965
G1 X82.942 Y99.595 E18.61426
G1 X83.288 Y97.108 E18.69777
G1 X83.566 Y94.588 E18.7821
G1 X83.766 Y92.201 E18.86177
G1 X83.896 Y90.975 E18.90277
G1 X84.064 Y89.768 E18.94331
G1 X84.403 Y87.699 E19.01304
G1 X84.653 Y86.321 E19.05962
G1 X85.112 Y83.562 E19.15265
G1 X85.407 Y81.606 E19.21844
G1 X85.617 Y80.372 E19.26007
G1 X85.971 Y78.63 E19.31919
G1 X86.2 Y77.601 E19.35426
G1 X86.664 Y75.637 E19.42138
G1 X87.177 Y73.16 E19.50551
G1 X87.615 Y70.702 E19.58855
G1 X87.989 Y68.181 E19.67332
G1 X88.294 Y65.639 E19.75847
G1 X88.482 Y63.679 E19.82396
G1 X88.613 Y62.752 E19.8551
G1 X88.666 Y62.467 E19.86474
G1 X88.873 Y61.57 E19.89536
G1 X89.131 Y60.766 E19.92344
G1 X89.256 Y60.424 E19.93556
G1 X89.609 Y59.574 E19.96617
G1 X90.013 Y58.797 E19.9953
G1 X90.171 Y58.521 E20.00587
G1 X90.662 Y57.742 E20.0365
M204 S2000
G0 F7500 X91.001 Y57.956
M204 S500
G1 F1500 X91.409 Y57.411 E20.05914
G1 X91.594 Y57.18 E20.06899
G1 X92.189 Y56.501 E20.09901
G1 X92.778 Y55.932 E20.12625
G1 X93.012 Y55.724 E20.13667
G1 X93.713 Y55.155 E20.1667
G1 X94.682 Y54.518 E20.20526
G1 X94.95 Y54.363 E20.21556
G1 X95.751 Y53.946 E20.2456
G1 X96.586 Y53.602 E20.27563
G1 X97.608 Y53.291 E20.31116
G1 X97.887 Y53.222 E20.32072
G1 X99.114 Y52.997 E20.36221
G1 X99.662 Y52.936 E20.38055
G1 X100.413 Y52.869 E20.40563
G1 X101.491 Y52.792 E20.44158
G1 X102.496 Y52.746 E20.47504
G1 X103.535 Y52.721 E20.50961
G1 X104.604 Y52.753 E20.54518
G1 X105.552 Y52.839 E20.57684
G1 X108.05 Y53.149 E20.66056
G1 X110.577 Y53.394 E20.745
G1 X113.088 Y53.566 E20.82871
G1 X115.656 Y53.669 E20.91419
