; LightBurn 1.4.00
; Marlin device profile, absolute coords
; Bounds: X2.34 Y11 to X208.5 Y219
G21
G90
; Cut @ 10 mm/sec, 100% power
M8
M05 
G0 X53.928 Y55.756 F0
; Layer Cut2MM Pass 1 of 3
M03 S1000
G1 X53.488 Y55.993 F600
G1 X53.095 Y56.288
G1 X52.752 Y56.634
G1 X52.464 Y57.023
G1 X52.236 Y57.45
G1 X52.071 Y57.908
G1 X51.973 Y58.39
G1 X51.947 Y58.889
G1 X51.999 Y59.712
G1 X52.127 Y60.525
G1 X52.329 Y61.323
G1 X52.604 Y62.1
G1 X53.111 Y63.303
G1 X53.678 Y64.478
G1 X54.305 Y65.621
G1 X54.99 Y66.732
G1 X55.72 Y67.836
G1 X56.472 Y68.924
G1 X57.246 Y69.996
G1 X58.041 Y71.053
G1 X58.858 Y72.093
G1 X59.695 Y73.117
G1 X60.553 Y74.124
G1 X61.431 Y75.113
G1 X63.094 Y76.935
G1 X64.804 Y78.71
G1 X66.56 Y80.438
G1 X68.362 Y82.118
G1 X70.208 Y83.749
G1 X72.098 Y85.33
G1 X74.03 Y86.86
G1 X76.003 Y88.339
G1 X77.043 Y89.08
G1 X78.1 Y89.796
G1 X79.173 Y90.486
G1 X80.263 Y91.149
G1 X81.368 Y91.786
G1 X82.489 Y92.397
G1 X83.624 Y92.98
G1 X84.774 Y93.536
G1 X85.627 Y93.912
G1 X86.491 Y94.264
G1 X87.365 Y94.59
G1 X88.247 Y94.891
G1 X89.03 Y95.138
G1 X89.82 Y95.354
G1 X90.617 Y95.539
G1 X91.421 Y95.693
G1 X92.23 Y95.817
G1 X93.043 Y95.91
G1 X93.86 Y95.971
G1 X94.679 Y96.001
G1 X95.835 Y95.966
G1 X96.982 Y95.85
G1 X98.115 Y95.654
G1 X99.23 Y95.379
G1 X100.323 Y95.026
G1 X101.389 Y94.596
G1 X102.425 Y94.091
G1 X103.426 Y93.511
G1 X104.179 Y93.019
G1 X104.915 Y92.503
G1 X105.633 Y91.964
G1 X106.333 Y91.401
G1 X107.015 Y90.817
G1 X107.677 Y90.21
G1 X108.32 Y89.582
G1 X108.943 Y88.933
G1 X110.232 Y87.519
G1 X111.476 Y86.066
G1 X112.675 Y84.575
G1 X113.826 Y83.048
G1 X114.831 Y81.682
G1 X115.815 Y80.301
G1 X116.777 Y78.906
G1 X117.719 Y77.497
G1 X118.639 Y76.074
G1 X119.538 Y74.636
G1 X120.415 Y73.186
G1 X121.27 Y71.722
G1 X121.822 Y70.724
G1 X122.326 Y69.702
G1 X122.781 Y68.657
G1 X123.184 Y67.591
G1 X123.349 Y67.054
G1 X123.457 Y66.506
G1 X123.509 Y65.949
G1  Y65.388
G1 X123.45 Y65.08
G1 X123.358 Y64.785
G1 X123.23 Y64.506
G1 X123.069 Y64.247
G1 X122.875 Y64.01
G1 X122.653 Y63.799
G1 X122.403 Y63.617
G1 X122.128 Y63.468
G1 X121.541 Y63.213
G1 X120.937 Y63.005
G1 X120.318 Y62.846
G1 X119.688 Y62.734
G1 X118.36 Y62.561
G1 X117.027 Y62.423
G1 X115.691 Y62.321
G1 X112.101 Y62.141
G1 X109.847 Y62.031
G1 X109.14 Y61.994
G1 X106.1 Y61.815
G1 X103.064 Y61.587
G1 X100.033 Y61.311
G1 X97.006 Y60.986
G1 X93.985 Y60.613
G1 X90.97 Y60.191
G1 X87.962 Y59.721
G1 X84.962 Y59.203
G1 X77.709 Y57.865
G1 X70.463 Y56.49
G1 X69.626 Y56.338
G1 X67.573 Y55.969
G1 X65.513 Y55.645
G1 X63.446 Y55.366
G1 X61.373 Y55.132
G1 X60.224 Y55.034
G1 X59.072 Y54.989
G1 X57.92
G1 X56.768 Y55.058
G1 X56.037 Y55.137
G1 X55.317 Y55.28
G1 X54.613 Y55.487
G1 X53.928 Y55.756
; Layer Cut2MM Pass 2 of 3
G1 X53.488 Y55.993
G1 X53.095 Y56.288
G1 X52.752 Y56.634
G1 X52.464 Y57.023
G1 X52.236 Y57.45
G1 X52.071 Y57.908
G1 X51.973 Y58.39
G1 X51.947 Y58.889
G1 X51.999 Y59.712
G1 X52.127 Y60.525
G1 X52.329 Y61.323
G1 X52.604 Y62.1
G1 X53.111 Y63.303
G1 X53.678 Y64.478
G1 X54.305 Y65.621
G1 X54.99 Y66.732
G1 X55.72 Y67.836
G1 X56.472 Y68.924
G1 X57.246 Y69.996
G1 X58.041 Y71.053
G1 X58.858 Y72.093
G1 X59.695 Y73.117
G1 X60.553 Y74.124
G1 X61.431 Y75.113
G1 X63.094 Y76.935
G1 X64.804 Y78.71
G1 X66.56 Y80.438
G1 X68.362 Y82.118
G1 X70.208 Y83.749
G1 X72.098 Y85.33
G1 X74.03 Y86.86
G1 X76.003 Y88.339
G1 X77.043 Y89.08
G1 X78.1 Y89.796
G1 X79.173 Y90.486
G1 X80.263 Y91.149
G1 X81.368 Y91.786
G1 X82.489 Y92.397
G1 X83.624 Y92.98
G1 X84.774 Y93.536
G1 X85.627 Y93.912
G1 X86.491 Y94.264
G1 X87.365 Y94.59
G1 X88.247 Y94.891
G1 X89.03 Y95.138
G1 X89.82 Y95.354
G1 X90.617 Y95.539
G1 X91.421 Y95.693
G1 X92.23 Y95.817
G1 X93.043 Y95.91
G1 X93.86 Y95.971
G1 X94.679 Y96.001
G1 X95.835 Y95.966
G1 X96.982 Y95.85
G1 X98.115 Y95.654
G1 X99.23 Y95.379
G1 X100.323 Y95.026
G1 X101.389 Y94.596
G1 X102.425 Y94.091
G1 X103.426 Y93.511
G1 X104.179 Y93.019
G1 X104.915 Y92.503
G1 X105.633 Y91.964
G1 X106.333 Y91.401
G1 X107.015 Y90.817
G1 X107.677 Y90.21
G1 X108.32 Y89.582
G1 X108.943 Y88.933
G1 X110.232 Y87.519
G1 X111.476 Y86.066
G1 X112.675 Y84.575
G1 X113.826 Y83.048
G1 X114.831 Y81.682
G1 X115.815 Y80.301
G1 X116.777 Y78.906
G1 X117.719 Y77.497
G1 X118.639 Y76.074
G1 X119.538 Y74.636
G1 X120.415 Y73.186
G1 X121.27 Y71.722
G1 X121.822 Y70.724
G1 X122.326 Y69.702
G1 X122.781 Y68.657
G1 X123.184 Y67.591
G1 X123.349 Y67.054
G1 X123.457 Y66.506
G1 X123.509 Y65.949
G1  Y65.388
G1 X123.45 Y65.08
G1 X123.358 Y64.785
G1 X123.23 Y64.506
G1 X123.069 Y64.247
G1 X122.875 Y64.01
G1 X122.653 Y63.799
G1 X122.403 Y63.617
G1 X122.128 Y63.468
G1 X121.541 Y63.213
G1 X120.937 Y63.005
G1 X120.318 Y62.846
G1 X119.688 Y62.734
G1 X118.36 Y62.561
G1 X117.027 Y62.423
G1 X115.691 Y62.321
G1 X112.101 Y62.141
G1 X109.847 Y62.031
G1 X109.14 Y61.994
G1 X106.1 Y61.815
G1 X103.064 Y61.587
G1 X100.033 Y61.311
G1 X97.006 Y60.986
G1 X93.985 Y60.613
G1 X90.97 Y60.191
G1 X87.962 Y59.721
G1 X84.962 Y59.203
G1 X77.709 Y57.865
G1 X70.463 Y56.49
G1 X69.626 Y56.338
G1 X67.573 Y55.969
G1 X65.513 Y55.645
G1 X63.446 Y55.366
G1 X61.373 Y55.132
G1 X60.224 Y55.034
G1 X59.072 Y54.989
G1 X57.92
G1 X56.768 Y55.058
G1 X56.037 Y55.137
G1 X55.317 Y55.28
G1 X54.613 Y55.487
G1 X53.928 Y55.756
; Layer Cut2MM Pass 3 of 3
G1 X53.488 Y55.993
G1 X53.095 Y56.288
G1 X52.752 Y56.634
G1 X52.464 Y57.023
G1 X52.236 Y57.45
G1 X52.071 Y57.908
G1 X51.973 Y58.39
G1 X51.947 Y58.889
G1 X51.999 Y59.712
G1 X52.127 Y60.525
G1 X52.329 Y61.323
G1 X52.604 Y62.1
G1 X53.111 Y63.303
G1 X53.678 Y64.478
G1 X54.305 Y65.621
G1 X54.99 Y66.732
G1 X55.72 Y67.836
G1 X56.472 Y68.924
G1 X57.246 Y69.996
G1 X58.041 Y71.053
G1 X58.858 Y72.093
G1 X59.695 Y73.117
G1 X60.553 Y74.124
G1 X61.431 Y75.113
G1 X63.094 Y76.935
G1 X64.804 Y78.71
G1 X66.56 Y80.438
G1 X68.362 Y82.118
G1 X70.208 Y83.749
G1 X72.098 Y85.33
G1 X74.03 Y86.86
G1 X76.003 Y88.339
G1 X77.043 Y89.08
G1 X78.1 Y89.796
G1 X79.173 Y90.486
G1 X80.263 Y91.149
G1 X81.368 Y91.786
G1 X82.489 Y92.397
G1 X83.624 Y92.98
G1 X84.774 Y93.536
G1 X85.627 Y93.912
G1 X86.491 Y94.264
G1 X87.365 Y94.59
G1 X88.247 Y94.891
G1 X89.03 Y95.138
G1 X89.82 Y95.354
G1 X90.617 Y95.539
G1 X91.421 Y95.693
G1 X92.23 Y95.817
G1 X93.043 Y95.91
G1 X93.86 Y95.971
G1 X94.679 Y96.001
G1 X95.835 Y95.966
G1 X96.982 Y95.85
G1 X98.115 Y95.654
G1 X99.23 Y95.379
G1 X100.323 Y95.026
G1 X101.389 Y94.596
G1 X102.425 Y94.091
G1 X103.426 Y93.511
G1 X104.179 Y93.019
G1 X104.915 Y92.503
G1 X105.633 Y91.964
G1 X106.333 Y91.401
G1 X107.015 Y90.817
G1 X107.677 Y90.21
G1 X108.32 Y89.582
G1 X108.943 Y88.933
G1 X110.232 Y87.519
G1 X111.476 Y86.066
G1 X112.675 Y84.575
G1 X113.826 Y83.048
G1 X114.831 Y81.682
G1 X115.815 Y80.301
G1 X116.777 Y78.906
G1 X117.719 Y77.497
G1 X118.639 Y76.074
G1 X119.538 Y74.636
G1 X120.415 Y73.186
G1 X121.27 Y71.722
G1 X121.822 Y70.724
G1 X122.326 Y69.702
G1 X122.781 Y68.657
G1 X123.184 Y67.591
G1 X123.349 Y67.054
G1 X123.457 Y66.506
G1 X123.509 Y65.949
G1  Y65.388
G1 X123.45 Y65.08
G1 X123.358 Y64.785
G1 X123.23 Y64.506
G1 X123.069 Y64.247
G1 X122.875 Y64.01
G1 X122.653 Y63.799
G1 X122.403 Y63.617
G1 X122.128 Y63.468
G1 X121.541 Y63.213
G1 X120.937 Y63.005
G1 X120.318 Y62.846
G1 X119.688 Y62.734
G1 X118.36 Y62.561
G1 X117.027 Y62.423
G1 X115.691 Y62.321
G1 X112.101 Y62.141
G1 X109.847 Y62.031
G1 X109.14 Y61.994
G1 X106.1 Y61.815
G1 X103.064 Y61.587
G1 X100.033 Y61.311
G1 X97.006 Y60.986
G1 X93.985 Y60.613
G1 X90.97 Y60.191
G1 X87.962 Y59.721
G1 X84.962 Y59.203
G1 X77.709 Y57.865
G1 X70.463 Y56.49
G1 X69.626 Y56.338
G1 X67.573 Y55.969
G1 X65.513 Y55.645
G1 X63.446 Y55.366
G1 X61.373 Y55.132
G1 X60.224 Y55.034
G1 X59.072 Y54.989
G1 X57.92
G1 X56.768 Y55.058
G1 X56.037 Y55.137
G1 X55.317 Y55.28
G1 X54.613 Y55.487
G1 X53.928 Y55.756
M05 
G0 X43.333 Y86.821 F0
; Layer Cut2MM Pass 1 of 3
M03 S1000
G1 X42.161 Y86.697 F600
G1 X41.426 Y86.648
G1 X40.692 Y86.628
G1 X39.96
G1 X39.23 Y86.673
G1 X38.502 Y86.737
G1 X37.779 Y86.828
G1 X37.06 Y86.947
G1 X36.346 Y87.093
G1 X35.638 Y87.267
G1 X34.937 Y87.467
G1 X34.244 Y87.694
G1 X33.56 Y87.947
G1 X32.884 Y88.227
G1 X32.219 Y88.534
G1 X31.564 Y88.866
G1 X30.921 Y89.224
G1 X30.039 Y89.783
G1 X29.184 Y90.38
G1 X28.358 Y91.015
G1 X27.561 Y91.686
G1 X26.796 Y92.392
G1 X26.064 Y93.133
G1 X25.364 Y93.907
G1 X24.7 Y94.712
G1 X23.966 Y95.677
G1 X23.264 Y96.663
G1 X22.594 Y97.671
G1 X21.956 Y98.7
G1 X21.351 Y99.748
G1 X20.78 Y100.815
G1 X20.243 Y101.9
G1 X19.74 Y103.003
G1 X19.1 Y104.517
G1 X18.496 Y106.045
G1 X17.931 Y107.586
G1 X17.403 Y109.141
G1 X16.914 Y110.709
G1 X16.463 Y112.288
G1 X16.051 Y113.878
G1 X15.677 Y115.479
G1 X15.2 Y117.738
G1 X14.769 Y120.006
G1 X14.386 Y122.282
G1 X14.05 Y124.565
G1 X13.762 Y126.854
G1 X13.522 Y129.15
G1 X13.329 Y131.45
G1 X13.184 Y133.755
G1 X13.068 Y136.042
G1 X12.997 Y138.331
G1 X12.971 Y140.621
G1 X12.988 Y142.91
G1 X13.05 Y145.199
G1 X13.156 Y147.486
G1 X13.306 Y149.771
G1 X13.501 Y152.054
G1 X13.759 Y154.425
G1 X14.107 Y156.784
G1 X14.545 Y159.128
G1 X15.072 Y161.454
G1 X15.395 Y162.646
G1 X15.784 Y163.817
G1 X16.239 Y164.965
G1 X16.757 Y166.086
G1 X17.074 Y166.664
G1 X17.446 Y167.208
G1 X17.868 Y167.713
G1 X18.339 Y168.175
G1 X18.667 Y168.423
G1 X19.022 Y168.617
G1 X19.398 Y168.757
G1 X19.788 Y168.841
G1 X20.186 Y168.869
G1 X20.585 Y168.839
G1 X20.98 Y168.751
G1 X21.364 Y168.605
G1 X21.997 Y168.278
G1 X22.597 Y167.896
G1 X23.16 Y167.463
G1 X23.683 Y166.979
G1 X24.623 Y166.004
G1 X25.521 Y164.99
G1 X26.376 Y163.94
G1 X27.186 Y162.855
G1 X28.632 Y160.834
G1 X30.06 Y158.801
G1 X31.47 Y156.755
G1 X32.861 Y154.697
G1 X33.43 Y153.872
G1 X35.531 Y150.851
G1 X37.707 Y147.885
G1 X39.958 Y144.975
G1 X42.281 Y142.122
G1 X43.919 Y140.244
G1 X45.604 Y138.409
G1 X47.335 Y136.62
G1 X49.112 Y134.876
G1 X50.933 Y133.179
G1 X52.798 Y131.53
G1 X54.706 Y129.929
G1 X56.656 Y128.377
G1 X59.644 Y126.051
G1 X62.641 Y123.736
G1 X63.244 Y123.257
G1 X64.337 Y122.377
G1 X65.4 Y121.462
G1 X66.432 Y120.513
G1 X67.433 Y119.53
G1 X68.187 Y118.715
G1 X68.879 Y117.847
G1 X69.505 Y116.932
G1 X70.063 Y115.971
G1 X70.429 Y115.178
G1 X70.722 Y114.36
G1 X70.941 Y113.522
G1 X71.085 Y112.67
G1 X71.154 Y111.809
G1  Y110.944
G1 X71.063 Y110.079
G1 X70.902 Y109.22
G1 X70.723 Y108.521
G1 X70.517 Y107.83
G1 X70.282 Y107.149
G1 X70.02 Y106.478
G1 X69.731 Y105.818
G1 X69.416 Y105.171
G1 X69.074 Y104.536
G1 X68.706 Y103.915
G1 X68.175 Y103.075
G1 X67.619 Y102.252
G1 X67.038 Y101.448
G1 X66.433 Y100.661
G1 X65.805 Y99.893
G1 X65.153 Y99.145
G1 X64.479 Y98.416
G1 X63.782 Y97.708
G1 X62.399 Y96.375
G1 X60.958 Y95.109
G1 X59.462 Y93.914
G1 X57.912 Y92.79
G1 X56.311 Y91.739
G1 X54.663 Y90.763
G1 X52.969 Y89.864
G1 X51.233 Y89.044
G1 X50.147 Y88.584
G1 X49.045 Y88.172
G1 X47.927 Y87.806
G1 X46.796 Y87.488
G1 X45.652 Y87.217
G1 X44.497 Y86.995
G1 X43.333 Y86.821
; Layer Cut2MM Pass 2 of 3
G1 X42.161 Y86.697
G1 X41.426 Y86.648
G1 X40.692 Y86.628
G1 X39.96
G1 X39.23 Y86.673
G1 X38.502 Y86.737
G1 X37.779 Y86.828
G1 X37.06 Y86.947
G1 X36.346 Y87.093
G1 X35.638 Y87.267
G1 X34.937 Y87.467
G1 X34.244 Y87.694
G1 X33.56 Y87.947
G1 X32.884 Y88.227
G1 X32.219 Y88.534
G1 X31.564 Y88.866
G1 X30.921 Y89.224
G1 X30.039 Y89.783
G1 X29.184 Y90.38
G1 X28.358 Y91.015
G1 X27.561 Y91.686
G1 X26.796 Y92.392
G1 X26.064 Y93.133
G1 X25.364 Y93.907
G1 X24.7 Y94.712
G1 X23.966 Y95.677
G1 X23.264 Y96.663
G1 X22.594 Y97.671
G1 X21.956 Y98.7
G1 X21.351 Y99.748
G1 X20.78 Y100.815
G1 X20.243 Y101.9
G1 X19.74 Y103.003
G1 X19.1 Y104.517
G1 X18.496 Y106.045
G1 X17.931 Y107.586
G1 X17.403 Y109.141
G1 X16.914 Y110.709
G1 X16.463 Y112.288
G1 X16.051 Y113.878
G1 X15.677 Y115.479
G1 X15.2 Y117.738
G1 X14.769 Y120.006
G1 X14.386 Y122.282
G1 X14.05 Y124.565
G1 X13.762 Y126.854
G1 X13.522 Y129.15
G1 X13.329 Y131.45
G1 X13.184 Y133.755
G1 X13.068 Y136.042
G1 X12.997 Y138.331
G1 X12.971 Y140.621
G1 X12.988 Y142.91
G1 X13.05 Y145.199
G1 X13.156 Y147.486
G1 X13.306 Y149.771
G1 X13.501 Y152.054
G1 X13.759 Y154.425
G1 X14.107 Y156.784
G1 X14.545 Y159.128
G1 X15.072 Y161.454
G1 X15.395 Y162.646
G1 X15.784 Y163.817
G1 X16.239 Y164.965
G1 X16.757 Y166.086
G1 X17.074 Y166.664
G1 X17.446 Y167.208
G1 X17.868 Y167.713
G1 X18.339 Y168.175
G1 X18.667 Y168.423
G1 X19.022 Y168.617
G1 X19.398 Y168.757
G1 X19.788 Y168.841
G1 X20.186 Y168.869
G1 X20.585 Y168.839
G1 X20.98 Y168.751
G1 X21.364 Y168.605
G1 X21.997 Y168.278
G1 X22.597 Y167.896
G1 X23.16 Y167.463
G1 X23.683 Y166.979
G1 X24.623 Y166.004
G1 X25.521 Y164.99
G1 X26.376 Y163.94
G1 X27.186 Y162.855
G1 X28.632 Y160.834
G1 X30.06 Y158.801
G1 X31.47 Y156.755
G1 X32.861 Y154.697
G1 X33.43 Y153.872
G1 X35.531 Y150.851
G1 X37.707 Y147.885
G1 X39.958 Y144.975
G1 X42.281 Y142.122
G1 X43.919 Y140.244
G1 X45.604 Y138.409
G1 X47.335 Y136.62
G1 X49.112 Y134.876
G1 X50.933 Y133.179
G1 X52.798 Y131.53
G1 X54.706 Y129.929
G1 X56.656 Y128.377
G1 X59.644 Y126.051
G1 X62.641 Y123.736
G1 X63.244 Y123.257
G1 X64.337 Y122.377
G1 X65.4 Y121.462
G1 X66.432 Y120.513
G1 X67.433 Y119.53
G1 X68.187 Y118.715
G1 X68.879 Y117.847
G1 X69.505 Y116.932
G1 X70.063 Y115.971
G1 X70.429 Y115.178
G1 X70.722 Y114.36
G1 X70.941 Y113.522
G1 X71.085 Y112.67
G1 X71.154 Y111.809
G1  Y110.944
G1 X71.063 Y110.079
G1 X70.902 Y109.22
G1 X70.723 Y108.521
G1 X70.517 Y107.83
G1 X70.282 Y107.149
G1 X70.02 Y106.478
G1 X69.731 Y105.818
G1 X69.416 Y105.171
G1 X69.074 Y104.536
G1 X68.706 Y103.915
G1 X68.175 Y103.075
G1 X67.619 Y102.252
G1 X67.038 Y101.448
G1 X66.433 Y100.661
G1 X65.805 Y99.893
G1 X65.153 Y99.145
G1 X64.479 Y98.416
G1 X63.782 Y97.708
G1 X62.399 Y96.375
G1 X60.958 Y95.109
G1 X59.462 Y93.914
G1 X57.912 Y92.79
G1 X56.311 Y91.739
G1 X54.663 Y90.763
G1 X52.969 Y89.864
G1 X51.233 Y89.044
G1 X50.147 Y88.584
G1 X49.045 Y88.172
G1 X47.927 Y87.806
G1 X46.796 Y87.488
G1 X45.652 Y87.217
G1 X44.497 Y86.995
G1 X43.333 Y86.821
; Layer Cut2MM Pass 3 of 3
G1 X42.161 Y86.697
G1 X41.426 Y86.648
G1 X40.692 Y86.628
G1 X39.96
G1 X39.23 Y86.673
G1 X38.502 Y86.737
G1 X37.779 Y86.828
G1 X37.06 Y86.947
G1 X36.346 Y87.093
G1 X35.638 Y87.267
G1 X34.937 Y87.467
G1 X34.244 Y87.694
G1 X33.56 Y87.947
G1 X32.884 Y88.227
G1 X32.219 Y88.534
G1 X31.564 Y88.866
G1 X30.921 Y89.224
G1 X30.039 Y89.783
G1 X29.184 Y90.38
G1 X28.358 Y91.015
G1 X27.561 Y91.686
G1 X26.796 Y92.392
G1 X26.064 Y93.133
G1 X25.364 Y93.907
G1 X24.7 Y94.712
G1 X23.966 Y95.677
G1 X23.264 Y96.663
G1 X22.594 Y97.671
G1 X21.956 Y98.7
G1 X21.351 Y99.748
G1 X20.78 Y100.815
G1 X20.243 Y101.9
G1 X19.74 Y103.003
G1 X19.1 Y104.517
G1 X18.496 Y106.045
G1 X17.931 Y107.586
G1 X17.403 Y109.141
G1 X16.914 Y110.709
G1 X16.463 Y112.288
G1 X16.051 Y113.878
G1 X15.677 Y115.479
G1 X15.2 Y117.738
G1 X14.769 Y120.006
G1 X14.386 Y122.282
G1 X14.05 Y124.565
G1 X13.762 Y126.854
G1 X13.522 Y129.15
G1 X13.329 Y131.45
G1 X13.184 Y133.755
G1 X13.068 Y136.042
G1 X12.997 Y138.331
G1 X12.971 Y140.621
G1 X12.988 Y142.91
G1 X13.05 Y145.199
G1 X13.156 Y147.486
G1 X13.306 Y149.771
G1 X13.501 Y152.054
G1 X13.759 Y154.425
G1 X14.107 Y156.784
G1 X14.545 Y159.128
G1 X15.072 Y161.454
G1 X15.395 Y162.646
G1 X15.784 Y163.817
G1 X16.239 Y164.965
G1 X16.757 Y166.086
G1 X17.074 Y166.664
G1 X17.446 Y167.208
G1 X17.868 Y167.713
G1 X18.339 Y168.175
G1 X18.667 Y168.423
G1 X19.022 Y168.617
G1 X19.398 Y168.757
G1 X19.788 Y168.841
G1 X20.186 Y168.869
G1 X20.585 Y168.839
G1 X20.98 Y168.751
G1 X21.364 Y168.605
G1 X21.997 Y168.278
G1 X22.597 Y167.896
G1 X23.16 Y167.463
G1 X23.683 Y166.979
G1 X24.623 Y166.004
G1 X25.521 Y164.99
G1 X26.376 Y163.94
G1 X27.186 Y162.855
G1 X28.632 Y160.834
G1 X30.06 Y158.801
G1 X31.47 Y156.755
G1 X32.861 Y154.697
G1 X33.43 Y153.872
G1 X35.531 Y150.851
G1 X37.707 Y147.885
G1 X39.958 Y144.975
G1 X42.281 Y142.122
G1 X43.919 Y140.244
G1 X45.604 Y138.409
G1 X47.335 Y136.62
G1 X49.112 Y134.876
G1 X50.933 Y133.179
G1 X52.798 Y131.53
G1 X54.706 Y129.929
G1 X56.656 Y128.377
G1 X59.644 Y126.051
G1 X62.641 Y123.736
G1 X63.244 Y123.257
G1 X64.337 Y122.377
G1 X65.4 Y121.462
G1 X66.432 Y120.513
G1 X67.433 Y119.53
G1 X68.187 Y118.715
G1 X68.879 Y117.847
G1 X69.505 Y116.932
G1 X70.063 Y115.971
G1 X70.429 Y115.178
G1 X70.722 Y114.36
G1 X70.941 Y113.522
G1 X71.085 Y112.67
G1 X71.154 Y111.809
G1  Y110.944
G1 X71.063 Y110.079
G1 X70.902 Y109.22
G1 X70.723 Y108.521
G1 X70.517 Y107.83
G1 X70.282 Y107.149
G1 X70.02 Y106.478
G1 X69.731 Y105.818
G1 X69.416 Y105.171
G1 X69.074 Y104.536
G1 X68.706 Y103.915
G1 X68.175 Y103.075
G1 X67.619 Y102.252
G1 X67.038 Y101.448
G1 X66.433 Y100.661
G1 X65.805 Y99.893
G1 X65.153 Y99.145
G1 X64.479 Y98.416
G1 X63.782 Y97.708
G1 X62.399 Y96.375
G1 X60.958 Y95.109
G1 X59.462 Y93.914
G1 X57.912 Y92.79
G1 X56.311 Y91.739
G1 X54.663 Y90.763
G1 X52.969 Y89.864
G1 X51.233 Y89.044
G1 X50.147 Y88.584
G1 X49.045 Y88.172
G1 X47.927 Y87.806
G1 X46.796 Y87.488
G1 X45.652 Y87.217
G1 X44.497 Y86.995
G1 X43.333 Y86.821
M05 
G0 X12.345 Y68.636 F0
; Layer Cut2MM Pass 1 of 3
M03 S1000
G1 X2.345 F600
G1  Y199.298
G1 X2.388 Y199.591
G1 X2.512 Y199.854
G1 X2.707 Y200.069
G1 X2.961 Y200.222
G1 X3.249 Y200.294
G1 X3.539 Y200.279
G1 X3.812 Y200.181
G1 X4.051 Y200.005
G1 X14.852 Y189.204
G1 X7.781 Y182.133
G1 X9.266 Y180.648
G1 X16.338 Y187.718
G1 X17.752 Y186.304
G1 X10.681 Y179.233
G1 X12.166 Y177.748
G1 X19.237 Y184.819
G1 X89.174 Y114.882
G1 X82.103 Y107.811
G1 X83.588 Y106.326
G1 X90.659 Y113.397
G1 X92.073 Y111.983
G1 X85.002 Y104.912
G1 X86.487 Y103.427
G1 X93.558 Y110.498
G1 X148.842 Y55.214
G1 X151.635 Y58.007
G1 X158.706 Y50.936
G1 X160.191 Y52.421
G1 X153.12 Y59.492
G1 X154.534 Y60.906
G1 X161.605 Y53.835
G1 X163.09 Y55.32
G1 X156.019 Y62.391
G1 X159.448 Y65.821
G1 X157.646 Y67.623
G1 X157.491 Y67.823
G1 X157.393 Y68.053
G1 X157.354 Y68.3
G1 X157.379 Y68.552
G1 X157.466 Y68.79
G1 X157.608 Y68.996
G1 X157.796 Y69.16
G1 X158.023 Y69.273
G1 X158.68 Y69.492
G1 X159.351 Y69.647
G1 X160.031 Y69.738
G1 X160.714 Y69.766
G1 X161.397 Y69.731
G1 X162.076 Y69.633
G1 X162.745 Y69.471
G1 X163.4 Y69.246
G1 X164.41 Y68.814
G1 X165.395 Y68.329
G1 X166.353 Y67.792
G1 X167.281 Y67.204
G1 X168.519 Y66.37
G1 X169.729 Y65.495
G1 X177.263 Y57.961
G1 X177.776 Y57.422
G1 X178.259 Y56.861
G1 X178.713 Y56.279
G1 X179.136 Y55.677
G1 X179.528 Y55.056
G1 X179.889 Y54.418
G1 X180.218 Y53.764
G1 X180.515 Y53.095
G1 X180.778 Y52.412
G1 X181.008 Y51.717
G1 X181.204 Y51.011
G1 X181.365 Y50.295
G1 X181.492 Y49.57
G1 X181.583 Y48.837
G1 X181.638 Y48.099
G1 X181.656 Y47.355
G1  Y37.631
G1 X171.656
G1  Y35.531
G1 X181.656
G1  Y33.581
G1 X171.656
G1  Y31.481
G1 X181.656
G1  Y23.706
G1 X181.643 Y23.192
G1 X181.605 Y22.684
G1 X181.541 Y22.184
G1 X181.453 Y21.691
G1 X181.207 Y20.733
G1 X180.871 Y19.814
G1 X180.449 Y18.94
G1 X179.949 Y18.115
G1 X179.373 Y17.346
G1 X178.727 Y16.635
G1 X178.017 Y15.99
G1 X177.247 Y15.414
G1 X176.423 Y14.913
G1 X175.549 Y14.492
G1 X174.63 Y14.156
G1 X173.672 Y13.91
G1 X173.179 Y13.822
G1 X172.679 Y13.758
G1 X172.171 Y13.719
G1 X171.656 Y13.706
G1 X155.825
G1 X154.632 Y13.742
G1 X153.451 Y13.848
G1 X152.284 Y14.022
G1 X151.135 Y14.264
G1 X150.005 Y14.572
G1 X148.898 Y14.945
G1 X147.816 Y15.38
G1 X146.762 Y15.878
G1 X145.739 Y16.436
G1 X144.749 Y17.054
G1 X143.796 Y17.729
G1 X142.881 Y18.46
G1 X142.008 Y19.246
G1 X141.18 Y20.086
G1 X140.398 Y20.978
G1 X139.667 Y21.921
G1 X138.535 Y23.436
G1 X137.388 Y24.899
G1 X136.226 Y26.31
G1 X135.047 Y27.67
G1 X133.853 Y28.978
G1 X132.644 Y30.234
G1 X131.419 Y31.438
G1 X130.18 Y32.59
G1 X136.937 Y39.935
G1 X135.391 Y41.357
G1 X128.621 Y33.997
G1 X129.394 Y33.286
G1 X128.23 Y34.27
G1 X127.039 Y35.221
G1 X133.16 Y43.129
G1 X131.499 Y44.415
G1 X125.353 Y36.474
G1 X124.396 Y37.146
G1 X123.422 Y37.792
G1 X122.432 Y38.411
G1 X121.426 Y39.002
G1 X120.406 Y39.566
G1 X119.372 Y40.102
G1 X118.324 Y40.611
G1 X117.264 Y41.091
G1 X116.19 Y41.542
G1 X115.105 Y41.965
G1 X114.009 Y42.359
G1 X112.902 Y42.723
G1 X111.785 Y43.058
G1 X110.658 Y43.364
G1 X109.522 Y43.639
G1 X108.378 Y43.884
G1 X106.673 Y44.178
G1 X104.96 Y44.411
G1 X103.241 Y44.584
G1 X101.517 Y44.696
G1 X99.791 Y44.748
G1 X98.064
G1 X96.336 Y44.67
G1 X94.611 Y44.539
G1 X92.804 Y44.347
G1 X91.002 Y44.111
G1 X89.208 Y43.83
G1 X87.421 Y43.505
G1 X85.643 Y43.136
G1 X83.874 Y42.723
G1 X82.116 Y42.266
G1 X80.368 Y41.766
G1 X78.274 Y41.119
G1 X76.192 Y40.434
G1 X74.123 Y39.712
G1 X72.068 Y38.952
G1 X70.027 Y38.155
G1 X68 Y37.321
G1 X65.989 Y36.45
G1 X63.993 Y35.543
G1 X61.333 Y34.281
G1 X58.692 Y32.981
G1 X56.071 Y31.643
G1 X53.47 Y30.266
G1 X50.889 Y28.852
G1 X48.329 Y27.4
G1 X45.79 Y25.911
G1 X43.273 Y24.384
G1 X40.517 Y22.679
G1 X37.782 Y20.943
G1 X35.067 Y19.176
G1 X32.371 Y17.378
G1 X31.698 Y16.943
G1 X31.011 Y16.533
G1 X30.311 Y16.151
G1 X29.598 Y15.795
G1 X28.873 Y15.466
G1 X28.138 Y15.165
G1 X27.392 Y14.891
G1 X26.637 Y14.645
G1 X25.873 Y14.427
G1 X25.102 Y14.237
G1 X24.323 Y14.076
G1 X23.539 Y13.944
G1 X22.749 Y13.84
G1 X21.954 Y13.766
G1 X21.156 Y13.721
G1 X20.354 Y13.706
G1 X16.35
G1 X16.445 Y23.706
G1 X14.345
G1  Y13.706
G1 X12.345
G1 X11.484 Y13.744
G1 X10.634 Y13.854
G1 X9.8 Y14.036
G1 X8.985 Y14.288
G1 X8.195 Y14.608
G1 X7.434 Y14.996
G1 X6.706 Y15.449
G1 X6.015 Y15.965
G1 X12.808 Y23.287
G1 X11.341 Y24.647
G1 X4.473 Y17.54
G1 X3.986 Y18.219
G1 X3.559 Y18.932
G1 X3.194 Y19.675
G1 X2.892 Y20.445
G1 X2.655 Y21.237
G1 X2.484 Y22.047
G1 X2.38 Y22.872
G1 X2.345 Y23.706
G1  Y62.436
G1 X12.345
G1  Y64.536
G1 X2.345
G1  Y66.536
G1 X12.345
G1  Y68.636
; Layer Cut2MM Pass 2 of 3
G1 X2.345
G1  Y199.298
G1 X2.388 Y199.591
G1 X2.512 Y199.854
G1 X2.707 Y200.069
G1 X2.961 Y200.222
G1 X3.249 Y200.294
G1 X3.539 Y200.279
G1 X3.812 Y200.181
G1 X4.051 Y200.005
G1 X14.852 Y189.204
G1 X7.781 Y182.133
G1 X9.266 Y180.648
G1 X16.338 Y187.718
G1 X17.752 Y186.304
G1 X10.681 Y179.233
G1 X12.166 Y177.748
G1 X19.237 Y184.819
G1 X89.174 Y114.882
G1 X82.103 Y107.811
G1 X83.588 Y106.326
G1 X90.659 Y113.397
G1 X92.073 Y111.983
G1 X85.002 Y104.912
G1 X86.487 Y103.427
G1 X93.558 Y110.498
G1 X148.842 Y55.214
G1 X151.635 Y58.007
G1 X158.706 Y50.936
G1 X160.191 Y52.421
G1 X153.12 Y59.492
G1 X154.534 Y60.906
G1 X161.605 Y53.835
G1 X163.09 Y55.32
G1 X156.019 Y62.391
G1 X159.448 Y65.821
G1 X157.646 Y67.623
G1 X157.491 Y67.823
G1 X157.393 Y68.053
G1 X157.354 Y68.3
G1 X157.379 Y68.552
G1 X157.466 Y68.79
G1 X157.608 Y68.996
G1 X157.796 Y69.16
G1 X158.023 Y69.273
G1 X158.68 Y69.492
G1 X159.351 Y69.647
G1 X160.031 Y69.738
G1 X160.714 Y69.766
G1 X161.397 Y69.731
G1 X162.076 Y69.633
G1 X162.745 Y69.471
G1 X163.4 Y69.246
G1 X164.41 Y68.814
G1 X165.395 Y68.329
G1 X166.353 Y67.792
G1 X167.281 Y67.204
G1 X168.519 Y66.37
G1 X169.729 Y65.495
G1 X177.263 Y57.961
G1 X177.776 Y57.422
G1 X178.259 Y56.861
G1 X178.713 Y56.279
G1 X179.136 Y55.677
G1 X179.528 Y55.056
G1 X179.889 Y54.418
G1 X180.218 Y53.764
G1 X180.515 Y53.095
G1 X180.778 Y52.412
G1 X181.008 Y51.717
G1 X181.204 Y51.011
G1 X181.365 Y50.295
G1 X181.492 Y49.57
G1 X181.583 Y48.837
G1 X181.638 Y48.099
G1 X181.656 Y47.355
G1  Y37.631
G1 X171.656
G1  Y35.531
G1 X181.656
G1  Y33.581
G1 X171.656
G1  Y31.481
G1 X181.656
G1  Y23.706
G1 X181.643 Y23.192
G1 X181.605 Y22.684
G1 X181.541 Y22.184
G1 X181.453 Y21.691
G1 X181.207 Y20.733
G1 X180.871 Y19.814
G1 X180.449 Y18.94
G1 X179.949 Y18.115
G1 X179.373 Y17.346
G1 X178.727 Y16.635
G1 X178.017 Y15.99
G1 X177.247 Y15.414
G1 X176.423 Y14.913
G1 X175.549 Y14.492
G1 X174.63 Y14.156
G1 X173.672 Y13.91
G1 X173.179 Y13.822
G1 X172.679 Y13.758
G1 X172.171 Y13.719
G1 X171.656 Y13.706
G1 X155.825
G1 X154.632 Y13.742
G1 X153.451 Y13.848
G1 X152.284 Y14.022
G1 X151.135 Y14.264
G1 X150.005 Y14.572
G1 X148.898 Y14.945
G1 X147.816 Y15.38
G1 X146.762 Y15.878
G1 X145.739 Y16.436
G1 X144.749 Y17.054
G1 X143.796 Y17.729
G1 X142.881 Y18.46
G1 X142.008 Y19.246
G1 X141.18 Y20.086
G1 X140.398 Y20.978
G1 X139.667 Y21.921
G1 X138.535 Y23.436
G1 X137.388 Y24.899
G1 X136.226 Y26.31
G1 X135.047 Y27.67
G1 X133.853 Y28.978
G1 X132.644 Y30.234
G1 X131.419 Y31.438
G1 X130.18 Y32.59
G1 X136.937 Y39.935
G1 X135.391 Y41.357
G1 X128.621 Y33.997
G1 X129.394 Y33.286
G1 X128.23 Y34.27
G1 X127.039 Y35.221
G1 X133.16 Y43.129
G1 X131.499 Y44.415
G1 X125.353 Y36.474
G1 X124.396 Y37.146
G1 X123.422 Y37.792
G1 X122.432 Y38.411
G1 X121.426 Y39.002
G1 X120.406 Y39.566
G1 X119.372 Y40.102
G1 X118.324 Y40.611
G1 X117.264 Y41.091
G1 X116.19 Y41.542
G1 X115.105 Y41.965
G1 X114.009 Y42.359
G1 X112.902 Y42.723
G1 X111.785 Y43.058
G1 X110.658 Y43.364
G1 X109.522 Y43.639
G1 X108.378 Y43.884
G1 X106.673 Y44.178
G1 X104.96 Y44.411
G1 X103.241 Y44.584
G1 X101.517 Y44.696
G1 X99.791 Y44.748
G1 X98.064
G1 X96.336 Y44.67
G1 X94.611 Y44.539
G1 X92.804 Y44.347
G1 X91.002 Y44.111
G1 X89.208 Y43.83
G1 X87.421 Y43.505
G1 X85.643 Y43.136
G1 X83.874 Y42.723
G1 X82.116 Y42.266
G1 X80.368 Y41.766
G1 X78.274 Y41.119
G1 X76.192 Y40.434
G1 X74.123 Y39.712
G1 X72.068 Y38.952
G1 X70.027 Y38.155
G1 X68 Y37.321
G1 X65.989 Y36.45
G1 X63.993 Y35.543
G1 X61.333 Y34.281
G1 X58.692 Y32.981
G1 X56.071 Y31.643
G1 X53.47 Y30.266
G1 X50.889 Y28.852
G1 X48.329 Y27.4
G1 X45.79 Y25.911
G1 X43.273 Y24.384
G1 X40.517 Y22.679
G1 X37.782 Y20.943
G1 X35.067 Y19.176
G1 X32.371 Y17.378
G1 X31.698 Y16.943
G1 X31.011 Y16.533
G1 X30.311 Y16.151
G1 X29.598 Y15.795
G1 X28.873 Y15.466
G1 X28.138 Y15.165
G1 X27.392 Y14.891
G1 X26.637 Y14.645
G1 X25.873 Y14.427
G1 X25.102 Y14.237
G1 X24.323 Y14.076
G1 X23.539 Y13.944
G1 X22.749 Y13.84
G1 X21.954 Y13.766
G1 X21.156 Y13.721
G1 X20.354 Y13.706
G1 X16.35
G1 X16.445 Y23.706
G1 X14.345
G1  Y13.706
G1 X12.345
G1 X11.484 Y13.744
G1 X10.634 Y13.854
G1 X9.8 Y14.036
G1 X8.985 Y14.288
G1 X8.195 Y14.608
G1 X7.434 Y14.996
G1 X6.706 Y15.449
G1 X6.015 Y15.965
G1 X12.808 Y23.287
G1 X11.341 Y24.647
G1 X4.473 Y17.54
G1 X3.986 Y18.219
G1 X3.559 Y18.932
G1 X3.194 Y19.675
G1 X2.892 Y20.445
G1 X2.655 Y21.237
G1 X2.484 Y22.047
G1 X2.38 Y22.872
G1 X2.345 Y23.706
G1  Y62.436
G1 X12.345
G1  Y64.536
G1 X2.345
G1  Y66.536
G1 X12.345
G1  Y68.636
; Layer Cut2MM Pass 3 of 3
G1 X2.345
G1  Y199.298
G1 X2.388 Y199.591
G1 X2.512 Y199.854
G1 X2.707 Y200.069
G1 X2.961 Y200.222
G1 X3.249 Y200.294
G1 X3.539 Y200.279
G1 X3.812 Y200.181
G1 X4.051 Y200.005
G1 X14.852 Y189.204
G1 X7.781 Y182.133
G1 X9.266 Y180.648
G1 X16.338 Y187.718
G1 X17.752 Y186.304
G1 X10.681 Y179.233
G1 X12.166 Y177.748
G1 X19.237 Y184.819
G1 X89.174 Y114.882
G1 X82.103 Y107.811
G1 X83.588 Y106.326
G1 X90.659 Y113.397
G1 X92.073 Y111.983
G1 X85.002 Y104.912
G1 X86.487 Y103.427
G1 X93.558 Y110.498
G1 X148.842 Y55.214
G1 X151.635 Y58.007
G1 X158.706 Y50.936
G1 X160.191 Y52.421
G1 X153.12 Y59.492
G1 X154.534 Y60.906
G1 X161.605 Y53.835
G1 X163.09 Y55.32
G1 X156.019 Y62.391
G1 X159.448 Y65.821
G1 X157.646 Y67.623
G1 X157.491 Y67.823
G1 X157.393 Y68.053
G1 X157.354 Y68.3
G1 X157.379 Y68.552
G1 X157.466 Y68.79
G1 X157.608 Y68.996
G1 X157.796 Y69.16
G1 X158.023 Y69.273
G1 X158.68 Y69.492
G1 X159.351 Y69.647
G1 X160.031 Y69.738
G1 X160.714 Y69.766
G1 X161.397 Y69.731
G1 X162.076 Y69.633
G1 X162.745 Y69.471
G1 X163.4 Y69.246
G1 X164.41 Y68.814
G1 X165.395 Y68.329
G1 X166.353 Y67.792
G1 X167.281 Y67.204
G1 X168.519 Y66.37
G1 X169.729 Y65.495
G1 X177.263 Y57.961
G1 X177.776 Y57.422
G1 X178.259 Y56.861
G1 X178.713 Y56.279
G1 X179.136 Y55.677
G1 X179.528 Y55.056
G1 X179.889 Y54.418
G1 X180.218 Y53.764
G1 X180.515 Y53.095
G1 X180.778 Y52.412
G1 X181.008 Y51.717
G1 X181.204 Y51.011
G1 X181.365 Y50.295
G1 X181.492 Y49.57
G1 X181.583 Y48.837
G1 X181.638 Y48.099
G1 X181.656 Y47.355
G1  Y37.631
G1 X171.656
G1  Y35.531
G1 X181.656
G1  Y33.581
G1 X171.656
G1  Y31.481
G1 X181.656
G1  Y23.706
G1 X181.643 Y23.192
G1 X181.605 Y22.684
G1 X181.541 Y22.184
G1 X181.453 Y21.691
G1 X181.207 Y20.733
G1 X180.871 Y19.814
G1 X180.449 Y18.94
G1 X179.949 Y18.115
G1 X179.373 Y17.346
G1 X178.727 Y16.635
G1 X178.017 Y15.99
G1 X177.247 Y15.414
G1 X176.423 Y14.913
G1 X175.549 Y14.492
G1 X174.63 Y14.156
G1 X173.672 Y13.91
G1 X173.179 Y13.822
G1 X172.679 Y13.758
G1 X172.171 Y13.719
G1 X171.656 Y13.706
G1 X155.825
G1 X154.632 Y13.742
G1 X153.451 Y13.848
G1 X152.284 Y14.022
G1 X151.135 Y14.264
G1 X150.005 Y14.572
G1 X148.898 Y14.945
G1 X147.816 Y15.38
G1 X146.762 Y15.878
G1 X145.739 Y16.436
G1 X144.749 Y17.054
G1 X143.796 Y17.729
G1 X142.881 Y18.46
G1 X142.008 Y19.246
G1 X141.18 Y20.086
G1 X140.398 Y20.978
G1 X139.667 Y21.921
G1 X138.535 Y23.436
G1 X137.388 Y24.899
G1 X136.226 Y26.31
G1 X135.047 Y27.67
G1 X133.853 Y28.978
G1 X132.644 Y30.234
G1 X131.419 Y31.438
G1 X130.18 Y32.59
G1 X136.937 Y39.935
G1 X135.391 Y41.357
G1 X128.621 Y33.997
G1 X129.394 Y33.286
G1 X128.23 Y34.27
G1 X127.039 Y35.221
G1 X133.16 Y43.129
G1 X131.499 Y44.415
G1 X125.353 Y36.474
G1 X124.396 Y37.146
G1 X123.422 Y37.792
G1 X122.432 Y38.411
G1 X121.426 Y39.002
G1 X120.406 Y39.566
G1 X119.372 Y40.102
G1 X118.324 Y40.611
G1 X117.264 Y41.091
G1 X116.19 Y41.542
G1 X115.105 Y41.965
G1 X114.009 Y42.359
G1 X112.902 Y42.723
G1 X111.785 Y43.058
G1 X110.658 Y43.364
G1 X109.522 Y43.639
G1 X108.378 Y43.884
G1 X106.673 Y44.178
G1 X104.96 Y44.411
G1 X103.241 Y44.584
G1 X101.517 Y44.696
G1 X99.791 Y44.748
G1 X98.064
G1 X96.336 Y44.67
G1 X94.611 Y44.539
G1 X92.804 Y44.347
G1 X91.002 Y44.111
G1 X89.208 Y43.83
G1 X87.421 Y43.505
G1 X85.643 Y43.136
G1 X83.874 Y42.723
G1 X82.116 Y42.266
G1 X80.368 Y41.766
G1 X78.274 Y41.119
G1 X76.192 Y40.434
G1 X74.123 Y39.712
G1 X72.068 Y38.952
G1 X70.027 Y38.155
G1 X68 Y37.321
G1 X65.989 Y36.45
G1 X63.993 Y35.543
G1 X61.333 Y34.281
G1 X58.692 Y32.981
G1 X56.071 Y31.643
G1 X53.47 Y30.266
G1 X50.889 Y28.852
G1 X48.329 Y27.4
G1 X45.79 Y25.911
G1 X43.273 Y24.384
G1 X40.517 Y22.679
G1 X37.782 Y20.943
G1 X35.067 Y19.176
G1 X32.371 Y17.378
G1 X31.698 Y16.943
G1 X31.011 Y16.533
G1 X30.311 Y16.151
G1 X29.598 Y15.795
G1 X28.873 Y15.466
G1 X28.138 Y15.165
G1 X27.392 Y14.891
G1 X26.637 Y14.645
G1 X25.873 Y14.427
G1 X25.102 Y14.237
G1 X24.323 Y14.076
G1 X23.539 Y13.944
G1 X22.749 Y13.84
G1 X21.954 Y13.766
G1 X21.156 Y13.721
G1 X20.354 Y13.706
G1 X16.35
G1 X16.445 Y23.706
G1 X14.345
G1  Y13.706
G1 X12.345
G1 X11.484 Y13.744
G1 X10.634 Y13.854
G1 X9.8 Y14.036
G1 X8.985 Y14.288
G1 X8.195 Y14.608
G1 X7.434 Y14.996
G1 X6.706 Y15.449
G1 X6.015 Y15.965
G1 X12.808 Y23.287
G1 X11.341 Y24.647
G1 X4.473 Y17.54
G1 X3.986 Y18.219
G1 X3.559 Y18.932
G1 X3.194 Y19.675
G1 X2.892 Y20.445
G1 X2.655 Y21.237
G1 X2.484 Y22.047
G1 X2.38 Y22.872
G1 X2.345 Y23.706
G1  Y62.436
G1 X12.345
G1  Y64.536
G1 X2.345
G1  Y66.536
G1 X12.345
G1  Y68.636
M05 
G0 X119.73 Y87.664 F0
; Layer Cut2MM Pass 1 of 3
M03 S1000
G1 X123.265 Y91.199 F600
G1 X124.679 Y89.785
G1 X121.144 Y86.249
G1 X121.851 Y85.542
G1 X122.079 Y85.336
G1 X122.322 Y85.158
G1 X122.577 Y85.007
G1 X122.843 Y84.883
G1 X123.118 Y84.787
G1 X123.399 Y84.719
G1 X123.685 Y84.677
G1 X123.972 Y84.664
G1 X124.26 Y84.677
G1 X124.545 Y84.719
G1 X124.827 Y84.787
G1 X125.101 Y84.883
G1 X125.368 Y85.007
G1 X125.623 Y85.158
G1 X125.866 Y85.336
G1 X126.094 Y85.542
G1 X132.458 Y91.906
G1 X132.664 Y92.134
G1 X132.842 Y92.377
G1 X132.993 Y92.632
G1 X133.117 Y92.899
G1 X133.213 Y93.173
G1 X133.281 Y93.455
G1 X133.323 Y93.74
G1 X133.336 Y94.028
G1 X133.323 Y94.315
G1 X133.281 Y94.601
G1 X133.213 Y94.882
G1 X133.117 Y95.157
G1 X132.993 Y95.423
G1 X132.842 Y95.678
G1 X132.664 Y95.921
G1 X132.458 Y96.149
G1 X22.149 Y206.458
G1 X21.921 Y206.664
G1 X21.678 Y206.842
G1 X21.423 Y206.993
G1 X21.157 Y207.117
G1 X20.882 Y207.213
G1 X20.601 Y207.281
G1 X20.315 Y207.323
G1 X20.028 Y207.336
G1 X19.74 Y207.323
G1 X19.455 Y207.281
G1 X19.174 Y207.213
G1 X18.899 Y207.117
G1 X18.633 Y206.993
G1 X18.377 Y206.842
G1 X18.134 Y206.664
G1 X17.906 Y206.458
G1 X11.542 Y200.094
G1 X11.336 Y199.866
G1 X11.158 Y199.623
G1 X11.007 Y199.367
G1 X10.883 Y199.101
G1 X10.787 Y198.826
G1 X10.719 Y198.545
G1 X10.677 Y198.26
G1 X10.664 Y197.972
G1 X10.677 Y197.685
G1 X10.719 Y197.399
G1 X10.787 Y197.118
G1 X10.883 Y196.843
G1 X11.007 Y196.577
G1 X11.158 Y196.322
G1 X11.336 Y196.079
G1 X11.542 Y195.851
G1 X12.249 Y195.144
G1 X15.785 Y198.679
G1 X17.199 Y197.265
G1 X13.664 Y193.73
G1 X65.282 Y142.111
G1 X68.818 Y145.646
G1 X70.232 Y144.232
G1 X66.697 Y140.697
G1 X119.73 Y87.664
; Layer Cut2MM Pass 2 of 3
G1 X123.265 Y91.199
G1 X124.679 Y89.785
G1 X121.144 Y86.249
G1 X121.851 Y85.542
G1 X122.079 Y85.336
G1 X122.322 Y85.158
G1 X122.577 Y85.007
G1 X122.843 Y84.883
G1 X123.118 Y84.787
G1 X123.399 Y84.719
G1 X123.685 Y84.677
G1 X123.972 Y84.664
G1 X124.26 Y84.677
G1 X124.545 Y84.719
G1 X124.827 Y84.787
G1 X125.101 Y84.883
G1 X125.368 Y85.007
G1 X125.623 Y85.158
G1 X125.866 Y85.336
G1 X126.094 Y85.542
G1 X132.458 Y91.906
G1 X132.664 Y92.134
G1 X132.842 Y92.377
G1 X132.993 Y92.632
G1 X133.117 Y92.899
G1 X133.213 Y93.173
G1 X133.281 Y93.455
G1 X133.323 Y93.74
G1 X133.336 Y94.028
G1 X133.323 Y94.315
G1 X133.281 Y94.601
G1 X133.213 Y94.882
G1 X133.117 Y95.157
G1 X132.993 Y95.423
G1 X132.842 Y95.678
G1 X132.664 Y95.921
G1 X132.458 Y96.149
G1 X22.149 Y206.458
G1 X21.921 Y206.664
G1 X21.678 Y206.842
G1 X21.423 Y206.993
G1 X21.157 Y207.117
G1 X20.882 Y207.213
G1 X20.601 Y207.281
G1 X20.315 Y207.323
G1 X20.028 Y207.336
G1 X19.74 Y207.323
G1 X19.455 Y207.281
G1 X19.174 Y207.213
G1 X18.899 Y207.117
G1 X18.633 Y206.993
G1 X18.377 Y206.842
G1 X18.134 Y206.664
G1 X17.906 Y206.458
G1 X11.542 Y200.094
G1 X11.336 Y199.866
G1 X11.158 Y199.623
G1 X11.007 Y199.367
G1 X10.883 Y199.101
G1 X10.787 Y198.826
G1 X10.719 Y198.545
G1 X10.677 Y198.26
G1 X10.664 Y197.972
G1 X10.677 Y197.685
G1 X10.719 Y197.399
G1 X10.787 Y197.118
G1 X10.883 Y196.843
G1 X11.007 Y196.577
G1 X11.158 Y196.322
G1 X11.336 Y196.079
G1 X11.542 Y195.851
G1 X12.249 Y195.144
G1 X15.785 Y198.679
G1 X17.199 Y197.265
G1 X13.664 Y193.73
G1 X65.282 Y142.111
G1 X68.818 Y145.646
G1 X70.232 Y144.232
G1 X66.697 Y140.697
G1 X119.73 Y87.664
; Layer Cut2MM Pass 3 of 3
G1 X123.265 Y91.199
G1 X124.679 Y89.785
G1 X121.144 Y86.249
G1 X121.851 Y85.542
G1 X122.079 Y85.336
G1 X122.322 Y85.158
G1 X122.577 Y85.007
G1 X122.843 Y84.883
G1 X123.118 Y84.787
G1 X123.399 Y84.719
G1 X123.685 Y84.677
G1 X123.972 Y84.664
G1 X124.26 Y84.677
G1 X124.545 Y84.719
G1 X124.827 Y84.787
G1 X125.101 Y84.883
G1 X125.368 Y85.007
G1 X125.623 Y85.158
G1 X125.866 Y85.336
G1 X126.094 Y85.542
G1 X132.458 Y91.906
G1 X132.664 Y92.134
G1 X132.842 Y92.377
G1 X132.993 Y92.632
G1 X133.117 Y92.899
G1 X133.213 Y93.173
G1 X133.281 Y93.455
G1 X133.323 Y93.74
G1 X133.336 Y94.028
G1 X133.323 Y94.315
G1 X133.281 Y94.601
G1 X133.213 Y94.882
G1 X133.117 Y95.157
G1 X132.993 Y95.423
G1 X132.842 Y95.678
G1 X132.664 Y95.921
G1 X132.458 Y96.149
G1 X22.149 Y206.458
G1 X21.921 Y206.664
G1 X21.678 Y206.842
G1 X21.423 Y206.993
G1 X21.157 Y207.117
G1 X20.882 Y207.213
G1 X20.601 Y207.281
G1 X20.315 Y207.323
G1 X20.028 Y207.336
G1 X19.74 Y207.323
G1 X19.455 Y207.281
G1 X19.174 Y207.213
G1 X18.899 Y207.117
G1 X18.633 Y206.993
G1 X18.377 Y206.842
G1 X18.134 Y206.664
G1 X17.906 Y206.458
G1 X11.542 Y200.094
G1 X11.336 Y199.866
G1 X11.158 Y199.623
G1 X11.007 Y199.367
G1 X10.883 Y199.101
G1 X10.787 Y198.826
G1 X10.719 Y198.545
G1 X10.677 Y198.26
G1 X10.664 Y197.972
G1 X10.677 Y197.685
G1 X10.719 Y197.399
G1 X10.787 Y197.118
G1 X10.883 Y196.843
G1 X11.007 Y196.577
G1 X11.158 Y196.322
G1 X11.336 Y196.079
G1 X11.542 Y195.851
G1 X12.249 Y195.144
G1 X15.785 Y198.679
G1 X17.199 Y197.265
G1 X13.664 Y193.73
G1 X65.282 Y142.111
G1 X68.818 Y145.646
G1 X70.232 Y144.232
G1 X66.697 Y140.697
G1 X119.73 Y87.664
M05 
G0 X140.73 Y89.664 F0
; Layer Cut2MM Pass 1 of 3
M03 S1000
G1 X144.265 Y93.199 F600
G1 X145.679 Y91.785
G1 X142.144 Y88.249
G1 X142.851 Y87.542
G1 X143.079 Y87.336
G1 X143.322 Y87.158
G1 X143.577 Y87.007
G1 X143.843 Y86.883
G1 X144.118 Y86.787
G1 X144.399 Y86.719
G1 X144.685 Y86.677
G1 X144.972 Y86.664
G1 X145.26 Y86.677
G1 X145.545 Y86.719
G1 X145.827 Y86.787
G1 X146.101 Y86.883
G1 X146.367 Y87.007
G1 X146.623 Y87.158
G1 X146.866 Y87.336
G1 X147.094 Y87.542
G1 X153.458 Y93.906
G1 X153.664 Y94.134
G1 X153.842 Y94.377
G1 X153.993 Y94.633
G1 X154.117 Y94.899
G1 X154.213 Y95.173
G1 X154.281 Y95.455
G1 X154.323 Y95.74
G1 X154.336 Y96.028
G1 X154.323 Y96.315
G1 X154.281 Y96.601
G1 X154.213 Y96.882
G1 X154.117 Y97.157
G1 X153.993 Y97.423
G1 X153.842 Y97.678
G1 X153.664 Y97.921
G1 X153.458 Y98.149
G1 X43.149 Y208.458
G1 X42.921 Y208.664
G1 X42.678 Y208.842
G1 X42.423 Y208.993
G1 X42.157 Y209.117
G1 X41.882 Y209.213
G1 X41.601 Y209.281
G1 X41.315 Y209.323
G1 X41.028 Y209.336
G1 X40.74 Y209.323
G1 X40.455 Y209.281
G1 X40.174 Y209.213
G1 X39.899 Y209.117
G1 X39.633 Y208.993
G1 X39.377 Y208.842
G1 X39.134 Y208.664
G1 X38.906 Y208.458
G1 X32.542 Y202.094
G1 X32.336 Y201.866
G1 X32.158 Y201.623
G1 X32.007 Y201.367
G1 X31.883 Y201.101
G1 X31.787 Y200.826
G1 X31.719 Y200.545
G1 X31.677 Y200.26
G1 X31.664 Y199.972
G1 X31.677 Y199.685
G1 X31.719 Y199.399
G1 X31.787 Y199.118
G1 X31.883 Y198.843
G1 X32.007 Y198.577
G1 X32.158 Y198.322
G1 X32.336 Y198.079
G1 X32.542 Y197.851
G1 X33.249 Y197.144
G1 X36.785 Y200.679
G1 X38.199 Y199.265
G1 X34.664 Y195.73
G1 X86.282 Y144.111
G1 X89.818 Y147.646
G1 X91.232 Y146.232
G1 X87.697 Y142.697
G1 X140.73 Y89.664
; Layer Cut2MM Pass 2 of 3
G1 X144.265 Y93.199
G1 X145.679 Y91.785
G1 X142.144 Y88.249
G1 X142.851 Y87.542
G1 X143.079 Y87.336
G1 X143.322 Y87.158
G1 X143.577 Y87.007
G1 X143.843 Y86.883
G1 X144.118 Y86.787
G1 X144.399 Y86.719
G1 X144.685 Y86.677
G1 X144.972 Y86.664
G1 X145.26 Y86.677
G1 X145.545 Y86.719
G1 X145.827 Y86.787
G1 X146.101 Y86.883
G1 X146.367 Y87.007
G1 X146.623 Y87.158
G1 X146.866 Y87.336
G1 X147.094 Y87.542
G1 X153.458 Y93.906
G1 X153.664 Y94.134
G1 X153.842 Y94.377
G1 X153.993 Y94.633
G1 X154.117 Y94.899
G1 X154.213 Y95.173
G1 X154.281 Y95.455
G1 X154.323 Y95.74
G1 X154.336 Y96.028
G1 X154.323 Y96.315
G1 X154.281 Y96.601
G1 X154.213 Y96.882
G1 X154.117 Y97.157
G1 X153.993 Y97.423
G1 X153.842 Y97.678
G1 X153.664 Y97.921
G1 X153.458 Y98.149
G1 X43.149 Y208.458
G1 X42.921 Y208.664
G1 X42.678 Y208.842
G1 X42.423 Y208.993
G1 X42.157 Y209.117
G1 X41.882 Y209.213
G1 X41.601 Y209.281
G1 X41.315 Y209.323
G1 X41.028 Y209.336
G1 X40.74 Y209.323
G1 X40.455 Y209.281
G1 X40.174 Y209.213
G1 X39.899 Y209.117
G1 X39.633 Y208.993
G1 X39.377 Y208.842
G1 X39.134 Y208.664
G1 X38.906 Y208.458
G1 X32.542 Y202.094
G1 X32.336 Y201.866
G1 X32.158 Y201.623
G1 X32.007 Y201.367
G1 X31.883 Y201.101
G1 X31.787 Y200.826
G1 X31.719 Y200.545
G1 X31.677 Y200.26
G1 X31.664 Y199.972
G1 X31.677 Y199.685
G1 X31.719 Y199.399
G1 X31.787 Y199.118
G1 X31.883 Y198.843
G1 X32.007 Y198.577
G1 X32.158 Y198.322
G1 X32.336 Y198.079
G1 X32.542 Y197.851
G1 X33.249 Y197.144
G1 X36.785 Y200.679
G1 X38.199 Y199.265
G1 X34.664 Y195.73
G1 X86.282 Y144.111
G1 X89.818 Y147.646
G1 X91.232 Y146.232
G1 X87.697 Y142.697
G1 X140.73 Y89.664
; Layer Cut2MM Pass 3 of 3
G1 X144.265 Y93.199
G1 X145.679 Y91.785
G1 X142.144 Y88.249
G1 X142.851 Y87.542
G1 X143.079 Y87.336
G1 X143.322 Y87.158
G1 X143.577 Y87.007
G1 X143.843 Y86.883
G1 X144.118 Y86.787
G1 X144.399 Y86.719
G1 X144.685 Y86.677
G1 X144.972 Y86.664
G1 X145.26 Y86.677
G1 X145.545 Y86.719
G1 X145.827 Y86.787
G1 X146.101 Y86.883
G1 X146.367 Y87.007
G1 X146.623 Y87.158
G1 X146.866 Y87.336
G1 X147.094 Y87.542
G1 X153.458 Y93.906
G1 X153.664 Y94.134
G1 X153.842 Y94.377
G1 X153.993 Y94.633
G1 X154.117 Y94.899
G1 X154.213 Y95.173
G1 X154.281 Y95.455
G1 X154.323 Y95.74
G1 X154.336 Y96.028
G1 X154.323 Y96.315
G1 X154.281 Y96.601
G1 X154.213 Y96.882
G1 X154.117 Y97.157
G1 X153.993 Y97.423
G1 X153.842 Y97.678
G1 X153.664 Y97.921
G1 X153.458 Y98.149
G1 X43.149 Y208.458
G1 X42.921 Y208.664
G1 X42.678 Y208.842
G1 X42.423 Y208.993
G1 X42.157 Y209.117
G1 X41.882 Y209.213
G1 X41.601 Y209.281
G1 X41.315 Y209.323
G1 X41.028 Y209.336
G1 X40.74 Y209.323
G1 X40.455 Y209.281
G1 X40.174 Y209.213
G1 X39.899 Y209.117
G1 X39.633 Y208.993
G1 X39.377 Y208.842
G1 X39.134 Y208.664
G1 X38.906 Y208.458
G1 X32.542 Y202.094
G1 X32.336 Y201.866
G1 X32.158 Y201.623
G1 X32.007 Y201.367
G1 X31.883 Y201.101
G1 X31.787 Y200.826
G1 X31.719 Y200.545
G1 X31.677 Y200.26
G1 X31.664 Y199.972
G1 X31.677 Y199.685
G1 X31.719 Y199.399
G1 X31.787 Y199.118
G1 X31.883 Y198.843
G1 X32.007 Y198.577
G1 X32.158 Y198.322
G1 X32.336 Y198.079
G1 X32.542 Y197.851
G1 X33.249 Y197.144
G1 X36.785 Y200.679
G1 X38.199 Y199.265
G1 X34.664 Y195.73
G1 X86.282 Y144.111
G1 X89.818 Y147.646
G1 X91.232 Y146.232
G1 X87.697 Y142.697
G1 X140.73 Y89.664
M05 
G0 X160.73 Y93.664 F0
; Layer Cut2MM Pass 1 of 3
M03 S1000
G1 X164.265 Y97.199 F600
G1 X165.679 Y95.785
G1 X162.144 Y92.249
G1 X162.851 Y91.542
G1 X163.079 Y91.336
G1 X163.322 Y91.158
G1 X163.577 Y91.007
G1 X163.843 Y90.883
G1 X164.118 Y90.787
G1 X164.399 Y90.719
G1 X164.685 Y90.677
G1 X164.972 Y90.664
G1 X165.26 Y90.677
G1 X165.545 Y90.719
G1 X165.827 Y90.787
G1 X166.101 Y90.883
G1 X166.367 Y91.007
G1 X166.623 Y91.158
G1 X166.866 Y91.336
G1 X167.094 Y91.542
G1 X173.458 Y97.906
G1 X173.664 Y98.134
G1 X173.842 Y98.377
G1 X173.993 Y98.633
G1 X174.117 Y98.899
G1 X174.213 Y99.173
G1 X174.281 Y99.455
G1 X174.323 Y99.74
G1 X174.336 Y100.028
G1 X174.323 Y100.315
G1 X174.281 Y100.601
G1 X174.213 Y100.882
G1 X174.117 Y101.157
G1 X173.993 Y101.423
G1 X173.842 Y101.678
G1 X173.664 Y101.921
G1 X173.458 Y102.149
G1 X63.149 Y212.458
G1 X62.921 Y212.664
G1 X62.678 Y212.842
G1 X62.423 Y212.993
G1 X62.157 Y213.117
G1 X61.882 Y213.213
G1 X61.601 Y213.281
G1 X61.315 Y213.323
G1 X61.028 Y213.336
G1 X60.74 Y213.323
G1 X60.455 Y213.281
G1 X60.174 Y213.213
G1 X59.899 Y213.117
G1 X59.633 Y212.993
G1 X59.377 Y212.842
G1 X59.134 Y212.664
G1 X58.906 Y212.458
G1 X52.542 Y206.094
G1 X52.336 Y205.866
G1 X52.158 Y205.623
G1 X52.007 Y205.367
G1 X51.883 Y205.101
G1 X51.787 Y204.826
G1 X51.719 Y204.545
G1 X51.677 Y204.26
G1 X51.664 Y203.972
G1 X51.677 Y203.685
G1 X51.719 Y203.399
G1 X51.787 Y203.118
G1 X51.883 Y202.843
G1 X52.007 Y202.577
G1 X52.158 Y202.322
G1 X52.336 Y202.079
G1 X52.542 Y201.851
G1 X53.249 Y201.144
G1 X56.785 Y204.679
G1 X58.199 Y203.265
G1 X54.664 Y199.73
G1 X106.282 Y148.111
G1 X109.818 Y151.646
G1 X111.232 Y150.232
G1 X107.697 Y146.697
G1 X160.73 Y93.664
; Layer Cut2MM Pass 2 of 3
G1 X164.265 Y97.199
G1 X165.679 Y95.785
G1 X162.144 Y92.249
G1 X162.851 Y91.542
G1 X163.079 Y91.336
G1 X163.322 Y91.158
G1 X163.577 Y91.007
G1 X163.843 Y90.883
G1 X164.118 Y90.787
G1 X164.399 Y90.719
G1 X164.685 Y90.677
G1 X164.972 Y90.664
G1 X165.26 Y90.677
G1 X165.545 Y90.719
G1 X165.827 Y90.787
G1 X166.101 Y90.883
G1 X166.367 Y91.007
G1 X166.623 Y91.158
G1 X166.866 Y91.336
G1 X167.094 Y91.542
G1 X173.458 Y97.906
G1 X173.664 Y98.134
G1 X173.842 Y98.377
G1 X173.993 Y98.633
G1 X174.117 Y98.899
G1 X174.213 Y99.173
G1 X174.281 Y99.455
G1 X174.323 Y99.74
G1 X174.336 Y100.028
G1 X174.323 Y100.315
G1 X174.281 Y100.601
G1 X174.213 Y100.882
G1 X174.117 Y101.157
G1 X173.993 Y101.423
G1 X173.842 Y101.678
G1 X173.664 Y101.921
G1 X173.458 Y102.149
G1 X63.149 Y212.458
G1 X62.921 Y212.664
G1 X62.678 Y212.842
G1 X62.423 Y212.993
G1 X62.157 Y213.117
G1 X61.882 Y213.213
G1 X61.601 Y213.281
G1 X61.315 Y213.323
G1 X61.028 Y213.336
G1 X60.74 Y213.323
G1 X60.455 Y213.281
G1 X60.174 Y213.213
G1 X59.899 Y213.117
G1 X59.633 Y212.993
G1 X59.377 Y212.842
G1 X59.134 Y212.664
G1 X58.906 Y212.458
G1 X52.542 Y206.094
G1 X52.336 Y205.866
G1 X52.158 Y205.623
G1 X52.007 Y205.367
G1 X51.883 Y205.101
G1 X51.787 Y204.826
G1 X51.719 Y204.545
G1 X51.677 Y204.26
G1 X51.664 Y203.972
G1 X51.677 Y203.685
G1 X51.719 Y203.399
G1 X51.787 Y203.118
G1 X51.883 Y202.843
G1 X52.007 Y202.577
G1 X52.158 Y202.322
G1 X52.336 Y202.079
G1 X52.542 Y201.851
G1 X53.249 Y201.144
G1 X56.785 Y204.679
G1 X58.199 Y203.265
G1 X54.664 Y199.73
G1 X106.282 Y148.111
G1 X109.818 Y151.646
G1 X111.232 Y150.232
G1 X107.697 Y146.697
G1 X160.73 Y93.664
; Layer Cut2MM Pass 3 of 3
G1 X164.265 Y97.199
G1 X165.679 Y95.785
G1 X162.144 Y92.249
G1 X162.851 Y91.542
G1 X163.079 Y91.336
G1 X163.322 Y91.158
G1 X163.577 Y91.007
G1 X163.843 Y90.883
G1 X164.118 Y90.787
G1 X164.399 Y90.719
G1 X164.685 Y90.677
G1 X164.972 Y90.664
G1 X165.26 Y90.677
G1 X165.545 Y90.719
G1 X165.827 Y90.787
G1 X166.101 Y90.883
G1 X166.367 Y91.007
G1 X166.623 Y91.158
G1 X166.866 Y91.336
G1 X167.094 Y91.542
G1 X173.458 Y97.906
G1 X173.664 Y98.134
G1 X173.842 Y98.377
G1 X173.993 Y98.633
G1 X174.117 Y98.899
G1 X174.213 Y99.173
G1 X174.281 Y99.455
G1 X174.323 Y99.74
G1 X174.336 Y100.028
G1 X174.323 Y100.315
G1 X174.281 Y100.601
G1 X174.213 Y100.882
G1 X174.117 Y101.157
G1 X173.993 Y101.423
G1 X173.842 Y101.678
G1 X173.664 Y101.921
G1 X173.458 Y102.149
G1 X63.149 Y212.458
G1 X62.921 Y212.664
G1 X62.678 Y212.842
G1 X62.423 Y212.993
G1 X62.157 Y213.117
G1 X61.882 Y213.213
G1 X61.601 Y213.281
G1 X61.315 Y213.323
G1 X61.028 Y213.336
G1 X60.74 Y213.323
G1 X60.455 Y213.281
G1 X60.174 Y213.213
G1 X59.899 Y213.117
G1 X59.633 Y212.993
G1 X59.377 Y212.842
G1 X59.134 Y212.664
G1 X58.906 Y212.458
G1 X52.542 Y206.094
G1 X52.336 Y205.866
G1 X52.158 Y205.623
G1 X52.007 Y205.367
G1 X51.883 Y205.101
G1 X51.787 Y204.826
G1 X51.719 Y204.545
G1 X51.677 Y204.26
G1 X51.664 Y203.972
G1 X51.677 Y203.685
G1 X51.719 Y203.399
G1 X51.787 Y203.118
G1 X51.883 Y202.843
G1 X52.007 Y202.577
G1 X52.158 Y202.322
G1 X52.336 Y202.079
G1 X52.542 Y201.851
G1 X53.249 Y201.144
G1 X56.785 Y204.679
G1 X58.199 Y203.265
G1 X54.664 Y199.73
G1 X106.282 Y148.111
G1 X109.818 Y151.646
G1 X111.232 Y150.232
G1 X107.697 Y146.697
G1 X160.73 Y93.664
M05 
G0 X193.5 Y94 F0
; Layer Cut2MM Pass 1 of 3
M03 S1000
G1 X198.5 F600
G1  Y92
G1 X193.5
G1  Y17
G1 X198.5
G1  Y15
G1 X193.5
G1  Y14
G1 X193.516 Y13.693
G1 X193.561 Y13.395
G1 X193.635 Y13.108
G1 X193.736 Y12.832
G1 X193.862 Y12.57
G1 X194.012 Y12.323
G1 X194.185 Y12.092
G1 X194.379 Y11.879
G1 X194.592 Y11.685
G1 X194.823 Y11.512
G1 X195.07 Y11.362
G1 X195.332 Y11.236
G1 X195.608 Y11.135
G1 X195.895 Y11.061
G1 X196.193 Y11.015
G1 X196.5 Y11
G1 X205.5
G1 X205.807 Y11.015
G1 X206.105 Y11.061
G1 X206.392 Y11.135
G1 X206.668 Y11.236
G1 X206.93 Y11.362
G1 X207.177 Y11.512
G1 X207.408 Y11.685
G1 X207.621 Y11.879
G1 X207.815 Y12.092
G1 X207.988 Y12.323
G1 X208.138 Y12.57
G1 X208.264 Y12.832
G1 X208.365 Y13.108
G1 X208.439 Y13.395
G1 X208.484 Y13.693
G1 X208.5 Y14
G1  Y170
G1 X208.485 Y170.307
G1 X208.439 Y170.605
G1 X208.365 Y170.892
G1 X208.264 Y171.168
G1 X208.138 Y171.43
G1 X207.988 Y171.677
G1 X207.815 Y171.908
G1 X207.621 Y172.121
G1 X207.408 Y172.315
G1 X207.177 Y172.488
G1 X206.93 Y172.638
G1 X206.668 Y172.764
G1 X206.392 Y172.865
G1 X206.105 Y172.939
G1 X205.807 Y172.984
G1 X205.5 Y173
G1 X196.5
G1 X196.193 Y172.984
G1 X195.895 Y172.939
G1 X195.608 Y172.865
G1 X195.332 Y172.764
G1 X195.07 Y172.638
G1 X194.823 Y172.488
G1 X194.592 Y172.315
G1 X194.379 Y172.121
G1 X194.185 Y171.908
G1 X194.012 Y171.677
G1 X193.862 Y171.43
G1 X193.736 Y171.168
G1 X193.635 Y170.892
G1 X193.561 Y170.605
G1 X193.516 Y170.307
G1 X193.5 Y170
G1  Y169
G1 X198.5
G1  Y167
G1 X193.5
G1  Y94
; Layer Cut2MM Pass 2 of 3
G1 X198.5
G1  Y92
G1 X193.5
G1  Y17
G1 X198.5
G1  Y15
G1 X193.5
G1  Y14
G1 X193.516 Y13.693
G1 X193.561 Y13.395
G1 X193.635 Y13.108
G1 X193.736 Y12.832
G1 X193.862 Y12.57
G1 X194.012 Y12.323
G1 X194.185 Y12.092
G1 X194.379 Y11.879
G1 X194.592 Y11.685
G1 X194.823 Y11.512
G1 X195.07 Y11.362
G1 X195.332 Y11.236
G1 X195.608 Y11.135
G1 X195.895 Y11.061
G1 X196.193 Y11.015
G1 X196.5 Y11
G1 X205.5
G1 X205.807 Y11.015
G1 X206.105 Y11.061
G1 X206.392 Y11.135
G1 X206.668 Y11.236
G1 X206.93 Y11.362
G1 X207.177 Y11.512
G1 X207.408 Y11.685
G1 X207.621 Y11.879
G1 X207.815 Y12.092
G1 X207.988 Y12.323
G1 X208.138 Y12.57
G1 X208.264 Y12.832
G1 X208.365 Y13.108
G1 X208.439 Y13.395
G1 X208.484 Y13.693
G1 X208.5 Y14
G1  Y170
G1 X208.485 Y170.307
G1 X208.439 Y170.605
G1 X208.365 Y170.892
G1 X208.264 Y171.168
G1 X208.138 Y171.43
G1 X207.988 Y171.677
G1 X207.815 Y171.908
G1 X207.621 Y172.121
G1 X207.408 Y172.315
G1 X207.177 Y172.488
G1 X206.93 Y172.638
G1 X206.668 Y172.764
G1 X206.392 Y172.865
G1 X206.105 Y172.939
G1 X205.807 Y172.984
G1 X205.5 Y173
G1 X196.5
G1 X196.193 Y172.984
G1 X195.895 Y172.939
G1 X195.608 Y172.865
G1 X195.332 Y172.764
G1 X195.07 Y172.638
G1 X194.823 Y172.488
G1 X194.592 Y172.315
G1 X194.379 Y172.121
G1 X194.185 Y171.908
G1 X194.012 Y171.677
G1 X193.862 Y171.43
G1 X193.736 Y171.168
G1 X193.635 Y170.892
G1 X193.561 Y170.605
G1 X193.516 Y170.307
G1 X193.5 Y170
G1  Y169
G1 X198.5
G1  Y167
G1 X193.5
G1  Y94
; Layer Cut2MM Pass 3 of 3
G1 X198.5
G1  Y92
G1 X193.5
G1  Y17
G1 X198.5
G1  Y15
G1 X193.5
G1  Y14
G1 X193.516 Y13.693
G1 X193.561 Y13.395
G1 X193.635 Y13.108
G1 X193.736 Y12.832
G1 X193.862 Y12.57
G1 X194.012 Y12.323
G1 X194.185 Y12.092
G1 X194.379 Y11.879
G1 X194.592 Y11.685
G1 X194.823 Y11.512
G1 X195.07 Y11.362
G1 X195.332 Y11.236
G1 X195.608 Y11.135
G1 X195.895 Y11.061
G1 X196.193 Y11.015
G1 X196.5 Y11
G1 X205.5
G1 X205.807 Y11.015
G1 X206.105 Y11.061
G1 X206.392 Y11.135
G1 X206.668 Y11.236
G1 X206.93 Y11.362
G1 X207.177 Y11.512
G1 X207.408 Y11.685
G1 X207.621 Y11.879
G1 X207.815 Y12.092
G1 X207.988 Y12.323
G1 X208.138 Y12.57
G1 X208.264 Y12.832
G1 X208.365 Y13.108
G1 X208.439 Y13.395
G1 X208.484 Y13.693
G1 X208.5 Y14
G1  Y170
G1 X208.485 Y170.307
G1 X208.439 Y170.605
G1 X208.365 Y170.892
G1 X208.264 Y171.168
G1 X208.138 Y171.43
G1 X207.988 Y171.677
G1 X207.815 Y171.908
G1 X207.621 Y172.121
G1 X207.408 Y172.315
G1 X207.177 Y172.488
G1 X206.93 Y172.638
G1 X206.668 Y172.764
G1 X206.392 Y172.865
G1 X206.105 Y172.939
G1 X205.807 Y172.984
G1 X205.5 Y173
G1 X196.5
G1 X196.193 Y172.984
G1 X195.895 Y172.939
G1 X195.608 Y172.865
G1 X195.332 Y172.764
G1 X195.07 Y172.638
G1 X194.823 Y172.488
G1 X194.592 Y172.315
G1 X194.379 Y172.121
G1 X194.185 Y171.908
G1 X194.012 Y171.677
G1 X193.862 Y171.43
G1 X193.736 Y171.168
G1 X193.635 Y170.892
G1 X193.561 Y170.605
G1 X193.516 Y170.307
G1 X193.5 Y170
G1  Y169
G1 X198.5
G1  Y167
G1 X193.5
G1  Y94
M05 
G0 X182.5 Y63 F0
; Layer Cut2MM Pass 1 of 3
M03 S1000
G1  Y61 F600
G1 X177.5
G1  Y60
G1 X177.516 Y59.693
G1 X177.561 Y59.395
G1 X177.635 Y59.108
G1 X177.736 Y58.832
G1 X177.862 Y58.57
G1 X178.012 Y58.323
G1 X178.185 Y58.092
G1 X178.379 Y57.879
G1 X178.592 Y57.685
G1 X178.823 Y57.512
G1 X179.07 Y57.362
G1 X179.332 Y57.236
G1 X179.608 Y57.135
G1 X179.895 Y57.061
G1 X180.193 Y57.015
G1 X180.5 Y57
G1 X189.5
G1 X189.807 Y57.015
G1 X190.105 Y57.061
G1 X190.392 Y57.135
G1 X190.668 Y57.236
G1 X190.93 Y57.362
G1 X191.177 Y57.512
G1 X191.408 Y57.685
G1 X191.621 Y57.879
G1 X191.815 Y58.092
G1 X191.988 Y58.323
G1 X192.138 Y58.57
G1 X192.264 Y58.832
G1 X192.365 Y59.108
G1 X192.439 Y59.395
G1 X192.484 Y59.693
G1 X192.5 Y60
G1  Y216
G1 X192.484 Y216.307
G1 X192.439 Y216.605
G1 X192.365 Y216.892
G1 X192.264 Y217.168
G1 X192.138 Y217.43
G1 X191.988 Y217.677
G1 X191.815 Y217.908
G1 X191.621 Y218.121
G1 X191.408 Y218.315
G1 X191.177 Y218.488
G1 X190.93 Y218.638
G1 X190.668 Y218.764
G1 X190.392 Y218.865
G1 X190.105 Y218.939
G1 X189.807 Y218.984
G1 X189.5 Y219
G1 X180.5
G1 X180.193 Y218.984
G1 X179.895 Y218.939
G1 X179.608 Y218.865
G1 X179.332 Y218.764
G1 X179.07 Y218.638
G1 X178.823 Y218.488
G1 X178.592 Y218.315
G1 X178.379 Y218.121
G1 X178.185 Y217.908
G1 X178.012 Y217.677
G1 X177.862 Y217.43
G1 X177.736 Y217.168
G1 X177.635 Y216.892
G1 X177.561 Y216.605
G1 X177.516 Y216.307
G1 X177.5 Y216
G1  Y215
G1 X182.5
G1  Y213
G1 X177.5
G1  Y140
G1 X182.5
G1  Y138
G1 X177.5
G1  Y63
G1 X182.5
; Layer Cut2MM Pass 2 of 3
G1  Y61
G1 X177.5
G1  Y60
G1 X177.516 Y59.693
G1 X177.561 Y59.395
G1 X177.635 Y59.108
G1 X177.736 Y58.832
G1 X177.862 Y58.57
G1 X178.012 Y58.323
G1 X178.185 Y58.092
G1 X178.379 Y57.879
G1 X178.592 Y57.685
G1 X178.823 Y57.512
G1 X179.07 Y57.362
G1 X179.332 Y57.236
G1 X179.608 Y57.135
G1 X179.895 Y57.061
G1 X180.193 Y57.015
G1 X180.5 Y57
G1 X189.5
G1 X189.807 Y57.015
G1 X190.105 Y57.061
G1 X190.392 Y57.135
G1 X190.668 Y57.236
G1 X190.93 Y57.362
G1 X191.177 Y57.512
G1 X191.408 Y57.685
G1 X191.621 Y57.879
G1 X191.815 Y58.092
G1 X191.988 Y58.323
G1 X192.138 Y58.57
G1 X192.264 Y58.832
G1 X192.365 Y59.108
G1 X192.439 Y59.395
G1 X192.484 Y59.693
G1 X192.5 Y60
G1  Y216
G1 X192.484 Y216.307
G1 X192.439 Y216.605
G1 X192.365 Y216.892
G1 X192.264 Y217.168
G1 X192.138 Y217.43
G1 X191.988 Y217.677
G1 X191.815 Y217.908
G1 X191.621 Y218.121
G1 X191.408 Y218.315
G1 X191.177 Y218.488
G1 X190.93 Y218.638
G1 X190.668 Y218.764
G1 X190.392 Y218.865
G1 X190.105 Y218.939
G1 X189.807 Y218.984
G1 X189.5 Y219
G1 X180.5
G1 X180.193 Y218.984
G1 X179.895 Y218.939
G1 X179.608 Y218.865
G1 X179.332 Y218.764
G1 X179.07 Y218.638
G1 X178.823 Y218.488
G1 X178.592 Y218.315
G1 X178.379 Y218.121
G1 X178.185 Y217.908
G1 X178.012 Y217.677
G1 X177.862 Y217.43
G1 X177.736 Y217.168
G1 X177.635 Y216.892
G1 X177.561 Y216.605
G1 X177.516 Y216.307
G1 X177.5 Y216
G1  Y215
G1 X182.5
G1  Y213
G1 X177.5
G1  Y140
G1 X182.5
G1  Y138
G1 X177.5
G1  Y63
G1 X182.5
; Layer Cut2MM Pass 3 of 3
G1  Y61
G1 X177.5
G1  Y60
G1 X177.516 Y59.693
G1 X177.561 Y59.395
G1 X177.635 Y59.108
G1 X177.736 Y58.832
G1 X177.862 Y58.57
G1 X178.012 Y58.323
G1 X178.185 Y58.092
G1 X178.379 Y57.879
G1 X178.592 Y57.685
G1 X178.823 Y57.512
G1 X179.07 Y57.362
G1 X179.332 Y57.236
G1 X179.608 Y57.135
G1 X179.895 Y57.061
G1 X180.193 Y57.015
G1 X180.5 Y57
G1 X189.5
G1 X189.807 Y57.015
G1 X190.105 Y57.061
G1 X190.392 Y57.135
G1 X190.668 Y57.236
G1 X190.93 Y57.362
G1 X191.177 Y57.512
G1 X191.408 Y57.685
G1 X191.621 Y57.879
G1 X191.815 Y58.092
G1 X191.988 Y58.323
G1 X192.138 Y58.57
G1 X192.264 Y58.832
G1 X192.365 Y59.108
G1 X192.439 Y59.395
G1 X192.484 Y59.693
G1 X192.5 Y60
G1  Y216
G1 X192.484 Y216.307
G1 X192.439 Y216.605
G1 X192.365 Y216.892
G1 X192.264 Y217.168
G1 X192.138 Y217.43
G1 X191.988 Y217.677
G1 X191.815 Y217.908
G1 X191.621 Y218.121
G1 X191.408 Y218.315
G1 X191.177 Y218.488
G1 X190.93 Y218.638
G1 X190.668 Y218.764
G1 X190.392 Y218.865
G1 X190.105 Y218.939
G1 X189.807 Y218.984
G1 X189.5 Y219
G1 X180.5
G1 X180.193 Y218.984
G1 X179.895 Y218.939
G1 X179.608 Y218.865
G1 X179.332 Y218.764
G1 X179.07 Y218.638
G1 X178.823 Y218.488
G1 X178.592 Y218.315
G1 X178.379 Y218.121
G1 X178.185 Y217.908
G1 X178.012 Y217.677
G1 X177.862 Y217.43
G1 X177.736 Y217.168
G1 X177.635 Y216.892
G1 X177.561 Y216.605
G1 X177.516 Y216.307
G1 X177.5 Y216
G1  Y215
G1 X182.5
G1  Y213
G1 X177.5
G1  Y140
G1 X182.5
G1  Y138
G1 X177.5
G1  Y63
G1 X182.5
; Image @ 100 mm/sec, 12.5% power
M8
M05 
G0 X26.388 Y27.299 F0
; Layer C00
G91
G1 X2.5 F6000
M03 S125
G1 X2.8
M05 
G1 X2.5
G1 X1Y0.1
G1 X-2.5
M03 S125
G1 X-0.6
M05 
G1 X-0.1
M03 S125
G1 X-1.3
M05 
G1 X-0.1
M03 S125
G1 X-0.5
M05 
G1 X-0.1
M03 S125
G1 X-0.5
M05 
G1 X-0.1
M03 S125
G1 X-0.1
M05 
G1 X-0.1
M03 S125
G1 X-0.2
M05 
G1 X-0.1
M03 S125
G1 X-0.1
M05 
G1 X-0.1
M03 S125
G1 X-0.7
M05 
G1 X-2.5
G1 X-0.8Y0.1
G1 X2.5
M03 S125
G1 X0.7
M05 
G1 X0.1
M03 S125
G1 X1
M05 
G1 X0.1
M03 S125
G1 X0.4
M05 
G1 X0.1
M03 S125
G1 X0.1
M05 
G1 X0.1
M03 S125
G1 X0.4
M05 
G1 X0.1
M03 S125
G1 X0.2
M05 
G1 X0.1
M03 S125
G1 X0.2
M05 
G1 X0.1
M03 S125
G1 X0.2
M05 
G1 X0.1
M03 S125
G1 X0.2
M05 
G1 X0.1
M03 S125
G1 X0.1
M05 
G1 X0.1
M03 S125
G1 X0.2
M05 
G1 X0.1
M03 S125
G1 X0.3
M05 
G1 X0.1
M03 S125
G1 X0.2
M05 
G1 X0.1
M03 S125
G1 X0.7
M05 
G1 X2.5
G1 X0.5Y0.1
G1 X-2.5
M03 S125
G1 X-1
M05 
G1 X-0.1
M03 S125
G1 X-0.3
M05 
G1 X-0.1
M03 S125
G1 X-0.6
M05 
G1 X-0.1
M03 S125
G1 X-0.3
M05 
G1 X-0.1
M03 S125
G1 X-0.3
M05 
G1 X-0.1
M03 S125
G1 X-0.4
M05 
G1 X-0.1
M03 S125
G1 X-0.2
M05 
G1 X-0.1
M03 S125
G1 X-0.2
M05 
G1 X-0.1
M03 S125
G1 X-0.4
M05 
G1 X-0.1
M03 S125
G1 X-0.4
M05 
G1 X-0.1
M03 S125
G1 X-0.2
M05 
G1 X-0.1
M03 S125
G1 X-0.1
M05 
G1 X-0.1
M03 S125
G1 X-0.1
M05 
G1 X-0.1
M03 S125
G1 X-0.2
M05 
G1 X-0.1
M03 S125
G1 X-0.2
M05 
G1 X-0.1
M03 S125
G1 X-0.9
M05 
G1 X-2.5
G1 X-0.5Y0.1
G1 X2.5
M03 S125
G1 X0.6
M05 
G1 X0.1
M03 S125
G1 X0.2
M05 
G1 X0.1
M03 S125
G1 X0.1
M05 
G1 X0.1
M03 S125
G1 X0.3
M05 
G1 X0.1
M03 S125
G1 X0.7
M05 
G1 X3.7
M03 S125
G1 X0.6
M05 
G1 X0.1
M03 S125
G1 X0.2
M05 
G1 X0.1
M03 S125
G1 X0.1
M05 
G1 X0.1
M03 S125
G1 X0.1
M05 
G1 X0.1
M03 S125
G1 X0.1
M05 
G1 X0.1
M03 S125
G1 X0.2
M05 
G1 X0.1
M03 S125
G1 X0.6
M05 
G1 X2.5
G1 X0.3Y0.1
G1 X-2.5
M03 S125
G1 X-0.5
M05 
G1 X-0.1
M03 S125
G1 X-0.2
M05 
G1 X-0.1
M03 S125
G1 X-0.2
M05 
G1 X-0.1
M03 S125
G1 X-0.3
M05 
G1 X-0.1
M03 S125
G1 X-0.3
M05 
G1 X-5.5
M03 S125
G1 X-0.1
M05 
G1 X-0.1
M03 S125
G1 X-0.3
M05 
G1 X-0.1
M03 S125
G1 X-0.3
M05 
G1 X-0.1
M03 S125
G1 X-0.2
M05 
G1 X-0.1
M03 S125
G1 X-0.6
M05 
G1 X-2.5
G1 X-0.4Y0.1
G1 X2.5
M03 S125
G1 X0.6
M05 
G1 X0.1
M03 S125
G1 X0.2
M05 
G1 X0.1
M03 S125
G1 X0.4
M05 
G1 X0.1
M03 S125
G1 X0.2
M05 
G1 X6.8
M03 S125
G1 X0.5
M05 
G1 X0.1
M03 S125
G1 X0.2
M05 
G1 X0.1
M03 S125
G1 X0.2
M05 
G1 X0.1
M03 S125
G1 X0.5
M05 
G1 X2.5
G1 X0.4Y0.1
G1 X-2.5
M03 S125
G1 X-0.4
M05 
G1 X-0.1
M03 S125
G1 X-0.2
M05 
G1 X-0.1
M03 S125
G1 X-0.3
M05 
G1 X-0.1
M03 S125
G1 X-0.3
M05 
G1 X-3.8
M03 S125
G1 X-0.1
M05 
G1 X-0.2
M03 S125
G1 X-0.1
M05 
G1 X-3.8
M03 S125
G1 X-0.6
M05 
G1 X-0.1
M03 S125
G1 X-0.2
M05 
G1 X-0.1
M03 S125
G1 X-0.5
M05 
G1 X-2.5
G1 X-0.3Y0.1
G1 X2.5
M03 S125
G1 X0.4
M05 
G1 X0.1
M03 S125
G1 X0.2
M05 
G1 X0.1
M03 S125
G1 X0.4
M05 
G1 X2.6
M03 S125
G1 X3.8
M05 
G1 X2.7
M03 S125
G1 X0.3
M05 
G1 X0.1
M03 S125
G1 X0.3
M05 
G1 X0.1
M03 S125
G1 X0.6
M05 
G1 X2.5
G1 X0.2Y0.1
G1 X-2.5
M03 S125
G1 X-0.2
M05 
G1 X-0.1
M03 S125
G1 X-0.2
M05 
G1 X-0.1
M03 S125
G1 X-0.1
M05 
G1 X-0.1
M03 S125
G1 X-0.4
M05 
G1 X-2.2
M03 S125
G1 X-1.1
M05 
G1 X-0.1
M03 S125
G1 X-0.1
M05 
G1 X-0.1
M03 S125
G1 X-0.1
M05 
G1 X-0.1
M03 S125
G1 X-0.9
M05 
G1 X-0.1
M03 S125
G1 X-0.2
M05 
G1 X-0.1
M03 S125
G1 X-0.6
M05 
G1 X-0.1
M03 S125
G1 X-0.2
M05 
G1 X-0.1
M03 S125
G1 X-0.1
M05 
G1 X-0.1
M03 S125
G1 X-0.2
M05 
G1 X-0.1
M03 S125
G1 X-0.2
M05 
G1 X-0.1
M03 S125
G1 X-0.8
M05 
G1 X-2.1
M03 S125
G1 X-0.3
M05 
G1 X-0.1
M03 S125
G1 X-0.3
M05 
G1 X-0.1
M03 S125
G1 X-0.5
M05 
G1 X-2.5
G1 X-0.3Y0.1
G1 X2.5
M03 S125
G1 X0.5
M05 
G1 X0.1
M03 S125
G1 X0.3
M05 
G1 X0.1
M03 S125
G1 X0.2
M05 
G1 X1.8
M03 S125
G1 X0.9
M05 
G1 X0.1
M03 S125
G1 X0.2
M05 
G1 X0.1
M03 S125
G1 X0.3
M05 
G1 X0.1
M03 S125
G1 X0.2
M05 
G1 X0.1
M03 S125
G1 X0.2
M05 
G1 X0.1
M03 S125
G1 X0.2
M05 
G1 X0.1
M03 S125
G1 X0.2
M05 
G1 X0.1
M03 S125
G1 X0.1
M05 
G1 X0.1
M03 S125
G1 X0.2
M05 
G1 X0.1
M03 S125
G1 X0.3
M05 
G1 X0.1
M03 S125
G1 X0.1
M05 
G1 X0.1
M03 S125
G1 X0.1
M05 
G1 X0.1
M03 S125
G1 X0.1
M05 
G1 X0.1
M03 S125
G1 X0.1
M05 
G1 X0.1
M03 S125
G1 X0.3
M05 
G1 X0.1
M03 S125
G1 X0.2
M05 
G1 X0.1
M03 S125
G1 X0.4
M05 
G1 X0.1
M03 S125
G1 X0.1
M05 
G1 X0.1
M03 S125
G1 X0.9
M05 
G1 X1.9
M03 S125
G1 X0.3
M05 
G1 X0.1
M03 S125
G1 X0.3
M05 
G1 X0.1
M03 S125
G1 X0.4
M05 
G1 X2.5
G1 X0.3Y0.1
G1 X-2.5
M03 S125
G1 X-0.1
M05 
G1 X-0.1
M03 S125
G1 X-0.2
M05 
G1 X-0.1
M03 S125
G1 X-0.1
M05 
G1 X-0.1
M03 S125
G1 X-0.4
M05 
G1 X-1.7
M03 S125
G1 X-0.8
M05 
G1 X-0.1
M03 S125
G1 X-0.5
M05 
G1 X-0.1
M03 S125
G1 X-0.3
M05 
G1 X-0.1
M03 S125
G1 X-0.1
M05 
G1 X-0.1
M03 S125
G1 X-0.2
M05 
G1 X-0.1
M03 S125
G1 X-0.6
M05 
G1 X-0.1
M03 S125
G1 X-0.3
M05 
G1 X-0.1
M03 S125
G1 X-0.4
M05 
G1 X-0.1
M03 S125
G1 X-0.2
M05 
G1 X-0.1
M03 S125
G1 X-0.2
M05 
G1 X-0.1
M03 S125
G1 X-0.4
M05 
G1 X-0.1
M03 S125
G1 X-0.6
M05 
G1 X-0.1
M03 S125
G1 X-0.3
M05 
G1 X-0.1
M03 S125
G1 X-0.2
M05 
G1 X-0.1
M03 S125
G1 X-0.3
M05 
G1 X-0.1
M03 S125
G1 X-0.2
M05 
G1 X-0.1
M03 S125
G1 X-0.2
M05 
G1 X-0.1
M03 S125
G1 X-0.5
M05 
G1 X-1.6
M03 S125
G1 X-0.2
M05 
G1 X-0.1
M03 S125
G1 X-0.3
M05 
G1 X-0.1
M03 S125
G1 X-0.5
M05 
G1 X-2.5
G1 X-0.3Y0.1
G1 X2.5
M03 S125
G1 X0.4
M05 
G1 X0.1
M03 S125
G1 X0.2
M05 
G1 X0.1
M03 S125
G1 X0.2
M05 
G1 X1.6
M03 S125
G1 X0.6
M05 
G1 X0.1
M03 S125
G1 X0.2
M05 
G1 X0.1
M03 S125
G1 X0.2
M05 
G1 X0.1
M03 S125
G1 X0.2
M05 
G1 X0.1
M03 S125
G1 X0.2
M05 
G1 X0.1
M03 S125
G1 X0.5
M05 
G1 X0.1
M03 S125
G1 X0.3
M05 
G1 X0.1
M03 S125
G1 X0.1
M05 
G1 X0.1
M03 S125
G1 X0.1
M05 
G1 X0.1
M03 S125
G1 X0.3
M05 
G1 X0.1
M03 S125
G1 X0.4
M05 
G1 X0.1
M03 S125
G1 X0.4
M05 
G1 X0.1
M03 S125
G1 X0.5
M05 
G1 X0.1
M03 S125
G1 X0.3
M05 
G1 X0.1
M03 S125
G1 X0.1
M05 
G1 X0.1
M03 S125
G1 X0.3
M05 
G1 X0.1
M03 S125
G1 X0.2
M05 
G1 X0.1
M03 S125
G1 X0.3
M05 
G1 X0.1
M03 S125
G1 X0.2
M05 
G1 X0.2
M03 S125
G1 X0.2
M05 
G1 X0.1
M03 S125
G1 X0.2
M05 
G1 X0.1
M03 S125
G1 X0.2
M05 
G1 X0.1
M03 S125
G1 X0.7
M05 
G1 X1.5
M03 S125
G1 X0.4
M05 
G1 X0.1
M03 S125
G1 X0.6
M05 
G1 X2.5
G1 X0.3Y0.1
G1 X-2.5
M03 S125
G1 X-0.4
M05 
G1 X-0.1
M03 S125
G1 X-0.1
M05 
G1 X-0.1
M03 S125
G1 X-0.4
M05 
G1 X-1.5
M03 S125
G1 X-0.5
M05 
G1 X-0.1
M03 S125
G1 X-0.2
M05 
G1 X-0.1
M03 S125
G1 X-0.2
M05 
G1 X-0.1
M03 S125
G1 X-0.2
M05 
G1 X-0.1
M03 S125
G1 X-0.2
M05 
G1 X-0.1
M03 S125
G1 X-0.3
M05 
G1 X-0.1
M03 S125
G1 X-0.3
M05 
G1 X-0.1
M03 S125
G1 X-0.3
M05 
G1 X-0.1
M03 S125
G1 X-0.3
M05 
G1 X-0.1
M03 S125
G1 X-0.1
M05 
G1 X-0.1
M03 S125
G1 X-0.3
M05 
G1 X-0.1
M03 S125
G1 X-0.3
M05 
G1 X-0.1
M03 S125
G1 X-0.1
M05 
G1 X-0.1
M03 S125
G1 X-0.3
M05 
G1 X-0.1
M03 S125
G1 X-0.3
M05 
G1 X-0.1
M03 S125
G1 X-0.1
M05 
G1 X-0.1
M03 S125
G1 X-0.3
M05 
G1 X-0.1
M03 S125
G1 X-0.3
M05 
G1 X-0.1
M03 S125
G1 X-0.3
M05 
G1 X-0.1
M03 S125
G1 X-0.2
M05 
G1 X-0.1
M03 S125
G1 X-0.1
M05 
G1 X-0.1
M03 S125
G1 X-0.2
M05 
G1 X-0.1
M03 S125
G1 X-0.3
M05 
G1 X-0.1
M03 S125
G1 X-0.5
M05 
G1 X-0.1
M03 S125
G1 X-0.2
M05 
G1 X-0.1
M03 S125
G1 X-0.2
M05 
G1 X-0.1
M03 S125
G1 X-0.5
M05 
G1 X-1.4
M03 S125
G1 X-0.2
M05 
G1 X-0.1
M03 S125
G1 X-0.3
M05 
G1 X-0.1
M03 S125
G1 X-0.4
M05 
G1 X-2.5
G1 X-0.2Y0.1
G1 X2.5
M03 S125
G1 X0.3
M05 
G1 X0.1
M03 S125
G1 X0.3
M05 
G1 X0.1
M03 S125
G1 X0.2
M05 
G1 X1.3
M03 S125
G1 X0.4
M05 
G1 X0.1
M03 S125
G1 X0.2
M05 
G1 X0.1
M03 S125
G1 X0.2
M05 
G1 X0.1
M03 S125
G1 X0.2
M05 
G1 X0.1
M03 S125
G1 X0.2
M05 
G1 X0.1
M03 S125
G1 X0.1
M05 
G1 X0.1
M03 S125
G1 X0.3
M05 
G1 X0.1
M03 S125
G1 X0.4
M05 
G1 X0.1
M03 S125
G1 X0.3
M05 
G1 X0.1
M03 S125
G1 X0.2
M05 
G1 X0.1
M03 S125
G1 X0.4
M05 
G1 X0.1
M03 S125
G1 X0.2
M05 
G1 X0.1
M03 S125
G1 X0.3
M05 
G1 X0.1
M03 S125
G1 X0.3
M05 
G1 X0.1
M03 S125
G1 X0.2
M05 
G1 X0.1
M03 S125
G1 X0.2
M05 
G1 X0.1
M03 S125
G1 X0.1
M05 
G1 X0.1
M03 S125
G1 X0.3
M05 
G1 X0.1
M03 S125
G1 X0.5
M05 
G1 X0.1
M03 S125
G1 X0.3
M05 
G1 X0.1
M03 S125
G1 X0.3
M05 
G1 X0.1
M03 S125
G1 X0.5
M05 
G1 X0.1
M03 S125
G1 X0.8
M05 
G1 X0.1
M03 S125
G1 X0.2
M05 
G1 X0.1
M03 S125
G1 X0.1
M05 
G1 X0.1
M03 S125
G1 X0.1
M05 
G1 X0.1
M03 S125
G1 X0.6
M05 
G1 X1.5
M03 S125
G1 X0.3
M05 
G1 X0.1
M03 S125
G1 X0.2
M05 
G1 X0.1
M03 S125
G1 X0.2
M05 
G1 X2.5
G1 X0.3Y0.1
G1 X-2.5
M03 S125
G1 X-0.2
M05 
G1 X-0.1
M03 S125
G1 X-0.3
M05 
G1 X-0.1
M03 S125
G1 X-0.3
M05 
G1 X-1.3
M03 S125
G1 X-0.9
M05 
G1 X-0.1
M03 S125
G1 X-0.5
M05 
G1 X-0.1
M03 S125
G1 X-0.3
M05 
G1 X-0.1
M03 S125
G1 X-0.1
M05 
G1 X-0.1
M03 S125
G1 X-0.1
M05 
G1 X-0.1
M03 S125
G1 X-0.1
M05 
G1 X-0.1
M03 S125
G1 X-0.3
M05 
G1 X-0.1
M03 S125
G1 X-0.1
M05 
G1 X-0.1
M03 S125
G1 X-0.3
M05 
G1 X-0.1
M03 S125
G1 X-0.2
M05 
G1 X-0.1
M03 S125
G1 X-0.2
M05 
G1 X-0.1
M03 S125
G1 X-0.2
M05 
G1 X-0.1
M03 S125
G1 X-0.1
M05 
G1 X-0.1
M03 S125
G1 X-0.2
M05 
G1 X-0.1
M03 S125
G1 X-0.6
M05 
G1 X-0.1
M03 S125
G1 X-0.3
M05 
G1 X-0.1
M03 S125
G1 X-0.4
M05 
G1 X-0.1
M03 S125
G1 X-0.4
M05 
G1 X-0.1
M03 S125
G1 X-0.2
M05 
G1 X-0.1
M03 S125
G1 X-0.5
M05 
G1 X-0.1
M03 S125
G1 X-0.2
M05 
G1 X-0.1
M03 S125
G1 X-0.2
M05 
G1 X-0.1
M03 S125
G1 X-0.2
M05 
G1 X-0.1
M03 S125
G1 X-0.2
M05 
G1 X-0.1
M03 S125
G1 X-0.8
M05 
G1 X-0.1
M03 S125
G1 X-0.2
M05 
G1 X-0.1
M03 S125
G1 X-0.4
M05 
G1 X-0.1
M03 S125
G1 X-0.3
M05 
G1 X-1.3
M03 S125
G1 X-0.1
M05 
G1 X-0.1
M03 S125
G1 X-0.3
M05 
G1 X-0.1
M03 S125
G1 X-0.4
M05 
G1 X-2.5
G1 X-0.2Y0.1
G1 X2.5
M03 S125
G1 X0.3
M05 
G1 X0.1
M03 S125
G1 X0.5
M05 
G1 X1.2
M03 S125
G1 X0.6
M05 
G1 X0.1
M03 S125
G1 X0.2
M05 
G1 X0.1
M03 S125
G1 X0.3
M05 
G1 X0.1
M03 S125
G1 X0.3
M05 
G1 X0.1
M03 S125
G1 X0.1
M05 
G1 X0.1
M03 S125
G1 X0.1
M05 
G1 X0.1
M03 S125
G1 X0.4
M05 
G1 X0.1
M03 S125
G1 X0.4
M05 
G1 X0.1
M03 S125
G1 X0.5
M05 
G1 X0.1
M03 S125
G1 X0.1
M05 
G1 X0.1
M03 S125
G1 X0.2
M05 
G1 X0.1
M03 S125
G1 X0.3
M05 
G1 X0.1
M03 S125
G1 X0.2
M05 
G1 X0.1
M03 S125
G1 X0.2
M05 
G1 X0.1
M03 S125
G1 X0.1
M05 
G1 X0.1
M03 S125
G1 X0.2
M05 
G1 X0.1
M03 S125
G1 X0.2
M05 
G1 X0.1
M03 S125
G1 X0.1
M05 
G1 X0.1
M03 S125
G1 X0.2
M05 
G1 X0.1
M03 S125
G1 X0.2
M05 
G1 X0.1
M03 S125
G1 X0.3
M05 
G1 X0.1
M03 S125
G1 X0.3
M05 
G1 X0.1
M03 S125
G1 X0.4
M05 
G1 X0.1
M03 S125
G1 X0.3
M05 
G1 X0.1
M03 S125
G1 X0.1
M05 
G1 X0.1
M03 S125
G1 X0.5
M05 
G1 X0.1
M03 S125
G1 X0.3
M05 
G1 X0.1
M03 S125
G1 X0.4
M05 
G1 X0.1
M03 S125
G1 X0.2
M05 
G1 X0.1
M03 S125
G1 X0.2
M05 
G1 X0.2
M03 S125
G1 X0.1
M05 
G1 X0.1
M03 S125
G1 X0.8
M05 
G1 X1.2
M03 S125
G1 X0.3
M05 
G1 X0.1
M03 S125
G1 X0.5
M05 
G1 X2.5
G1 X0.3Y0.1
G1 X-2.5
M03 S125
G1 X-0.2
M05 
G1 X-0.1
M03 S125
G1 X-0.2
M05 
G1 X-0.1
M03 S125
G1 X-0.3
M05 
G1 X-1.2
M03 S125
G1 X-0.1
M05 
G1 X-0.1
M03 S125
G1 X-0.3
M05 
G1 X-0.1
M03 S125
G1 X-0.2
M05 
G1 X-0.1
M03 S125
G1 X-0.1
M05 
G1 X-0.1
M03 S125
G1 X-0.7
M05 
G1 X-0.1
M03 S125
G1 X-0.2
M05 
G1 X-0.1
M03 S125
G1 X-0.2
M05 
G1 X-0.1
M03 S125
G1 X-0.2
M05 
G1 X-0.1
M03 S125
G1 X-0.4
M05 
G1 X-0.1
M03 S125
G1 X-0.1
M05 
G1 X-0.1
M03 S125
G1 X-0.4
M05 
G1 X-0.1
M03 S125
G1 X-0.2
M05 
G1 X-0.1
M03 S125
G1 X-0.2
M05 
G1 X-0.1
M03 S125
G1 X-0.3
M05 
G1 X-0.1
M03 S125
G1 X-0.2
M05 
G1 X-0.1
M03 S125
G1 X-0.5
M05 
G1 X-0.1
M03 S125
G1 X-0.2
M05 
G1 X-0.1
M03 S125
G1 X-0.4
M05 
G1 X-0.1
M03 S125
G1 X-0.4
M05 
G1 X-0.1
M03 S125
G1 X-0.3
M05 
G1 X-0.1
M03 S125
G1 X-0.2
M05 
G1 X-0.1
M03 S125
G1 X-0.2
M05 
G1 X-0.1
M03 S125
G1 X-0.2
M05 
G1 X-0.1
M03 S125
G1 X-0.3
M05 
G1 X-0.1
M03 S125
G1 X-0.1
M05 
G1 X-0.1
M03 S125
G1 X-0.2
M05 
G1 X-0.1
M03 S125
G1 X-0.1
M05 
G1 X-0.1
M03 S125
G1 X-0.3
M05 
G1 X-0.1
M03 S125
G1 X-0.1
M05 
G1 X-0.1
M03 S125
G1 X-0.2
M05 
G1 X-0.1
M03 S125
G1 X-0.3
M05 
G1 X-0.1
M03 S125
G1 X-0.3
M05 
G1 X-0.1
M03 S125
G1 X-0.1
M05 
G1 X-0.1
M03 S125
G1 X-0.2
M05 
G1 X-0.1
M03 S125
G1 X-0.2
M05 
G1 X-0.1
M03 S125
G1 X-0.5
M05 
G1 X-1.1
M03 S125
G1 X-0.1
M05 
G1 X-0.1
M03 S125
G1 X-0.3
M05 
G1 X-0.1
M03 S125
G1 X-0.3
M05 
G1 X-2.5
G1 X-0.3Y0.1
G1 X2.5
M03 S125
G1 X0.3
M05 
G1 X0.1
M03 S125
G1 X0.5
M05 
G1 X1.1
M03 S125
G1 X0.4
M05 
G1 X0.1
M03 S125
G1 X0.1
M05 
G1 X0.1
M03 S125
G1 X0.2
M05 
G1 X0.1
M03 S125
G1 X0.7
M05 
G1 X0.1
M03 S125
G1 X0.3
M05 
G1 X0.1
M03 S125
G1 X0.8
M05 
G1 X0.1
M03 S125
G1 X0.3
M05 
G1 X0.1
M03 S125
G1 X0.5
M05 
G1 X0.1
M03 S125
G1 X0.2
M05 
G1 X0.1
M03 S125
G1 X0.5
M05 
G1 X0.1
M03 S125
G1 X0.4
M05 
G1 X0.1
M03 S125
G1 X0.3
M05 
G1 X0.1
M03 S125
G1 X0.2
M05 
G1 X0.1
M03 S125
G1 X0.2
M05 
G1 X0.1
M03 S125
G1 X0.4
M05 
G1 X0.1
M03 S125
G1 X0.2
M05 
G1 X0.1
M03 S125
G1 X0.2
M05 
G1 X0.1
M03 S125
G1 X0.4
M05 
G1 X0.1
M03 S125
G1 X0.3
M05 
G1 X0.1
M03 S125
G1 X0.3
M05 
G1 X0.1
M03 S125
G1 X0.2
M05 
G1 X0.1
M03 S125
G1 X0.3
M05 
G1 X0.1
M03 S125
G1 X0.2
M05 
G1 X0.1
M03 S125
G1 X0.3
M05 
G1 X0.1
M03 S125
G1 X0.2
M05 
G1 X0.1
M03 S125
G1 X0.3
M05 
G1 X0.1
M03 S125
G1 X0.2
M05 
G1 X0.1
M03 S125
G1 X0.1
M05 
G1 X0.1
M03 S125
G1 X0.2
M05 
G1 X0.1
M03 S125
G1 X0.3
M05 
G1 X0.1
M03 S125
G1 X0.2
M05 
G1 X0.1
M03 S125
G1 X0.7
M05 
G1 X1.1
M03 S125
G1 X0.2
M05 
G1 X0.1
M03 S125
G1 X0.6
M05 
G1 X2.5
G1 X0.2Y0.1
G1 X-2.5
M03 S125
G1 X-0.3
M05 
G1 X-0.1
M03 S125
G1 X-0.1
M05 
G1 X-0.1
M03 S125
G1 X-0.2
M05 
G1 X-1.1
M03 S125
G1 X-0.4
M05 
G1 X-0.1
M03 S125
G1 X-0.2
M05 
G1 X-0.1
M03 S125
G1 X-0.1
M05 
G1 X-0.1
M03 S125
G1 X-0.2
M05 
G1 X-0.1
M03 S125
G1 X-0.2
M05 
G1 X-0.1
M03 S125
G1 X-0.3
M05 
G1 X-0.1
M03 S125
G1 X-0.3
M05 
G1 X-0.1
M03 S125
G1 X-0.4
M05 
G1 X-0.1
M03 S125
G1 X-0.6
M05 
G1 X-0.1
M03 S125
G1 X-0.1
M05 
G1 X-0.1
M03 S125
G1 X-0.3
M05 
G1 X-0.1
M03 S125
G1 X-0.2
M05 
G1 X-0.1
M03 S125
G1 X-0.4
M05 
G1 X-0.1
M03 S125
G1 X-0.3
M05 
G1 X-0.1
M03 S125
G1 X-0.3
M05 
G1 X-0.1
M03 S125
G1 X-0.2
M05 
G1 X-0.1
M03 S125
G1 X-0.2
M05 
G1 X-0.1
M03 S125
G1 X-0.4
M05 
G1 X-0.1
M03 S125
G1 X-0.2
M05 
G1 X-0.1
M03 S125
G1 X-0.3
M05 
G1 X-0.1
M03 S125
G1 X-0.3
M05 
G1 X-0.1
M03 S125
G1 X-0.3
M05 
G1 X-0.1
M03 S125
G1 X-0.2
M05 
G1 X-0.1
M03 S125
G1 X-0.2
M05 
G1 X-0.1
M03 S125
G1 X-0.2
M05 
G1 X-0.1
M03 S125
G1 X-0.2
M05 
G1 X-0.1
M03 S125
G1 X-0.2
M05 
G1 X-0.1
M03 S125
G1 X-0.4
M05 
G1 X-0.1
M03 S125
G1 X-0.2
M05 
G1 X-0.1
M03 S125
G1 X-0.1
M05 
G1 X-0.1
M03 S125
G1 X-0.1
M05 
G1 X-0.1
M03 S125
G1 X-0.1
M05 
G1 X-0.1
M03 S125
G1 X-0.3
M05 
G1 X-0.1
M03 S125
G1 X-0.2
M05 
G1 X-0.1
M03 S125
G1 X-0.2
M05 
G1 X-0.1
M03 S125
G1 X-0.1
M05 
G1 X-0.1
M03 S125
G1 X-0.4
M05 
G1 X-0.1
M03 S125
G1 X-0.3
M05 
G1 X-0.1
M03 S125
G1 X-0.4
M05 
G1 X-1
M03 S125
G1 X-0.1
M05 
G1 X-0.1
M03 S125
G1 X-0.3
M05 
G1 X-0.1
M03 S125
G1 X-0.3
M05 
G1 X-2.5
G1 X-0.2Y0.1
G1 X2.5
M03 S125
G1 X0.3
M05 
G1 X0.1
M03 S125
G1 X0.4
M05 
G1 X1.1
M03 S125
G1 X0.3
M05 
G1 X0.1
M03 S125
G1 X0.2
M05 
G1 X0.1
M03 S125
G1 X0.1
M05 
G1 X0.1
M03 S125
G1 X0.3
M05 
G1 X0.1
M03 S125
G1 X0.5
M05 
G1 X0.1
M03 S125
G1 X0.2
M05 
G1 X0.1
M03 S125
G1 X0.2
M05 
G1 X0.1
M03 S125
G1 X0.3
M05 
G1 X0.1
M03 S125
G1 X0.3
M05 
G1 X0.1
M03 S125
G1 X0.3
M05 
G1 X0.1
M03 S125
G1 X0.1
M05 
G1 X0.1
M03 S125
G1 X0.2
M05 
G1 X0.1
M03 S125
G1 X0.4
M05 
G1 X0.1
M03 S125
G1 X0.4
M05 
G1 X0.1
M03 S125
G1 X0.3
M05 
G1 X0.1
M03 S125
G1 X0.1
M05 
G1 X0.1
M03 S125
G1 X0.2
M05 
G1 X0.1
M03 S125
G1 X0.1
M05 
G1 X0.1
M03 S125
G1 X0.2
M05 
G1 X0.1
M03 S125
G1 X0.4
M05 
G1 X0.1
M03 S125
G1 X0.1
M05 
G1 X0.1
M03 S125
G1 X0.2
M05 
G1 X0.1
M03 S125
G1 X0.5
M05 
G1 X0.1
M03 S125
G1 X0.2
M05 
G1 X0.1
M03 S125
G1 X0.2
M05 
G1 X0.1
M03 S125
G1 X0.3
M05 
G1 X0.1
M03 S125
G1 X0.1
M05 
G1 X0.1
M03 S125
G1 X0.3
M05 
G1 X0.1
M03 S125
G1 X0.3
M05 
G1 X0.1
M03 S125
G1 X0.3
M05 
G1 X0.1
M03 S125
G1 X0.1
M05 
G1 X0.1
M03 S125
G1 X0.1
M05 
G1 X0.1
M03 S125
G1 X0.2
M05 
G1 X0.1
M03 S125
G1 X0.2
M05 
G1 X0.1
M03 S125
G1 X0.2
M05 
G1 X0.1
M03 S125
G1 X0.2
M05 
G1 X0.1
M03 S125
G1 X0.3
M05 
G1 X0.1
M03 S125
G1 X0.5
M05 
G1 X0.1
M03 S125
G1 X0.2
M05 
G1 X0.1
M03 S125
G1 X0.2
M05 
G1 X0.1
M03 S125
G1 X0.4
M05 
G1 X1.1
M03 S125
G1 X0.3
M05 
G1 X0.1
M03 S125
G1 X0.1
M05 
G1 X0.1
M03 S125
G1 X0.2
M05 
G1 X2.5
G1 X0.3Y0.1
G1 X-2.5
M03 S125
G1 X-0.4
M05 
G1 X-0.1
M03 S125
G1 X-0.4
M05 
G1 X-1
M03 S125
G1 X-0.4
M05 
G1 X-0.1
M03 S125
G1 X-0.1
M05 
G1 X-0.1
M03 S125
G1 X-0.1
M05 
G1 X-0.1
M03 S125
G1 X-0.2
M05 
G1 X-0.1
M03 S125
G1 X-0.4
M05 
G1 X-0.1
M03 S125
G1 X-0.1
M05 
G1 X-0.1
M03 S125
G1 X-0.3
M05 
G1 X-0.1
M03 S125
G1 X-0.2
M05 
G1 X-0.1
M03 S125
G1 X-0.5
M05 
G1 X-0.1
M03 S125
G1 X-0.2
M05 
G1 X-0.1
M03 S125
G1 X-0.3
M05 
G1 X-0.1
M03 S125
G1 X-0.6
M05 
G1 X-0.1
M03 S125
G1 X-0.2
M05 
G1 X-0.1
M03 S125
G1 X-0.3
M05 
G1 X-0.1
M03 S125
G1 X-0.2
M05 
G1 X-0.1
M03 S125
G1 X-0.1
M05 
G1 X-0.1
M03 S125
G1 X-0.3
M05 
G1 X-0.1
M03 S125
G1 X-0.3
M05 
G1 X-0.1
M03 S125
G1 X-0.1
M05 
G1 X-0.1
M03 S125
G1 X-0.3
M05 
G1 X-0.1
M03 S125
G1 X-0.5
M05 
G1 X-0.2
M03 S125
G1 X-0.2
M05 
G1 X-0.1
M03 S125
G1 X-0.4
M05 
G1 X-0.1
M03 S125
G1 X-0.5
M05 
G1 X-0.1
M03 S125
G1 X-0.3
M05 
G1 X-0.1
M03 S125
G1 X-0.3
M05 
G1 X-0.1
M03 S125
G1 X-0.1
M05 
G1 X-0.1
M03 S125
G1 X-0.2
M05 
G1 X-0.1
M03 S125
G1 X-0.4
M05 
G1 X-0.1
M03 S125
G1 X-0.3
M05 
G1 X-0.1
M03 S125
G1 X-0.3
M05 
G1 X-0.1
M03 S125
G1 X-0.1
M05 
G1 X-0.1
M03 S125
G1 X-0.4
M05 
G1 X-0.1
M03 S125
G1 X-0.3
M05 
G1 X-0.1
M03 S125
G1 X-0.1
M05 
G1 X-0.1
M03 S125
G1 X-0.3
M05 
G1 X-0.1
M03 S125
G1 X-0.4
M05 
G1 X-0.1
M03 S125
G1 X-0.2
M05 
G1 X-0.1
M03 S125
G1 X-0.4
M05 
G1 X-1
M03 S125
G1 X-0.4
M05 
G1 X-0.1
M03 S125
G1 X-0.3
M05 
G1 X-2.5
G1 X-0.2Y0.1
G1 X2.5
M03 S125
G1 X0.3
M05 
G1 X0.1
M03 S125
G1 X0.3
M05 
G1 X1.1
M03 S125
G1 X0.2
M05 
G1 X0.1
M03 S125
G1 X0.2
M05 
G1 X0.1
M03 S125
G1 X0.4
M05 
G1 X0.1
M03 S125
G1 X0.4
M05 
G1 X0.1
M03 S125
G1 X0.3
M05 
G1 X0.1
M03 S125
G1 X0.1
M05 
G1 X0.1
M03 S125
G1 X0.3
M05 
G1 X0.1
M03 S125
G1 X0.2
M05 
G1 X0.1
M03 S125
G1 X0.3
M05 
G1 X0.1
M03 S125
G1 X0.3
M05 
G1 X0.1
M03 S125
G1 X0.3
M05 
G1 X0.1
M03 S125
G1 X0.2
M05 
G1 X0.1
M03 S125
G1 X0.4
M05 
G1 X0.1
M03 S125
G1 X0.3
M05 
G1 X0.1
M03 S125
G1 X0.2
M05 
G1 X0.1
M03 S125
G1 X0.2
M05 
G1 X0.1
M03 S125
G1 X0.1
M05 
G1 X0.1
M03 S125
G1 X0.3
M05 
G1 X0.1
M03 S125
G1 X0.2
M05 
G1 X0.5
M03 S125
G1 X0.2
M05 
G1 X0.1
M03 S125
G1 X0.2
M05 
G1 X0.1
M03 S125
G1 X0.2
M05 
G1 X0.1
M03 S125
G1 X0.1
M05 
G1 X1.1
M03 S125
G1 X0.1
M05 
G1 X0.1
M03 S125
G1 X0.4
M05 
G1 X0.1
M03 S125
G1 X0.5
M05 
G1 X0.1
M03 S125
G1 X0.1
M05 
G1 X0.1
M03 S125
G1 X0.1
M05 
G1 X0.1
M03 S125
G1 X0.3
M05 
G1 X0.1
M03 S125
G1 X0.5
M05 
G1 X0.1
M03 S125
G1 X0.1
M05 
G1 X0.1
M03 S125
G1 X0.6
M05 
G1 X0.1
M03 S125
G1 X0.5
M05 
G1 X0.1
M03 S125
G1 X0.1
M05 
G1 X0.1
M03 S125
G1 X0.7
M05 
G1 X0.1
M03 S125
G1 X0.2
M05 
G1 X0.1
M03 S125
G1 X0.4
M05 
G1 X1.1
M03 S125
G1 X0.3
M05 
G1 X0.1
M03 S125
G1 X0.3
M05 
G1 X2.5
G1 X0.2Y0.1
G1 X-2.5
M03 S125
G1 X-0.3
M05 
G1 X-0.1
M03 S125
G1 X-0.3
M05 
G1 X-1
M03 S125
G1 X-0.5
M05 
G1 X-0.1
M03 S125
G1 X-0.2
M05 
G1 X-0.1
M03 S125
G1 X-0.5
M05 
G1 X-0.1
M03 S125
G1 X-0.1
M05 
G1 X-0.1
M03 S125
G1 X-0.2
M05 
G1 X-0.1
M03 S125
G1 X-0.2
M05 
G1 X-0.1
M03 S125
G1 X-0.1
M05 
G1 X-0.1
M03 S125
G1 X-0.1
M05 
G1 X-0.1
M03 S125
G1 X-0.2
M05 
G1 X-0.1
M03 S125
G1 X-0.1
M05 
G1 X-0.1
M03 S125
G1 X-0.2
M05 
G1 X-0.1
M03 S125
G1 X-0.3
M05 
G1 X-0.1
M03 S125
G1 X-0.1
M05 
G1 X-0.1
M03 S125
G1 X-0.3
M05 
G1 X-0.1
M03 S125
G1 X-0.3
M05 
G1 X-0.1
M03 S125
G1 X-0.3
M05 
G1 X-0.1
M03 S125
G1 X-0.1
M05 
G1 X-0.1
M03 S125
G1 X-0.1
M05 
G1 X-1.8
M03 S125
G1 X-0.4
M05 
G1 X-0.1
M03 S125
G1 X-0.2
M05 
G1 X-0.1
M03 S125
G1 X-0.2
M05 
G1 X-0.3
M03 S125
G1 X-0.2
M05 
G1 X-0.1
M03 S125
G1 X-0.3
M05 
G1 X-0.1
M03 S125
G1 X-0.4
M05 
G1 X-0.1
M03 S125
G1 X-0.2
M05 
G1 X-0.5
M03 S125
G1 X-0.3
M05 
G1 X-0.1
M03 S125
G1 X-0.3
M05 
G1 X-0.1
M03 S125
G1 X-0.3
M05 
G1 X-0.1
M03 S125
G1 X-0.3
M05 
G1 X-0.1
M03 S125
G1 X-0.6
M05 
G1 X-0.1
M03 S125
G1 X-0.3
M05 
G1 X-0.1
M03 S125
G1 X-0.5
M05 
G1 X-0.1
M03 S125
G1 X-0.2
M05 
G1 X-0.1
M03 S125
G1 X-0.1
M05 
G1 X-0.1
M03 S125
G1 X-0.3
M05 
G1 X-0.1
M03 S125
G1 X-0.2
M05 
G1 X-0.1
M03 S125
G1 X-0.2
M05 
G1 X-0.1
M03 S125
G1 X-0.4
M05 
G1 X-1
M03 S125
G1 X-0.3
M05 
G1 X-0.1
M03 S125
G1 X-0.3
M05 
G1 X-2.5
G1 X-0.2Y0.1
G1 X2.5
M03 S125
G1 X0.3
M05 
G1 X0.1
M03 S125
G1 X0.3
M05 
G1 X1
M03 S125
G1 X0.2
M05 
G1 X0.1
M03 S125
G1 X0.2
M05 
G1 X0.1
M03 S125
G1 X0.5
M05 
G1 X0.1
M03 S125
G1 X0.1
M05 
G1 X0.1
M03 S125
G1 X0.3
M05 
G1 X0.1
M03 S125
G1 X0.3
M05 
G1 X0.1
M03 S125
G1 X0.1
M05 
G1 X0.1
M03 S125
G1 X0.2
M05 
G1 X0.1
M03 S125
G1 X0.2
M05 
G1 X0.1
M03 S125
G1 X0.2
M05 
G1 X0.1
M03 S125
G1 X0.1
M05 
G1 X0.1
M03 S125
G1 X0.1
M05 
G1 X0.1
M03 S125
G1 X0.2
M05 
G1 X0.1
M03 S125
G1 X0.3
M05 
G1 X0.1
M03 S125
G1 X0.3
M05 
G1 X0.1
M03 S125
G1 X0.2
M05 
G1 X0.1
M03 S125
G1 X0.2
M05 
G1 X0.1
M03 S125
G1 X0.1
M05 
G1 X0.4
M03 S125
G1 X0.1
M05 
G1 X0.1
M03 S125
G1 X0.2
M05 
G1 X0.1
M03 S125
G1 X0.3
M05 
G1 X0.1
M03 S125
G1 X0.3
M05 
G1 X0.1
M03 S125
G1 X0.1
M05 
G1 X0.3
M03 S125
G1 X0.4
M05 
G1 X0.1
M03 S125
G1 X0.2
M05 
G1 X0.1
M03 S125
G1 X0.3
M05 
G1 X1.7
M03 S125
G1 X0.4
M05 
G1 X0.1
M03 S125
G1 X0.4
M05 
G1 X0.2
M03 S125
G1 X0.2
M05 
G1 X0.1
M03 S125
G1 X0.4
M05 
G1 X0.1
M03 S125
G1 X0.4
M05 
G1 X0.1
M03 S125
G1 X0.2
M05 
G1 X0.1
M03 S125
G1 X0.5
M05 
G1 X0.1
M03 S125
G1 X0.5
M05 
G1 X0.1
M03 S125
G1 X0.3
M05 
G1 X0.2
M03 S125
G1 X0.2
M05 
G1 X0.1
M03 S125
G1 X0.4
M05 
G1 X0.1
M03 S125
G1 X0.6
M05 
G1 X1
M03 S125
G1 X0.2
M05 
G1 X0.1
M03 S125
G1 X0.4
M05 
G1 X2.5
G1 X0.2Y0.1
G1 X-2.5
M03 S125
G1 X-0.1
M05 
G1 X-0.1
M03 S125
G1 X-0.2
M05 
G1 X-0.1
M03 S125
G1 X-0.2
M05 
G1 X-0.9
M03 S125
G1 X-0.6
M05 
G1 X-0.2
M03 S125
G1 X-0.1
M05 
G1 X-0.1
M03 S125
G1 X-0.2
M05 
G1 X-0.1
M03 S125
G1 X-0.3
M05 
G1 X-0.1
M03 S125
G1 X-0.3
M05 
G1 X-0.1
M03 S125
G1 X-0.2
M05 
G1 X-0.1
M03 S125
G1 X-0.2
M05 
G1 X-0.1
M03 S125
G1 X-0.4
M05 
G1 X-0.1
M03 S125
G1 X-0.1
M05 
G1 X-0.1
M03 S125
G1 X-0.5
M05 
G1 X-0.1
M03 S125
G1 X-0.1
M05 
G1 X-0.1
M03 S125
G1 X-0.2
M05 
G1 X-0.1
M03 S125
G1 X-0.1
M05 
G1 X-0.6
M03 S125
G1 X-0.2
M05 
G1 X-0.1
M03 S125
G1 X-0.1
M05 
G1 X-0.1
M03 S125
G1 X-0.2
M05 
G1 X-0.1
M03 S125
G1 X-0.1
M05 
G1 X-0.8
M03 S125
G1 X-0.1
M05 
G1 X-0.1
M03 S125
G1 X-0.3
M05 
G1 X-0.4
M03 S125
G1 X-0.1
M05 
G1 X-0.1
M03 S125
G1 X-0.2
M05 
G1 X-0.1
M03 S125
G1 X-0.4
M05 
G1 X-0.1
M03 S125
G1 X-0.1
M05 
G1 X-0.4
M03 S125
G1 X-0.1
M05 
G1 X-0.1
M03 S125
G1 X-0.2
M05 
G1 X-0.1
M03 S125
G1 X-0.2
M05 
G1 X-0.1
M03 S125
G1 X-0.4
M05 
G1 X-0.4
M03 S125
G1 X-0.3
M05 
G1 X-0.1
M03 S125
G1 X-0.2
M05 
G1 X-0.1
M03 S125
G1 X-0.2
M05 
G1 X-0.1
M03 S125
G1 X-0.2
M05 
G1 X-0.1
M03 S125
G1 X-0.2
M05 
G1 X-0.1
M03 S125
G1 X-0.2
M05 
G1 X-0.1
M03 S125
G1 X-0.3
M05 
G1 X-0.1
M03 S125
G1 X-0.4
M05 
G1 X-0.1
M03 S125
G1 X-0.3
M05 
G1 X-0.1
M03 S125
G1 X-0.5
M05 
G1 X-0.1
M03 S125
G1 X-0.3
M05 
G1 X-0.1
M03 S125
G1 X-0.4
M05 
G1 X-0.1
M03 S125
G1 X-0.1
M05 
G1 X-0.1
M03 S125
G1 X-0.2
M05 
G1 X-0.1
M03 S125
G1 X-0.2
M05 
G1 X-0.1
M03 S125
G1 X-0.3
M05 
G1 X-0.9
M03 S125
G1 X-0.4
M05 
G1 X-0.1
M03 S125
G1 X-0.3
M05 
G1 X-2.5
G1 X-0.2Y0.1
G1 X2.5
M03 S125
G1 X0.4
M05 
G1 X0.1
M03 S125
G1 X0.2
M05 
G1 X0.9
M03 S125
G1 X0.5
M05 
G1 X0.1
M03 S125
G1 X0.5
M05 
G1 X0.1
M03 S125
G1 X0.3
M05 
G1 X0.1
M03 S125
G1 X0.2
M05 
G1 X0.1
M03 S125
G1 X0.2
M05 
G1 X0.1
M03 S125
G1 X0.2
M05 
G1 X0.1
M03 S125
G1 X0.1
M05 
G1 X0.1
M03 S125
G1 X0.3
M05 
G1 X0.1
M03 S125
G1 X0.3
M05 
G1 X0.1
M03 S125
G1 X0.1
M05 
G1 X0.1
M03 S125
G1 X0.3
M05 
G1 X0.1
M03 S125
G1 X0.3
M05 
G1 X0.4
M03 S125
G1 X0.2
M05 
G1 X0.1
M03 S125
G1 X0.8
M05 
G1 X0.1
M03 S125
G1 X0.1
M05 
G1 X0.4
M03 S125
G1 X0.1
M05 
G1 X0.1
M03 S125
G1 X0.2
M05 
G1 X0.1
M03 S125
G1 X0.3
M05 
G1 X0.1
M03 S125
G1 X0.3
M05 
G1 X0.4
M03 S125
G1 X0.2
M05 
G1 X0.1
M03 S125
G1 X0.1
M05 
G1 X0.1
M03 S125
G1 X0.3
M05 
G1 X0.1
M03 S125
G1 X0.2
M05 
G1 X0.4
M03 S125
G1 X0.2
M05 
G1 X0.1
M03 S125
G1 X0.8
M05 
G1 X0.2
M03 S125
G1 X0.2
M05 
G1 X0.1
M03 S125
G1 X0.4
M05 
G1 X0.1
M03 S125
G1 X0.1
M05 
G1 X1.1
M03 S125
G1 X0.2
M05 
G1 X0.1
M03 S125
G1 X0.1
M05 
G1 X0.1
M03 S125
G1 X0.3
M05 
G1 X0.1
M03 S125
G1 X0.2
M05 
G1 X0.1
M03 S125
G1 X0.2
M05 
G1 X0.1
M03 S125
G1 X0.6
M05 
G1 X0.1
M03 S125
G1 X0.3
M05 
G1 X0.1
M03 S125
G1 X0.2
M05 
G1 X0.1
M03 S125
G1 X0.6
M05 
G1 X0.1
M03 S125
G1 X0.1
M05 
G1 X0.1
M03 S125
G1 X0.2
M05 
G1 X0.1
M03 S125
G1 X0.2
M05 
G1 X0.9
M03 S125
G1 X0.2
M05 
G1 X0.1
M03 S125
G1 X0.3
M05 
G1 X2.5
G1 X0.3Y0.1
G1 X-2.5
M03 S125
G1 X-0.3
M05 
G1 X-0.1
M03 S125
G1 X-0.3
M05 
G1 X-0.9
M03 S125
G1 X-0.2
M05 
G1 X-0.1
M03 S125
G1 X-0.2
M05 
G1 X-0.1
M03 S125
G1 X-0.2
M05 
G1 X-0.1
M03 S125
G1 X-0.4
M05 
G1 X-0.1
M03 S125
G1 X-0.1
M05 
G1 X-0.1
M03 S125
G1 X-0.2
M05 
G1 X-0.1
M03 S125
G1 X-0.3
M05 
G1 X-0.1
M03 S125
G1 X-0.3
M05 
G1 X-0.1
M03 S125
G1 X-0.1
M05 
G1 X-0.1
M03 S125
G1 X-0.2
M05 
G1 X-0.1
M03 S125
G1 X-0.2
M05 
G1 X-0.1
M03 S125
G1 X-0.4
M05 
G1 X-0.1
M03 S125
G1 X-0.1
M05 
G1 X-1.5
M03 S125
G1 X-0.2
M05 
G1 X-0.1
M03 S125
G1 X-0.2
M05 
G1 X-0.1
M03 S125
G1 X-0.7
M05 
G1 X-0.1
M03 S125
G1 X-0.3
M05 
G1 X-0.1
M03 S125
G1 X-0.4
M05 
G1 X-0.5
M03 S125
G1 X-0.3
M05 
G1 X-0.1
M03 S125
G1 X-0.2
M05 
G1 X-0.1
M03 S125
G1 X-0.4
M05 
G1 X-0.4
M03 S125
G1 X-0.1
M05 
G1 X-0.1
M03 S125
G1 X-0.2
M05 
G1 X-0.1
M03 S125
G1 X-0.2
M05 
G1 X-0.1
M03 S125
G1 X-0.2
M05 
G1 X-0.4
M03 S125
G1 X-0.5
M05 
G1 X-0.1
M03 S125
G1 X-0.1
M05 
G1 X-0.1
M03 S125
G1 X-0.1
M05 
G1 X-0.1
M03 S125
G1 X-0.2
M05 
G1 X-1.1
M03 S125
G1 X-0.3
M05 
G1 X-0.1
M03 S125
G1 X-0.3
M05 
G1 X-0.1
M03 S125
G1 X-0.2
M05 
G1 X-0.1
M03 S125
G1 X-0.2
M05 
G1 X-0.1
M03 S125
G1 X-0.4
M05 
G1 X-0.1
M03 S125
G1 X-0.2
M05 
G1 X-0.1
M03 S125
G1 X-0.2
M05 
G1 X-0.1
M03 S125
G1 X-0.3
M05 
G1 X-0.1
M03 S125
G1 X-0.2
M05 
G1 X-0.1
M03 S125
G1 X-0.2
M05 
G1 X-0.1
M03 S125
G1 X-0.2
M05 
G1 X-0.1
M03 S125
G1 X-0.3
M05 
G1 X-0.8
M03 S125
G1 X-0.3
M05 
G1 X-0.1
M03 S125
G1 X-0.4
M05 
G1 X-2.5
G1 X-0.1Y0.1
G1 X2.5
M03 S125
G1 X0.3
M05 
G1 X0.1
M03 S125
G1 X0.3
M05 
G1 X0.8
M03 S125
G1 X0.2
M05 
G1 X0.1
M03 S125
G1 X0.2
M05 
G1 X0.1
M03 S125
G1 X0.4
M05 
G1 X0.1
M03 S125
G1 X0.2
M05 
G1 X0.1
M03 S125
G1 X0.2
M05 
G1 X0.1
M03 S125
G1 X0.8
M05 
G1 X0.1
M03 S125
G1 X0.1
M05 
G1 X0.1
M03 S125
G1 X0.3
M05 
G1 X0.1
M03 S125
G1 X0.4
M05 
G1 X0.1
M03 S125
G1 X0.2
M05 
G1 X1.7
M03 S125
G1 X0.3
M05 
G1 X0.1
M03 S125
G1 X0.1
M05 
G1 X0.1
M03 S125
G1 X0.1
M05 
G1 X0.1
M03 S125
G1 X0.2
M05 
G1 X1.8
M03 S125
G1 X0.1
M05 
G1 X0.1
M03 S125
G1 X0.4
M05 
G1 X0.1
M03 S125
G1 X0.2
M05 
G1 X0.1
M03 S125
G1 X0.2
M05 
G1 X0.4
M03 S125
G1 X0.1
M05 
G1 X0.1
M03 S125
G1 X0.3
M05 
G1 X0.1
M03 S125
G1 X0.1
M05 
G1 X0.1
M03 S125
G1 X0.2
M05 
G1 X0.1
M03 S125
G1 X0.2
M05 
G1 X0.1
M03 S125
G1 X0.3
M05 
G1 X0.1
M03 S125
G1 X0.4
M05 
G1 X1.7
M03 S125
G1 X0.1
M05 
G1 X0.1
M03 S125
G1 X0.4
M05 
G1 X0.1
M03 S125
G1 X0.2
M05 
G1 X0.1
M03 S125
G1 X0.2
M05 
G1 X0.1
M03 S125
G1 X0.2
M05 
G1 X0.1
M03 S125
G1 X0.2
M05 
G1 X0.1
M03 S125
G1 X0.7
M05 
G1 X0.1
M03 S125
G1 X0.1
M05 
G1 X0.1
M03 S125
G1 X0.3
M05 
G1 X0.1
M03 S125
G1 X0.4
M05 
G1 X0.1
M03 S125
G1 X0.3
M05 
G1 X0.9
M03 S125
G1 X0.2
M05 
G1 X0.1
M03 S125
G1 X0.4
M05 
G1 X2.5
G1 Y0.1
G1 X-2.5
M03 S125
G1 X-0.2
M05 
G1 X-0.1
M03 S125
G1 X-0.3
M05 
G1 X-0.8
M03 S125
G1 X-0.4
M05 
G1 X-0.1
M03 S125
G1 X-0.3
M05 
G1 X-0.1
M03 S125
G1 X-0.3
M05 
G1 X-0.1
M03 S125
G1 X-0.2
M05 
G1 X-0.1
M03 S125
G1 X-0.2
M05 
G1 X-0.1
M03 S125
G1 X-0.1
M05 
G1 X-0.1
M03 S125
G1 X-0.1
M05 
G1 X-0.1
M03 S125
G1 X-0.2
M05 
G1 X-0.1
M03 S125
G1 X-0.3
M05 
G1 X-0.1
M03 S125
G1 X-0.8
M05 
G1 X-0.1
M03 S125
G1 X-0.1
M05 
G1 X-0.1
M03 S125
G1 X-0.2
M05 
G1 X-0.9
M03 S125
G1 X-0.4
M05 
G1 X-0.4
M03 S125
G1 X-0.1
M05 
G1 X-0.1
M03 S125
G1 X-0.1
M05 
G1 X-0.1
M03 S125
G1 X-0.3
M05 
G1 X-0.1
M03 S125
G1 X-0.1
M05 
G1 X-0.1
M03 S125
G1 X-0.2
M05 
G1 X-0.1
M03 S125
G1 X-0.6
M05 
G1 X-0.1
M03 S125
G1 X-0.3
M05 
G1 X-0.3
M03 S125
G1 X-0.1
M05 
G1 X-0.1
M03 S125
G1 X-0.5
M05 
G1 X-0.1
M03 S125
G1 X-0.1
M05 
G1 X-0.1
M03 S125
G1 X-0.2
M05 
G1 X-1.7
M03 S125
G1 X-0.1
M05 
G1 X-0.1
M03 S125
G1 X-0.2
M05 
G1 X-0.1
M03 S125
G1 X-0.6
M05 
G1 X-2
M03 S125
G1 X-0.1
M05 
G1 X-0.1
M03 S125
G1 X-0.1
M05 
G1 X-0.1
M03 S125
G1 X-0.3
M05 
G1 X-0.1
M03 S125
G1 X-0.4
M05 
G1 X-0.1
M03 S125
G1 X-0.1
M05 
G1 X-0.1
M03 S125
G1 X-0.1
M05 
G1 X-0.1
M03 S125
G1 X-0.1
M05 
G1 X-0.1
M03 S125
G1 X-0.4
M05 
G1 X-0.1
M03 S125
G1 X-0.3
M05 
G1 X-0.1
M03 S125
G1 X-0.1
M05 
G1 X-0.1
M03 S125
G1 X-0.2
M05 
G1 X-0.1
M03 S125
G1 X-0.2
M05 
G1 X-0.1
M03 S125
G1 X-0.2
M05 
G1 X-0.8
M03 S125
G1 X-0.2
M05 
G1 X-0.1
M03 S125
G1 X-0.4
M05 
G1 X-2.5
G1 X-0.2Y0.1
G1 X2.5
M03 S125
G1 X0.3
M05 
G1 X0.1
M03 S125
G1 X0.3
M05 
G1 X0.9
M03 S125
G1 X0.2
M05 
G1 X0.1
M03 S125
G1 X0.7
M05 
G1 X0.1
M03 S125
G1 X0.3
M05 
G1 X0.1
M03 S125
G1 X0.2
M05 
G1 X0.1
M03 S125
G1 X0.3
M05 
G1 X0.1
M03 S125
G1 X0.3
M05 
G1 X0.1
M03 S125
G1 X0.2
M05 
G1 X0.1
M03 S125
G1 X0.3
M05 
G1 X0.1
M03 S125
G1 X0.3
M05 
G1 X0.1
M03 S125
G1 X0.1
M05 
G1 X1
M03 S125
G1 X0.7
M05 
G1 X0.5
M03 S125
G1 X0.1
M05 
G1 X0.1
M03 S125
G1 X0.5
M05 
G1 X0.1
M03 S125
G1 X0.2
M05 
G1 X1.6
M03 S125
G1 X0.4
M05 
G1 X0.1
M03 S125
G1 X0.2
M05 
G1 X0.1
M03 S125
G1 X0.1
M05 
G1 X0.1
M03 S125
G1 X0.2
M05 
G1 X0.5
M03 S125
G1 X0.3
M05 
G1 X0.1
M03 S125
G1 X0.1
M05 
G1 X0.1
M03 S125
G1 X0.2
M05 
G1 X0.1
M03 S125
G1 X0.2
M05 
G1 X0.1
M03 S125
G1 X0.3
M05 
G1 X0.1
M03 S125
G1 X0.5
M05 
G1 X0.4
M03 S125
G1 X1
M05 
G1 X0.4
M03 S125
G1 X0.3
M05 
G1 X0.1
M03 S125
G1 X0.2
M05 
G1 X0.1
M03 S125
G1 X0.1
M05 
G1 X0.1
M03 S125
G1 X0.1
M05 
G1 X0.1
M03 S125
G1 X0.3
M05 
G1 X0.1
M03 S125
G1 X0.4
M05 
G1 X0.1
M03 S125
G1 X0.3
M05 
G1 X0.1
M03 S125
G1 X0.5
M05 
G1 X0.1
M03 S125
G1 X0.3
M05 
G1 X0.1
M03 S125
G1 X0.1
M05 
G1 X0.1
M03 S125
G1 X0.3
M05 
G1 X0.1
M03 S125
G1 X0.2
M05 
G1 X0.1
M03 S125
G1 X0.2
M05 
G1 X0.8
M03 S125
G1 X0.2
M05 
G1 X0.1
M03 S125
G1 X0.4
M05 
G1 X2.5
G1 X0.1Y0.1
G1 X-2.5
M03 S125
G1 X-0.2
M05 
G1 X-0.1
M03 S125
G1 X-0.3
M05 
G1 X-0.8
M03 S125
G1 X-0.6
M05 
G1 X-0.1
M03 S125
G1 X-0.3
M05 
G1 X-0.1
M03 S125
G1 X-0.4
M05 
G1 X-0.1
M03 S125
G1 X-0.2
M05 
G1 X-0.1
M03 S125
G1 X-0.2
M05 
G1 X-0.1
M03 S125
G1 X-0.6
M05 
G1 X-0.1
M03 S125
G1 X-0.2
M05 
G1 X-0.1
M03 S125
G1 X-0.3
M05 
G1 X-0.1
M03 S125
G1 X-0.1
M05 
G1 X-0.1
M03 S125
G1 X-0.3
M05 
G1 X-0.1
M03 S125
G1 X-0.3
M05 
G1 X-0.1
M03 S125
G1 X-0.1
M05 
G1 X-0.1
M03 S125
G1 X-1
M05 
G1 X-0.1
M03 S125
G1 X-0.2
M05 
G1 X-0.4
M03 S125
G1 X-0.2
M05 
G1 X-0.1
M03 S125
G1 X-0.1
M05 
G1 X-0.1
M03 S125
G1 X-0.2
M05 
G1 X-0.1
M03 S125
G1 X-0.6
M05 
G1 X-0.1
M03 S125
G1 X-0.1
M05 
G1 X-0.1
M03 S125
G1 X-0.3
M05 
G1 X-0.1
M03 S125
G1 X-0.1
M05 
G1 X-0.3
M03 S125
G1 X-0.2
M05 
G1 X-0.1
M03 S125
G1 X-0.3
M05 
G1 X-0.1
M03 S125
G1 X-0.4
M05 
G1 X-0.1
M03 S125
G1 X-0.1
M05 
G1 X-0.4
M03 S125
G1 X-0.7
M05 
G1 X-0.4
M03 S125
G1 X-0.1
M05 
G1 X-0.1
M03 S125
G1 X-0.2
M05 
G1 X-0.1
M03 S125
G1 X-0.2
M05 
G1 X-0.2
M03 S125
G1 X-0.2
M05 
G1 X-0.4
M03 S125
G1 X-0.6
M05 
G1 X-0.1
M03 S125
G1 X-0.5
M05 
G1 X-0.5
M03 S125
G1 X-0.5
M05 
G1 X-0.1
M03 S125
G1 X-0.2
M05 
G1 X-0.1
M03 S125
G1 X-0.2
M05 
G1 X-0.1
M03 S125
G1 X-0.6
M05 
G1 X-0.1
M03 S125
G1 X-0.2
M05 
G1 X-0.1
M03 S125
G1 X-0.4
M05 
G1 X-0.1
M03 S125
G1 X-0.4
M05 
G1 X-0.1
M03 S125
G1 X-0.1
M05 
G1 X-0.1
M03 S125
G1 X-0.1
M05 
G1 X-0.1
M03 S125
G1 X-0.5
M05 
G1 X-0.8
M03 S125
G1 X-0.1
M05 
G1 X-0.1
M03 S125
G1 X-0.5
M05 
G1 X-2.5
G1 X-0.2Y0.1
G1 X2.5
M03 S125
G1 X0.3
M05 
G1 X0.1
M03 S125
G1 X0.2
M05 
G1 X0.9
M03 S125
G1 X0.4
M05 
G1 X0.1
M03 S125
G1 X0.3
M05 
G1 X0.1
M03 S125
G1 X0.3
M05 
G1 X0.1
M03 S125
G1 X0.1
M05 
G1 X0.1
M03 S125
G1 X0.2
M05 
G1 X0.1
M03 S125
G1 X0.2
M05 
G1 X0.1
M03 S125
G1 X0.2
M05 
G1 X0.1
M03 S125
G1 X0.2
M05 
G1 X0.1
M03 S125
G1 X0.1
M05 
G1 X0.1
M03 S125
G1 X0.4
M05 
G1 X0.1
M03 S125
G1 X0.4
M05 
G1 X0.1
M03 S125
G1 X0.2
M05 
G1 X0.1
M03 S125
G1 X0.1
M05 
G1 X0.4
M03 S125
G1 X0.3
M05 
G1 X0.1
M03 S125
G1 X0.2
M05 
G1 X0.1
M03 S125
G1 X0.1
M05 
G1 X0.2
M03 S125
G1 X0.1
M05 
G1 X0.1
M03 S125
G1 X0.1
M05 
G1 X0.4
M03 S125
G1 X0.4
M05 
G1 X0.1
M03 S125
G1 X0.5
M05 
G1 X0.5
M03 S125
G1 X0.2
M05 
G1 X0.1
M03 S125
G1 X0.2
M05 
G1 X0.1
M03 S125
G1 X0.1
M05 
G1 X0.4
M03 S125
G1 X0.2
M05 
G1 X0.1
M03 S125
G1 X0.1
M05 
G1 X0.1
M03 S125
G1 X0.3
M05 
G1 X0.1
M03 S125
G1 X0.3
M05 
G1 X0.4
M03 S125
G1 X0.2
M05 
G1 X0.1
M03 S125
G1 X0.5
M05 
G1 X0.1
M03 S125
G1 X0.1
M05 
G1 X0.1
M03 S125
G1 X0.2
M05 
G1 X0.1
M03 S125
G1 X0.4
M05 
G1 X0.1
M03 S125
G1 X0.2
M05 
G1 X0.5
M03 S125
G1 X0.2
M05 
G1 X0.1
M03 S125
G1 X0.1
M05 
G1 X0.2
M03 S125
G1 X0.1
M05 
G1 X0.1
M03 S125
G1 X0.1
M05 
G1 X0.1
M03 S125
G1 X0.4
M05 
G1 X0.1
M03 S125
G1 X0.2
M05 
G1 X0.1
M03 S125
G1 X0.3
M05 
G1 X0.1
M03 S125
G1 X0.4
M05 
G1 X0.1
M03 S125
G1 X0.2
M05 
G1 X0.1
M03 S125
G1 X0.3
M05 
G1 X0.1
M03 S125
G1 X0.1
M05 
G1 X0.2
M03 S125
G1 X0.2
M05 
G1 X0.1
M03 S125
G1 X0.4
M05 
G1 X0.1
M03 S125
G1 X0.2
M05 
G1 X0.1
M03 S125
G1 X0.3
M05 
G1 X0.1
M03 S125
G1 X0.3
M05 
G1 X0.1
M03 S125
G1 X0.2
M05 
G1 X0.1
M03 S125
G1 X0.4
M05 
G1 X0.7
M03 S125
G1 X0.3
M05 
G1 X0.1
M03 S125
G1 X0.2
M05 
G1 X2.5
G1 X0.3Y0.1
G1 X-2.5
M03 S125
G1 X-0.1
M05 
G1 X-0.1
M03 S125
G1 X-0.2
M05 
G1 X-0.1
M03 S125
G1 X-0.2
M05 
G1 X-0.8
M03 S125
G1 X-0.2
M05 
G1 X-0.1
M03 S125
G1 X-0.1
M05 
G1 X-0.1
M03 S125
G1 X-0.2
M05 
G1 X-0.1
M03 S125
G1 X-0.3
M05 
G1 X-0.1
M03 S125
G1 X-0.2
M05 
G1 X-0.1
M03 S125
G1 X-0.2
M05 
G1 X-0.1
M03 S125
G1 X-0.3
M05 
G1 X-0.1
M03 S125
G1 X-0.1
M05 
G1 X-0.1
M03 S125
G1 X-0.2
M05 
G1 X-0.1
M03 S125
G1 X-0.6
M05 
G1 X-0.1
M03 S125
G1 X-0.2
M05 
G1 X-0.1
M03 S125
G1 X-0.2
M05 
G1 X-0.1
M03 S125
G1 X-0.3
M05 
G1 X-0.1
M03 S125
G1 X-0.3
M05 
G1 X-0.1
M03 S125
G1 X-0.3
M05 
G1 X-0.1
M03 S125
G1 X-0.1
M05 
G1 X-0.1
M03 S125
G1 X-0.3
M05 
G1 X-0.1
M03 S125
G1 X-0.6
M05 
G1 X-0.4
M03 S125
G1 X-0.5
M05 
G1 X-0.1
M03 S125
G1 X-0.2
M05 
G1 X-0.1
M03 S125
G1 X-0.2
M05 
G1 X-0.1
M03 S125
G1 X-0.4
M05 
G1 X-0.1
M03 S125
G1 X-0.1
M05 
G1 X-0.1
M03 S125
G1 X-0.3
M05 
G1 X-0.3
M03 S125
G1 X-0.1
M05 
G1 X-0.1
M03 S125
G1 X-0.3
M05 
G1 X-0.1
M03 S125
G1 X-0.3
M05 
G1 X-0.1
M03 S125
G1 X-0.2
M05 
G1 X-0.1
M03 S125
G1 X-0.1
M05 
G1 X-0.3
M03 S125
G1 X-0.3
M05 
G1 X-0.1
M03 S125
G1 X-0.3
M05 
G1 X-0.3
M03 S125
G1 X-0.4
M05 
G1 X-0.1
M03 S125
G1 X-0.1
M05 
G1 X-0.1
M03 S125
G1 X-0.2
M05 
G1 X-0.1
M03 S125
G1 X-0.2
M05 
G1 X-0.5
M03 S125
G1 X-0.7
M05 
G1 X-0.1
M03 S125
G1 X-0.2
M05 
G1 X-0.1
M03 S125
G1 X-0.1
M05 
G1 X-0.4
M03 S125
G1 X-0.3
M05 
G1 X-0.1
M03 S125
G1 X-0.2
M05 
G1 X-0.1
M03 S125
G1 X-0.1
M05 
G1 X-0.1
M03 S125
G1 X-0.3
M05 
G1 X-0.1
M03 S125
G1 X-0.1
M05 
G1 X-0.1
M03 S125
G1 X-0.2
M05 
G1 X-0.1
M03 S125
G1 X-0.6
M05 
G1 X-0.1
M03 S125
G1 X-0.4
M05 
G1 X-0.1
M03 S125
G1 X-0.2
M05 
G1 X-0.1
M03 S125
G1 X-0.4
M05 
G1 X-0.1
M03 S125
G1 X-0.2
M05 
G1 X-0.1
M03 S125
G1 X-0.4
M05 
G1 X-0.9
M03 S125
G1 X-0.2
M05 
G1 X-0.1
M03 S125
G1 X-0.2
M05 
G1 X-2.5
G1 X-0.2Y0.1
G1 X2.5
M03 S125
G1 X0.3
M05 
G1 X0.1
M03 S125
G1 X0.2
M05 
G1 X0.8
M03 S125
G1 X0.3
M05 
G1 X0.1
M03 S125
G1 X0.2
M05 
G1 X0.1
M03 S125
G1 X0.2
M05 
G1 X0.1
M03 S125
G1 X0.1
M05 
G1 X0.1
M03 S125
G1 X0.3
M05 
G1 X0.1
M03 S125
G1 X0.3
M05 
G1 X0.1
M03 S125
G1 X0.3
M05 
G1 X0.1
M03 S125
G1 X0.1
M05 
G1 X0.1
M03 S125
G1 X0.2
M05 
G1 X0.1
M03 S125
G1 X0.6
M05 
G1 X0.1
M03 S125
G1 X0.3
M05 
G1 X0.1
M03 S125
G1 X0.4
M05 
G1 X0.1
M03 S125
G1 X0.3
M05 
G1 X0.3
M03 S125
G1 X0.2
M05 
G1 X0.1
M03 S125
G1 X0.2
M05 
G1 X0.1
M03 S125
G1 X0.2
M05 
G1 X0.1
M03 S125
G1 X0.4
M05 
G1 X0.3
M03 S125
G1 X0.2
M05 
G1 X0.1
M03 S125
G1 X0.6
M05 
G1 X0.1
M03 S125
G1 X0.2
M05 
G1 X0.5
M03 S125
G1 X0.3
M05 
G1 X0.1
M03 S125
G1 X0.2
M05 
G1 X0.3
M03 S125
G1 X0.2
M05 
G1 X0.1
M03 S125
G1 X0.3
M05 
G1 X0.1
M03 S125
G1 X0.3
M05 
G1 X0.1
M03 S125
G1 X0.2
M05 
G1 X0.4
M03 S125
G1 X0.1
M05 
G1 X0.1
M03 S125
G1 X0.4
M05 
G1 X0.1
M03 S125
G1 X0.2
M05 
G1 X0.1
M03 S125
G1 X0.4
M05 
G1 X0.1
M03 S125
G1 X0.2
M05 
G1 X0.1
M03 S125
G1 X0.1
M05 
G1 X0.1
M03 S125
G1 X0.2
M05 
G1 X0.4
M03 S125
G1 X0.1
M05 
G1 X0.1
M03 S125
G1 X0.1
M05 
G1 X0.1
M03 S125
G1 X0.4
M05 
G1 X0.1
M03 S125
G1 X0.4
M05 
G1 X0.1
M03 S125
G1 X0.3
M05 
G1 X0.1
M03 S125
G1 X0.3
M05 
G1 X0.1
M03 S125
G1 X0.2
M05 
G1 X0.1
M03 S125
G1 X0.6
M05 
G1 X0.1
M03 S125
G1 X0.1
M05 
G1 X0.1
M03 S125
G1 X0.7
M05 
G1 X0.1
M03 S125
G1 X0.3
M05 
G1 X0.1
M03 S125
G1 X0.4
M05 
G1 X0.1
M03 S125
G1 X0.2
M05 
G1 X0.1
M03 S125
G1 X0.3
M05 
G1 X0.1
M03 S125
G1 X0.4
M05 
G1 X0.1
M03 S125
G1 X0.3
M05 
G1 X0.8
M03 S125
G1 X0.6
M05 
G1 X2.5
G1 X0.1Y0.1
G1 X-2.5
M03 S125
G1 X-0.2
M05 
G1 X-0.1
M03 S125
G1 X-0.2
M05 
G1 X-0.8
M03 S125
G1 X-0.6
M05 
G1 X-0.1
M03 S125
G1 X-0.2
M05 
G1 X-0.1
M03 S125
G1 X-0.3
M05 
G1 X-0.1
M03 S125
G1 X-0.2
M05 
G1 X-0.1
M03 S125
G1 X-0.3
M05 
G1 X-0.1
M03 S125
G1 X-0.3
M05 
G1 X-0.1
M03 S125
G1 X-0.4
M05 
G1 X-0.1
M03 S125
G1 X-0.1
M05 
G1 X-0.1
M03 S125
G1 X-0.1
M05 
G1 X-0.1
M03 S125
G1 X-0.1
M05 
G1 X-0.1
M03 S125
G1 X-0.3
M05 
G1 X-0.1
M03 S125
G1 X-0.1
M05 
G1 X-0.1
M03 S125
G1 X-0.3
M05 
G1 X-0.1
M03 S125
G1 X-0.3
M05 
G1 X-0.1
M03 S125
G1 X-0.3
M05 
G1 X-0.1
M03 S125
G1 X-0.2
M05 
G1 X-0.1
M03 S125
G1 X-0.1
M05 
G1 X-0.1
M03 S125
G1 X-0.3
M05 
G1 X-0.1
M03 S125
G1 X-0.2
M05 
G1 X-0.1
M03 S125
G1 X-0.3
M05 
G1 X-0.5
M03 S125
G1 X-0.4
M05 
G1 X-0.1
M03 S125
G1 X-0.3
M05 
G1 X-0.1
M03 S125
G1 X-0.2
M05 
G1 X-0.1
M03 S125
G1 X-0.2
M05 
G1 X-0.1
M03 S125
G1 X-0.2
M05 
G1 X-0.1
M03 S125
G1 X-0.2
M05 
G1 X-0.4
M03 S125
G1 X-0.1
M05 
G1 X-0.1
M03 S125
G1 X-0.2
M05 
G1 X-0.1
M03 S125
G1 X-0.2
M05 
G1 X-0.1
M03 S125
G1 X-0.5
M05 
G1 X-0.5
M03 S125
G1 X-0.2
M05 
G1 X-0.1
M03 S125
G1 X-0.1
M05 
G1 X-0.4
M03 S125
G1 X-0.3
M05 
G1 X-0.1
M03 S125
G1 X-0.2
M05 
G1 X-0.1
M03 S125
G1 X-0.1
M05 
G1 X-0.1
M03 S125
G1 X-0.4
M05 
G1 X-0.5
M03 S125
G1 X-0.1
M05 
G1 X-0.1
M03 S125
G1 X-0.2
M05 
G1 X-0.1
M03 S125
G1 X-0.5
M05 
G1 X-0.4
M03 S125
G1 X-0.2
M05 
G1 X-0.1
M03 S125
G1 X-0.3
M05 
G1 X-0.1
M03 S125
G1 X-0.4
M05 
G1 X-0.1
M03 S125
G1 X-0.2
M05 
G1 X-0.1
M03 S125
G1 X-0.2
M05 
G1 X-0.1
M03 S125
G1 X-0.2
M05 
G1 X-0.1
M03 S125
G1 X-0.2
M05 
G1 X-0.1
M03 S125
G1 X-0.3
M05 
G1 X-0.1
M03 S125
G1 X-0.3
M05 
G1 X-0.1
M03 S125
G1 X-0.3
M05 
G1 X-0.1
M03 S125
G1 X-0.3
M05 
G1 X-0.1
M03 S125
G1 X-0.3
M05 
G1 X-0.1
M03 S125
G1 X-0.3
M05 
G1 X-0.1
M03 S125
G1 X-0.2
M05 
G1 X-0.7
M03 S125
G1 X-0.3
M05 
G1 X-0.1
M03 S125
G1 X-0.2
M05 
G1 X-2.5
G1 X-0.2Y0.1
G1 X2.5
M03 S125
G1 X0.3
M05 
G1 X0.1
M03 S125
G1 X0.2
M05 
G1 X0.8
M03 S125
G1 X0.4
M05 
G1 X0.1
M03 S125
G1 X0.3
M05 
G1 X0.1
M03 S125
G1 X0.4
M05 
G1 X0.1
M03 S125
G1 X0.2
M05 
G1 X0.1
M03 S125
G1 X0.3
M05 
G1 X0.1
M03 S125
G1 X0.2
M05 
G1 X0.1
M03 S125
G1 X0.1
M05 
G1 X0.1
M03 S125
G1 X0.3
M05 
G1 X0.1
M03 S125
G1 X0.1
M05 
G1 X0.2
M03 S125
G1 X0.2
M05 
G1 X0.1
M03 S125
G1 X0.2
M05 
G1 X0.1
M03 S125
G1 X0.2
M05 
G1 X0.1
M03 S125
G1 X0.2
M05 
G1 X0.1
M03 S125
G1 X0.1
M05 
G1 X0.1
M03 S125
G1 X0.2
M05 
G1 X0.1
M03 S125
G1 X0.1
M05 
G1 X0.4
M03 S125
G1 X0.1
M05 
G1 X0.1
M03 S125
G1 X0.1
M05 
G1 X0.1
M03 S125
G1 X0.3
M05 
G1 X0.7
M03 S125
G1 X0.2
M05 
G1 X0.1
M03 S125
G1 X0.3
M05 
G1 X0.1
M03 S125
G1 X0.2
M05 
G1 X0.1
M03 S125
G1 X0.2
M05 
G1 X0.1
M03 S125
G1 X0.2
M05 
G1 X0.4
M03 S125
G1 X0.4
M05 
G1 X0.4
M03 S125
G1 X0.1
M05 
G1 X0.1
M03 S125
G1 X0.1
M05 
G1 X0.1
M03 S125
G1 X0.3
M05 
G1 X0.1
M03 S125
G1 X0.5
M05 
G1 X0.4
M03 S125
G1 X0.2
M05 
G1 X0.1
M03 S125
G1 X0.3
M05 
G1 X0.1
M03 S125
G1 X0.3
M05 
G1 X0.1
M03 S125
G1 X0.2
M05 
G1 X0.1
M03 S125
G1 X0.3
M05 
G1 X0.1
M03 S125
G1 X0.3
M05 
G1 X0.4
M03 S125
G1 X0.5
M05 
G1 X0.1
M03 S125
G1 X0.2
M05 
G1 X0.1
M03 S125
G1 X0.4
M05 
G1 X0.1
M03 S125
G1 X0.2
M05 
G1 X0.1
M03 S125
G1 X0.3
M05 
G1 X0.1
M03 S125
G1 X0.3
M05 
G1 X0.1
M03 S125
G1 X0.3
M05 
G1 X0.1
M03 S125
G1 X0.1
M05 
G1 X0.1
M03 S125
G1 X0.5
M05 
G1 X0.1
M03 S125
G1 X0.2
M05 
G1 X0.1
M03 S125
G1 X0.1
M05 
G1 X0.1
M03 S125
G1 X0.2
M05 
G1 X0.1
M03 S125
G1 X0.2
M05 
G1 X0.1
M03 S125
G1 X0.1
M05 
G1 X0.1
M03 S125
G1 X0.5
M05 
G1 X0.1
M03 S125
G1 X0.1
M05 
G1 X0.1
M03 S125
G1 X0.2
M05 
G1 X0.1
M03 S125
G1 X0.3
M05 
G1 X0.1
M03 S125
G1 X0.1
M05 
G1 X0.1
M03 S125
G1 X0.3
M05 
G1 X0.8
M03 S125
G1 X0.2
M05 
G1 X0.1
M03 S125
G1 X0.2
M05 
G1 X2.5
G1 X0.3Y0.1
G1 X-2.5
M03 S125
G1 X-0.3
M05 
G1 X-0.1
M03 S125
G1 X-0.2
M05 
G1 X-0.8
M03 S125
G1 X-0.4
M05 
G1 X-0.1
M03 S125
G1 X-0.1
M05 
G1 X-0.1
M03 S125
G1 X-0.3
M05 
G1 X-0.1
M03 S125
G1 X-0.2
M05 
G1 X-0.1
M03 S125
G1 X-0.5
M05 
G1 X-0.1
M03 S125
G1 X-0.1
M05 
G1 X-0.1
M03 S125
G1 X-0.4
M05 
G1 X-0.1
M03 S125
G1 X-0.2
M05 
G1 X-0.1
M03 S125
G1 X-0.1
M05 
G1 X-0.1
M03 S125
G1 X-0.6
M05 
G1 X-0.1
M03 S125
G1 X-0.1
M05 
G1 X-0.1
M03 S125
G1 X-0.5
M05 
G1 X-0.1
M03 S125
G1 X-0.2
M05 
G1 X-0.1
M03 S125
G1 X-0.1
M05 
G1 X-0.1
M03 S125
G1 X-0.2
M05 
G1 X-0.1
M03 S125
G1 X-0.6
M05 
G1 X-0.1
M03 S125
G1 X-0.2
M05 
G1 X-0.1
M03 S125
G1 X-0.2
M05 
G1 X-0.1
M03 S125
G1 X-0.2
M05 
G1 X-0.1
M03 S125
G1 X-0.1
M05 
G1 X-0.4
M03 S125
G1 X-0.2
M05 
G1 X-0.1
M03 S125
G1 X-0.2
M05 
G1 X-0.1
M03 S125
G1 X-0.2
M05 
G1 X-0.1
M03 S125
G1 X-0.4
M05 
G1 X-0.1
M03 S125
G1 X-0.2
M05 
G1 X-0.1
M03 S125
G1 X-0.2
M05 
G1 X-0.1
M03 S125
G1 X-0.1
M05 
G1 X-0.4
M03 S125
G1 X-0.2
M05 
G1 X-0.1
M03 S125
G1 X-0.1
M05 
G1 X-0.1
M03 S125
G1 X-0.3
M05 
G1 X-0.1
M03 S125
G1 X-0.3
M05 
G1 X-0.1
M03 S125
G1 X-0.1
M05 
G1 X-0.3
M03 S125
G1 X-0.2
M05 
G1 X-0.1
M03 S125
G1 X-0.1
M05 
G1 X-0.4
M03 S125
G1 X-0.3
M05 
G1 X-0.1
M03 S125
G1 X-0.6
M05 
G1 X-0.1
M03 S125
G1 X-0.2
M05 
G1 X-0.1
M03 S125
G1 X-0.2
M05 
G1 X-0.9
M03 S125
G1 X-0.1
M05 
G1 X-0.1
M03 S125
G1 X-0.2
M05 
G1 X-0.5
M03 S125
G1 X-0.2
M05 
G1 X-0.1
M03 S125
G1 X-0.3
M05 
G1 X-0.1
M03 S125
G1 X-0.2
M05 
G1 X-0.1
M03 S125
G1 X-0.3
M05 
G1 X-0.1
M03 S125
G1 X-0.4
M05 
G1 X-0.4
M03 S125
G1 X-0.1
M05 
G1 X-0.1
M03 S125
G1 X-0.4
M05 
G1 X-0.1
M03 S125
G1 X-0.3
M05 
G1 X-0.1
M03 S125
G1 X-0.4
M05 
G1 X-0.1
M03 S125
G1 X-0.2
M05 
G1 X-0.1
M03 S125
G1 X-0.3
M05 
G1 X-0.1
M03 S125
G1 X-0.3
M05 
G1 X-0.1
M03 S125
G1 X-0.3
M05 
G1 X-0.7
M03 S125
G1 X-0.3
M05 
G1 X-0.1
M03 S125
G1 X-0.2
M05 
G1 X-2.5
G1 X-0.2Y0.1
G1 X2.5
M03 S125
G1 X0.3
M05 
G1 X0.1
M03 S125
G1 X0.2
M05 
G1 X0.7
M03 S125
G1 X0.6
M05 
G1 X0.1
M03 S125
G1 X0.2
M05 
G1 X0.1
M03 S125
G1 X0.2
M05 
G1 X0.1
M03 S125
G1 X0.2
M05 
G1 X0.1
M03 S125
G1 X0.2
M05 
G1 X0.1
M03 S125
G1 X0.2
M05 
G1 X0.1
M03 S125
G1 X0.1
M05 
G1 X0.1
M03 S125
G1 X0.2
M05 
G1 X0.1
M03 S125
G1 X0.2
M05 
G1 X0.1
M03 S125
G1 X0.3
M05 
G1 X0.4
M03 S125
G1 X0.1
M05 
G1 X0.1
M03 S125
G1 X0.2
M05 
G1 X0.1
M03 S125
G1 X0.4
M05 
G1 X0.1
M03 S125
G1 X0.9
M05 
G1 X1.8
M03 S125
G1 X0.2
M05 
G1 X0.1
M03 S125
G1 X0.2
M05 
G1 X0.1
M03 S125
G1 X0.1
M05 
G1 X0.1
M03 S125
G1 X0.3
M05 
G1 X0.1
M03 S125
G1 X0.3
M05 
G1 X0.4
M03 S125
G1 X0.2
M05 
G1 X0.4
M03 S125
G1 X0.3
M05 
G1 X0.1
M03 S125
G1 X0.2
M05 
G1 X0.1
M03 S125
G1 X0.3
M05 
G1 X0.1
M03 S125
G1 X0.2
M05 
G1 X0.5
M03 S125
G1 X0.3
M05 
G1 X0.1
M03 S125
G1 X0.4
M05 
G1 X0.1
M03 S125
G1 X0.2
M05 
G1 X0.1
M03 S125
G1 X0.4
M05 
G1 X0.1
M03 S125
G1 X0.2
M05 
G1 X0.1
M03 S125
G1 X0.1
M05 
G1 X0.4
M03 S125
G1 X0.2
M05 
G1 X0.1
M03 S125
G1 X0.6
M05 
G1 X0.1
M03 S125
G1 X0.2
M05 
G1 X0.1
M03 S125
G1 X0.1
M05 
G1 X0.1
M03 S125
G1 X0.2
M05 
G1 X0.1
M03 S125
G1 X0.5
M05 
G1 X0.1
M03 S125
G1 X0.2
M05 
G1 X0.1
M03 S125
G1 X0.1
M05 
G1 X0.1
M03 S125
G1 X0.3
M05 
G1 X0.1
M03 S125
G1 X0.2
M05 
G1 X1.1
M03 S125
G1 X0.2
M05 
G1 X0.1
M03 S125
G1 X0.3
M05 
G1 X0.1
M03 S125
G1 X0.1
M05 
G1 X0.1
M03 S125
G1 X0.2
M05 
G1 X0.1
M03 S125
G1 X0.4
M05 
G1 X0.1
M03 S125
G1 X0.5
M05 
G1 X0.1
M03 S125
G1 X0.1
M05 
G1 X0.1
M03 S125
G1 X0.3
M05 
G1 X0.7
M03 S125
G1 X0.2
M05 
G1 X0.1
M03 S125
G1 X0.2
M05 
G1 X2.5
G1 X0.2Y0.1
G1 X-2.5
M03 S125
G1 X-0.2
M05 
G1 X-0.1
M03 S125
G1 X-0.3
M05 
G1 X-0.7
M03 S125
G1 X-0.2
M05 
G1 X-0.1
M03 S125
G1 X-0.2
M05 
G1 X-0.1
M03 S125
G1 X-0.3
M05 
G1 X-0.1
M03 S125
G1 X-0.1
M05 
G1 X-0.1
M03 S125
G1 X-0.3
M05 
G1 X-0.1
M03 S125
G1 X-0.3
M05 
G1 X-0.1
M03 S125
G1 X-0.3
M05 
G1 X-0.1
M03 S125
G1 X-0.3
M05 
G1 X-1.3
M03 S125
G1 X-0.4
M05 
G1 X-0.1
M03 S125
G1 X-0.2
M05 
G1 X-0.1
M03 S125
G1 X-0.6
M05 
G1 X-0.1
M03 S125
G1 X-0.1
M05 
G1 X-0.1
M03 S125
G1 X-0.3
M05 
G1 X-0.1
M03 S125
G1 X-0.2
M05 
G1 X-0.1
M03 S125
G1 X-0.4
M05 
G1 X-0.1
M03 S125
G1 X-0.1
M05 
G1 X-0.1
M03 S125
G1 X-0.2
M05 
G1 X-0.1
M03 S125
G1 X-0.2
M05 
G1 X-0.4
M03 S125
G1 X-0.5
M05 
G1 X-0.1
M03 S125
G1 X-0.1
M05 
G1 X-0.1
M03 S125
G1 X-0.2
M05 
G1 X-0.1
M03 S125
G1 X-0.3
M05 
G1 X-0.1
M03 S125
G1 X-0.2
M05 
G1 X-0.1
M03 S125
G1 X-0.2
M05 
G1 X-0.4
M03 S125
G1 X-0.6
M05 
G1 X-0.1
M03 S125
G1 X-0.4
M05 
G1 X-0.1
M03 S125
G1 X-0.2
M05 
G1 X-0.4
M03 S125
G1 X-0.2
M05 
G1 X-0.4
M03 S125
G1 X-0.2
M05 
G1 X-0.1
M03 S125
G1 X-0.3
M05 
G1 X-0.1
M03 S125
G1 X-0.3
M05 
G1 X-0.1
M03 S125
G1 X-0.3
M05 
G1 X-1.9
M03 S125
G1 X-0.3
M05 
G1 X-0.1
M03 S125
G1 X-0.1
M05 
G1 X-0.1
M03 S125
G1 X-0.1
M05 
G1 X-0.1
M03 S125
G1 X-0.2
M05 
G1 X-0.1
M03 S125
G1 X-0.2
M05 
G1 X-0.1
M03 S125
G1 X-0.2
M05 
G1 X-0.1
M03 S125
G1 X-0.2
M05 
G1 X-0.4
M03 S125
G1 X-0.4
M05 
G1 X-0.1
M03 S125
G1 X-0.3
M05 
G1 X-0.1
M03 S125
G1 X-0.5
M05 
G1 X-0.1
M03 S125
G1 X-0.3
M05 
G1 X-0.1
M03 S125
G1 X-0.3
M05 
G1 X-0.1
M03 S125
G1 X-0.2
M05 
G1 X-0.1
M03 S125
G1 X-0.2
M05 
G1 X-0.1
M03 S125
G1 X-0.1
M05 
G1 X-0.1
M03 S125
G1 X-0.3
M05 
G1 X-0.7
M03 S125
G1 X-0.3
M05 
G1 X-0.1
M03 S125
G1 X-0.2
M05 
G1 X-2.5
G1 X-0.2Y0.1
G1 X2.5
M03 S125
G1 X0.3
M05 
G1 X0.1
M03 S125
G1 X0.2
M05 
G1 X0.7
M03 S125
G1 X0.2
M05 
G1 X0.1
M03 S125
G1 X0.2
M05 
G1 X0.1
M03 S125
G1 X0.2
M05 
G1 X0.1
M03 S125
G1 X0.5
M05 
G1 X0.1
M03 S125
G1 X0.4
M05 
G1 X0.1
M03 S125
G1 X0.2
M05 
G1 X0.1
M03 S125
G1 X0.1
M05 
G1 X0.1
M03 S125
G1 X0.3
M05 
G1 X0.1
M03 S125
G1 X0.4
M05 
G1 X0.1
M03 S125
G1 X0.1
M05 
G1 X0.1
M03 S125
G1 X0.1
M05 
G1 X0.4
M03 S125
G1 X0.5
M05 
G1 X0.1
M03 S125
G1 X0.3
M05 
G1 X0.1
M03 S125
G1 X0.3
M05 
G1 X0.1
M03 S125
G1 X0.1
M05 
G1 X0.1
M03 S125
G1 X0.1
M05 
G1 X0.9
M03 S125
G1 X0.7
M05 
G1 X0.4
M03 S125
G1 X0.1
M05 
G1 X0.1
M03 S125
G1 X0.3
M05 
G1 X0.1
M03 S125
G1 X0.2
M05 
G1 X0.1
M03 S125
G1 X0.2
M05 
G1 X0.1
M03 S125
G1 X0.2
M05 
G1 X0.4
M03 S125
G1 X0.2
M05 
G1 X0.4
M03 S125
G1 X0.1
M05 
G1 X0.1
M03 S125
G1 X0.2
M05 
G1 X0.1
M03 S125
G1 X0.2
M05 
G1 X0.1
M03 S125
G1 X0.1
M05 
G1 X0.1
M03 S125
G1 X0.1
M05 
G1 X0.1
M03 S125
G1 X0.2
M05 
G1 X0.4
M03 S125
G1 X0.4
M05 
G1 X0.1
M03 S125
G1 X0.2
M05 
G1 X0.1
M03 S125
G1 X0.7
M05 
G1 X0.1
M03 S125
G1 X0.1
M05 
G1 X0.1
M03 S125
G1 X0.2
M05 
G1 X0.4
M03 S125
G1 X0.4
M05 
G1 X0.1
M03 S125
G1 X0.3
M05 
G1 X0.1
M03 S125
G1 X0.1
M05 
G1 X0.1
M03 S125
G1 X0.5
M05 
G1 X0.1
M03 S125
G1 X0.3
M05 
G1 X0.1
M03 S125
G1 X0.2
M05 
G1 X0.1
M03 S125
G1 X0.1
M05 
G1 X0.1
M03 S125
G1 X0.4
M05 
G1 X0.1
M03 S125
G1 X0.2
M05 
G1 X0.1
M03 S125
G1 X0.1
M05 
G1 X1.5
M03 S125
G1 X0.1
M05 
G1 X0.1
M03 S125
G1 X0.3
M05 
G1 X0.1
M03 S125
G1 X0.2
M05 
G1 X0.1
M03 S125
G1 X0.2
M05 
G1 X0.1
M03 S125
G1 X0.3
M05 
G1 X0.1
M03 S125
G1 X0.2
M05 
G1 X0.1
M03 S125
G1 X0.5
M05 
G1 X0.1
M03 S125
G1 X0.3
M05 
G1 X0.7
M03 S125
G1 X0.6
M05 
G1 X2.5
G1 X0.1Y0.1
G1 X-2.5
M03 S125
G1 X-0.3
M05 
G1 X-0.1
M03 S125
G1 X-0.1
M05 
G1 X-0.8
M03 S125
G1 X-0.3
M05 
G1 X-0.1
M03 S125
G1 X-0.2
M05 
G1 X-0.1
M03 S125
G1 X-0.1
M05 
G1 X-0.1
M03 S125
G1 X-0.2
M05 
G1 X-0.1
M03 S125
G1 X-0.4
M05 
G1 X-0.1
M03 S125
G1 X-0.4
M05 
G1 X-0.1
M03 S125
G1 X-0.3
M05 
G1 X-0.1
M03 S125
G1 X-0.2
M05 
G1 X-0.6
M03 S125
G1 X-0.5
M05 
G1 X-0.6
M03 S125
G1 X-0.1
M05 
G1 X-0.1
M03 S125
G1 X-0.4
M05 
G1 X-0.1
M03 S125
