; LightBurn 1.4.00
; Marlin device profile, absolute coords
; Bounds: X6.25 Y10.75 to X189.75 Y173.25
G21
G90
; Cut @ 10 mm/sec, 100% power
M8
M05 
G0 X8.358 Y10.885 F0
; Layer C00 Pass 1 of 3
M03 S1000
G1 X8.646 Y10.811 F600
G1 X8.944 Y10.765
G1 X9.25 Y10.75
G1 X10.25
G1  Y15.75
G1 X12.25
G1  Y10.75
G1 X85.25
G1  Y15.75
G1 X87.25
G1  Y10.75
G1 X162.25
G1  Y15.75
G1 X164.25
G1  Y10.75
G1 X165.25
G1 X165.557 Y10.765
G1 X165.855 Y10.811
G1 X166.142 Y10.885
G1 X166.418 Y10.986
G1 X166.68 Y11.112
G1 X166.928 Y11.262
G1 X167.159 Y11.435
G1 X167.372 Y11.629
G1 X167.565 Y11.842
G1 X167.738 Y12.073
G1 X167.888 Y12.32
G1 X168.014 Y12.582
G1 X168.115 Y12.858
G1 X168.189 Y13.145
G1 X168.235 Y13.443
G1 X168.25 Y13.75
G1  Y22.75
G1 X168.235 Y23.057
G1 X168.189 Y23.355
G1 X168.115 Y23.642
G1 X168.014 Y23.918
G1 X167.888 Y24.18
G1 X167.738 Y24.427
G1 X167.565 Y24.658
G1 X167.372 Y24.871
G1 X167.159 Y25.065
G1 X166.928 Y25.238
G1 X166.68 Y25.388
G1 X166.418 Y25.514
G1 X166.142 Y25.615
G1 X165.855 Y25.689
G1 X165.557 Y25.734
G1 X165.25 Y25.75
G1 X9.25
G1 X8.944 Y25.734
G1 X8.646 Y25.689
G1 X8.358 Y25.615
G1 X8.083 Y25.514
G1 X7.82 Y25.388
G1 X7.573 Y25.238
G1 X7.342 Y25.065
G1 X7.129 Y24.871
G1 X6.935 Y24.658
G1 X6.763 Y24.427
G1 X6.612 Y24.18
G1 X6.486 Y23.918
G1 X6.385 Y23.642
G1 X6.311 Y23.355
G1 X6.266 Y23.057
G1 X6.25 Y22.75
G1  Y13.75
G1 X6.266 Y13.443
G1 X6.311 Y13.145
G1 X6.385 Y12.858
G1 X6.486 Y12.582
G1 X6.612 Y12.32
G1 X6.763 Y12.073
G1 X6.935 Y11.842
G1 X7.129 Y11.629
G1 X7.342 Y11.435
G1 X7.573 Y11.262
G1 X7.82 Y11.112
G1 X8.083 Y10.986
G1 X8.358 Y10.885
; Layer C00 Pass 2 of 3
G1 X8.646 Y10.811
G1 X8.944 Y10.765
G1 X9.25 Y10.75
G1 X10.25
G1  Y15.75
G1 X12.25
G1  Y10.75
G1 X85.25
G1  Y15.75
G1 X87.25
G1  Y10.75
G1 X162.25
G1  Y15.75
G1 X164.25
G1  Y10.75
G1 X165.25
G1 X165.557 Y10.765
G1 X165.855 Y10.811
G1 X166.142 Y10.885
G1 X166.418 Y10.986
G1 X166.68 Y11.112
G1 X166.928 Y11.262
G1 X167.159 Y11.435
G1 X167.372 Y11.629
G1 X167.565 Y11.842
G1 X167.738 Y12.073
G1 X167.888 Y12.32
G1 X168.014 Y12.582
G1 X168.115 Y12.858
G1 X168.189 Y13.145
G1 X168.235 Y13.443
G1 X168.25 Y13.75
G1  Y22.75
G1 X168.235 Y23.057
G1 X168.189 Y23.355
G1 X168.115 Y23.642
G1 X168.014 Y23.918
G1 X167.888 Y24.18
G1 X167.738 Y24.427
G1 X167.565 Y24.658
G1 X167.372 Y24.871
G1 X167.159 Y25.065
G1 X166.928 Y25.238
G1 X166.68 Y25.388
G1 X166.418 Y25.514
G1 X166.142 Y25.615
G1 X165.855 Y25.689
G1 X165.557 Y25.734
G1 X165.25 Y25.75
G1 X9.25
G1 X8.944 Y25.734
G1 X8.646 Y25.689
G1 X8.358 Y25.615
G1 X8.083 Y25.514
G1 X7.82 Y25.388
G1 X7.573 Y25.238
G1 X7.342 Y25.065
G1 X7.129 Y24.871
G1 X6.935 Y24.658
G1 X6.763 Y24.427
G1 X6.612 Y24.18
G1 X6.486 Y23.918
G1 X6.385 Y23.642
G1 X6.311 Y23.355
G1 X6.266 Y23.057
G1 X6.25 Y22.75
G1  Y13.75
G1 X6.266 Y13.443
G1 X6.311 Y13.145
G1 X6.385 Y12.858
G1 X6.486 Y12.582
G1 X6.612 Y12.32
G1 X6.763 Y12.073
G1 X6.935 Y11.842
G1 X7.129 Y11.629
G1 X7.342 Y11.435
G1 X7.573 Y11.262
G1 X7.82 Y11.112
G1 X8.083 Y10.986
G1 X8.358 Y10.885
; Layer C00 Pass 3 of 3
G1 X8.646 Y10.811
G1 X8.944 Y10.765
G1 X9.25 Y10.75
G1 X10.25
G1  Y15.75
G1 X12.25
G1  Y10.75
G1 X85.25
G1  Y15.75
G1 X87.25
G1  Y10.75
G1 X162.25
G1  Y15.75
G1 X164.25
G1  Y10.75
G1 X165.25
G1 X165.557 Y10.765
G1 X165.855 Y10.811
G1 X166.142 Y10.885
G1 X166.418 Y10.986
G1 X166.68 Y11.112
G1 X166.928 Y11.262
G1 X167.159 Y11.435
G1 X167.372 Y11.629
G1 X167.565 Y11.842
G1 X167.738 Y12.073
G1 X167.888 Y12.32
G1 X168.014 Y12.582
G1 X168.115 Y12.858
G1 X168.189 Y13.145
G1 X168.235 Y13.443
G1 X168.25 Y13.75
G1  Y22.75
G1 X168.235 Y23.057
G1 X168.189 Y23.355
G1 X168.115 Y23.642
G1 X168.014 Y23.918
G1 X167.888 Y24.18
G1 X167.738 Y24.427
G1 X167.565 Y24.658
G1 X167.372 Y24.871
G1 X167.159 Y25.065
G1 X166.928 Y25.238
G1 X166.68 Y25.388
G1 X166.418 Y25.514
G1 X166.142 Y25.615
G1 X165.855 Y25.689
G1 X165.557 Y25.734
G1 X165.25 Y25.75
G1 X9.25
G1 X8.944 Y25.734
G1 X8.646 Y25.689
G1 X8.358 Y25.615
G1 X8.083 Y25.514
G1 X7.82 Y25.388
G1 X7.573 Y25.238
G1 X7.342 Y25.065
G1 X7.129 Y24.871
G1 X6.935 Y24.658
G1 X6.763 Y24.427
G1 X6.612 Y24.18
G1 X6.486 Y23.918
G1 X6.385 Y23.642
G1 X6.311 Y23.355
G1 X6.266 Y23.057
G1 X6.25 Y22.75
G1  Y13.75
G1 X6.266 Y13.443
G1 X6.311 Y13.145
G1 X6.385 Y12.858
G1 X6.486 Y12.582
G1 X6.612 Y12.32
G1 X6.763 Y12.073
G1 X6.935 Y11.842
G1 X7.129 Y11.629
G1 X7.342 Y11.435
G1 X7.573 Y11.262
G1 X7.82 Y11.112
G1 X8.083 Y10.986
G1 X8.358 Y10.885
M05 
G0 X9.25 Y27.75 F0
; Layer C00 Pass 1 of 3
M03 S1000
G1 X10.25 F600
G1  Y32.75
G1 X12.25
G1  Y27.75
G1 X85.25
G1  Y32.75
G1 X87.25
G1  Y27.75
G1 X162.25
G1  Y32.75
G1 X164.25
G1  Y27.75
G1 X165.25
G1 X165.557 Y27.766
G1 X165.855 Y27.811
G1 X166.142 Y27.885
G1 X166.418 Y27.986
G1 X166.68 Y28.112
G1 X166.928 Y28.262
G1 X167.159 Y28.435
G1 X167.372 Y28.629
G1 X167.565 Y28.842
G1 X167.738 Y29.073
G1 X167.888 Y29.32
G1 X168.014 Y29.582
G1 X168.115 Y29.858
G1 X168.189 Y30.145
G1 X168.235 Y30.443
G1 X168.25 Y30.75
G1  Y39.75
G1 X168.235 Y40.057
G1 X168.189 Y40.355
G1 X168.115 Y40.642
G1 X168.014 Y40.918
G1 X167.888 Y41.18
G1 X167.738 Y41.427
G1 X167.565 Y41.658
G1 X167.372 Y41.871
G1 X167.159 Y42.065
G1 X166.928 Y42.238
G1 X166.68 Y42.388
G1 X166.418 Y42.514
G1 X166.142 Y42.615
G1 X165.855 Y42.689
G1 X165.557 Y42.735
G1 X165.25 Y42.75
G1 X9.25
G1 X8.944 Y42.735
G1 X8.646 Y42.689
G1 X8.358 Y42.615
G1 X8.083 Y42.514
G1 X7.82 Y42.388
G1 X7.573 Y42.238
G1 X7.342 Y42.065
G1 X7.129 Y41.871
G1 X6.935 Y41.658
G1 X6.763 Y41.427
G1 X6.612 Y41.18
G1 X6.486 Y40.918
G1 X6.385 Y40.642
G1 X6.311 Y40.355
G1 X6.266 Y40.057
G1 X6.25 Y39.75
G1  Y30.75
G1 X6.266 Y30.443
G1 X6.311 Y30.145
G1 X6.385 Y29.858
G1 X6.486 Y29.582
G1 X6.612 Y29.32
G1 X6.763 Y29.073
G1 X6.935 Y28.842
G1 X7.129 Y28.629
G1 X7.342 Y28.435
G1 X7.573 Y28.262
G1 X7.82 Y28.112
G1 X8.083 Y27.986
G1 X8.358 Y27.885
G1 X8.646 Y27.811
G1 X8.944 Y27.766
G1 X9.25 Y27.75
; Layer C00 Pass 2 of 3
G1 X10.25
G1  Y32.75
G1 X12.25
G1  Y27.75
G1 X85.25
G1  Y32.75
G1 X87.25
G1  Y27.75
G1 X162.25
G1  Y32.75
G1 X164.25
G1  Y27.75
G1 X165.25
G1 X165.557 Y27.766
G1 X165.855 Y27.811
G1 X166.142 Y27.885
G1 X166.418 Y27.986
G1 X166.68 Y28.112
G1 X166.928 Y28.262
G1 X167.159 Y28.435
G1 X167.372 Y28.629
G1 X167.565 Y28.842
G1 X167.738 Y29.073
G1 X167.888 Y29.32
G1 X168.014 Y29.582
G1 X168.115 Y29.858
G1 X168.189 Y30.145
G1 X168.235 Y30.443
G1 X168.25 Y30.75
G1  Y39.75
G1 X168.235 Y40.057
G1 X168.189 Y40.355
G1 X168.115 Y40.642
G1 X168.014 Y40.918
G1 X167.888 Y41.18
G1 X167.738 Y41.427
G1 X167.565 Y41.658
G1 X167.372 Y41.871
G1 X167.159 Y42.065
G1 X166.928 Y42.238
G1 X166.68 Y42.388
G1 X166.418 Y42.514
G1 X166.142 Y42.615
G1 X165.855 Y42.689
G1 X165.557 Y42.735
G1 X165.25 Y42.75
G1 X9.25
G1 X8.944 Y42.735
G1 X8.646 Y42.689
G1 X8.358 Y42.615
G1 X8.083 Y42.514
G1 X7.82 Y42.388
G1 X7.573 Y42.238
G1 X7.342 Y42.065
G1 X7.129 Y41.871
G1 X6.935 Y41.658
G1 X6.763 Y41.427
G1 X6.612 Y41.18
G1 X6.486 Y40.918
G1 X6.385 Y40.642
G1 X6.311 Y40.355
G1 X6.266 Y40.057
G1 X6.25 Y39.75
G1  Y30.75
G1 X6.266 Y30.443
G1 X6.311 Y30.145
G1 X6.385 Y29.858
G1 X6.486 Y29.582
G1 X6.612 Y29.32
G1 X6.763 Y29.073
G1 X6.935 Y28.842
G1 X7.129 Y28.629
G1 X7.342 Y28.435
G1 X7.573 Y28.262
G1 X7.82 Y28.112
G1 X8.083 Y27.986
G1 X8.358 Y27.885
G1 X8.646 Y27.811
G1 X8.944 Y27.766
G1 X9.25 Y27.75
; Layer C00 Pass 3 of 3
G1 X10.25
G1  Y32.75
G1 X12.25
G1  Y27.75
G1 X85.25
G1  Y32.75
G1 X87.25
G1  Y27.75
G1 X162.25
G1  Y32.75
G1 X164.25
G1  Y27.75
G1 X165.25
G1 X165.557 Y27.766
G1 X165.855 Y27.811
G1 X166.142 Y27.885
G1 X166.418 Y27.986
G1 X166.68 Y28.112
G1 X166.928 Y28.262
G1 X167.159 Y28.435
G1 X167.372 Y28.629
G1 X167.565 Y28.842
G1 X167.738 Y29.073
G1 X167.888 Y29.32
G1 X168.014 Y29.582
G1 X168.115 Y29.858
G1 X168.189 Y30.145
G1 X168.235 Y30.443
G1 X168.25 Y30.75
G1  Y39.75
G1 X168.235 Y40.057
G1 X168.189 Y40.355
G1 X168.115 Y40.642
G1 X168.014 Y40.918
G1 X167.888 Y41.18
G1 X167.738 Y41.427
G1 X167.565 Y41.658
G1 X167.372 Y41.871
G1 X167.159 Y42.065
G1 X166.928 Y42.238
G1 X166.68 Y42.388
G1 X166.418 Y42.514
G1 X166.142 Y42.615
G1 X165.855 Y42.689
G1 X165.557 Y42.735
G1 X165.25 Y42.75
G1 X9.25
G1 X8.944 Y42.735
G1 X8.646 Y42.689
G1 X8.358 Y42.615
G1 X8.083 Y42.514
G1 X7.82 Y42.388
G1 X7.573 Y42.238
G1 X7.342 Y42.065
G1 X7.129 Y41.871
G1 X6.935 Y41.658
G1 X6.763 Y41.427
G1 X6.612 Y41.18
G1 X6.486 Y40.918
G1 X6.385 Y40.642
G1 X6.311 Y40.355
G1 X6.266 Y40.057
G1 X6.25 Y39.75
G1  Y30.75
G1 X6.266 Y30.443
G1 X6.311 Y30.145
G1 X6.385 Y29.858
G1 X6.486 Y29.582
G1 X6.612 Y29.32
G1 X6.763 Y29.073
G1 X6.935 Y28.842
G1 X7.129 Y28.629
G1 X7.342 Y28.435
G1 X7.573 Y28.262
G1 X7.82 Y28.112
G1 X8.083 Y27.986
G1 X8.358 Y27.885
G1 X8.646 Y27.811
G1 X8.944 Y27.766
G1 X9.25 Y27.75
M05 
G0 X9.25 Y44.75 F0
; Layer C00 Pass 1 of 3
M03 S1000
G1 X10.25 F600
G1  Y49.75
G1 X12.25
G1  Y44.75
G1 X87.25
G1  Y49.75
G1 X89.25
G1  Y44.75
G1 X162.25
G1  Y49.75
G1 X164.25
G1  Y44.75
G1 X165.25
G1 X165.557 Y44.765
G1 X165.855 Y44.811
G1 X166.142 Y44.885
G1 X166.418 Y44.985
G1 X166.68 Y45.112
G1 X166.928 Y45.262
G1 X167.159 Y45.435
G1 X167.372 Y45.628
G1 X167.565 Y45.841
G1 X167.738 Y46.072
G1 X167.888 Y46.32
G1 X168.014 Y46.582
G1 X168.115 Y46.858
G1 X168.189 Y47.145
G1 X168.235 Y47.443
G1 X168.25 Y47.75
G1  Y56.75
G1 X168.235 Y57.056
G1 X168.189 Y57.354
G1 X168.115 Y57.642
G1 X168.014 Y57.917
G1 X167.888 Y58.18
G1 X167.738 Y58.427
G1 X167.565 Y58.658
G1 X167.372 Y58.871
G1 X167.159 Y59.065
G1 X166.928 Y59.237
G1 X166.68 Y59.388
G1 X166.418 Y59.514
G1 X166.142 Y59.615
G1 X165.855 Y59.689
G1 X165.557 Y59.734
G1 X165.25 Y59.75
G1 X9.25
G1 X8.944 Y59.734
G1 X8.646 Y59.689
G1 X8.358 Y59.615
G1 X8.083 Y59.514
G1 X7.82 Y59.388
G1 X7.573 Y59.237
G1 X7.342 Y59.065
G1 X7.129 Y58.871
G1 X6.935 Y58.658
G1 X6.763 Y58.427
G1 X6.612 Y58.18
G1 X6.486 Y57.917
G1 X6.385 Y57.642
G1 X6.311 Y57.354
G1 X6.266 Y57.056
G1 X6.25 Y56.75
G1  Y47.75
G1 X6.266 Y47.443
G1 X6.311 Y47.145
G1 X6.385 Y46.858
G1 X6.486 Y46.582
G1 X6.612 Y46.32
G1 X6.763 Y46.072
G1 X6.935 Y45.841
G1 X7.129 Y45.628
G1 X7.342 Y45.435
G1 X7.573 Y45.262
G1 X7.82 Y45.112
G1 X8.083 Y44.985
G1 X8.358 Y44.885
G1 X8.646 Y44.811
G1 X8.944 Y44.765
G1 X9.25 Y44.75
; Layer C00 Pass 2 of 3
G1 X10.25
G1  Y49.75
G1 X12.25
G1  Y44.75
G1 X87.25
G1  Y49.75
G1 X89.25
G1  Y44.75
G1 X162.25
G1  Y49.75
G1 X164.25
G1  Y44.75
G1 X165.25
G1 X165.557 Y44.765
G1 X165.855 Y44.811
G1 X166.142 Y44.885
G1 X166.418 Y44.985
G1 X166.68 Y45.112
G1 X166.928 Y45.262
G1 X167.159 Y45.435
G1 X167.372 Y45.628
G1 X167.565 Y45.841
G1 X167.738 Y46.072
G1 X167.888 Y46.32
G1 X168.014 Y46.582
G1 X168.115 Y46.858
G1 X168.189 Y47.145
G1 X168.235 Y47.443
G1 X168.25 Y47.75
G1  Y56.75
G1 X168.235 Y57.056
G1 X168.189 Y57.354
G1 X168.115 Y57.642
G1 X168.014 Y57.917
G1 X167.888 Y58.18
G1 X167.738 Y58.427
G1 X167.565 Y58.658
G1 X167.372 Y58.871
G1 X167.159 Y59.065
G1 X166.928 Y59.237
G1 X166.68 Y59.388
G1 X166.418 Y59.514
G1 X166.142 Y59.615
G1 X165.855 Y59.689
G1 X165.557 Y59.734
G1 X165.25 Y59.75
G1 X9.25
G1 X8.944 Y59.734
G1 X8.646 Y59.689
G1 X8.358 Y59.615
G1 X8.083 Y59.514
G1 X7.82 Y59.388
G1 X7.573 Y59.237
G1 X7.342 Y59.065
G1 X7.129 Y58.871
G1 X6.935 Y58.658
G1 X6.763 Y58.427
G1 X6.612 Y58.18
G1 X6.486 Y57.917
G1 X6.385 Y57.642
G1 X6.311 Y57.354
G1 X6.266 Y57.056
G1 X6.25 Y56.75
G1  Y47.75
G1 X6.266 Y47.443
G1 X6.311 Y47.145
G1 X6.385 Y46.858
G1 X6.486 Y46.582
G1 X6.612 Y46.32
G1 X6.763 Y46.072
G1 X6.935 Y45.841
G1 X7.129 Y45.628
G1 X7.342 Y45.435
G1 X7.573 Y45.262
G1 X7.82 Y45.112
G1 X8.083 Y44.985
G1 X8.358 Y44.885
G1 X8.646 Y44.811
G1 X8.944 Y44.765
G1 X9.25 Y44.75
; Layer C00 Pass 3 of 3
G1 X10.25
G1  Y49.75
G1 X12.25
G1  Y44.75
G1 X87.25
G1  Y49.75
G1 X89.25
G1  Y44.75
G1 X162.25
G1  Y49.75
G1 X164.25
G1  Y44.75
G1 X165.25
G1 X165.557 Y44.765
G1 X165.855 Y44.811
G1 X166.142 Y44.885
G1 X166.418 Y44.985
G1 X166.68 Y45.112
G1 X166.928 Y45.262
G1 X167.159 Y45.435
G1 X167.372 Y45.628
G1 X167.565 Y45.841
G1 X167.738 Y46.072
G1 X167.888 Y46.32
G1 X168.014 Y46.582
G1 X168.115 Y46.858
G1 X168.189 Y47.145
G1 X168.235 Y47.443
G1 X168.25 Y47.75
G1  Y56.75
G1 X168.235 Y57.056
G1 X168.189 Y57.354
G1 X168.115 Y57.642
G1 X168.014 Y57.917
G1 X167.888 Y58.18
G1 X167.738 Y58.427
G1 X167.565 Y58.658
G1 X167.372 Y58.871
G1 X167.159 Y59.065
G1 X166.928 Y59.237
G1 X166.68 Y59.388
G1 X166.418 Y59.514
G1 X166.142 Y59.615
G1 X165.855 Y59.689
G1 X165.557 Y59.734
G1 X165.25 Y59.75
G1 X9.25
G1 X8.944 Y59.734
G1 X8.646 Y59.689
G1 X8.358 Y59.615
G1 X8.083 Y59.514
G1 X7.82 Y59.388
G1 X7.573 Y59.237
G1 X7.342 Y59.065
G1 X7.129 Y58.871
G1 X6.935 Y58.658
G1 X6.763 Y58.427
G1 X6.612 Y58.18
G1 X6.486 Y57.917
G1 X6.385 Y57.642
G1 X6.311 Y57.354
G1 X6.266 Y57.056
G1 X6.25 Y56.75
G1  Y47.75
G1 X6.266 Y47.443
G1 X6.311 Y47.145
G1 X6.385 Y46.858
G1 X6.486 Y46.582
G1 X6.612 Y46.32
G1 X6.763 Y46.072
G1 X6.935 Y45.841
G1 X7.129 Y45.628
G1 X7.342 Y45.435
G1 X7.573 Y45.262
G1 X7.82 Y45.112
G1 X8.083 Y44.985
G1 X8.358 Y44.885
G1 X8.646 Y44.811
G1 X8.944 Y44.765
G1 X9.25 Y44.75
M05 
G0 X9.25 Y61.75 F0
; Layer C00 Pass 1 of 3
M03 S1000
G1 X10.25 F600
G1  Y66.75
G1 X12.25
G1  Y61.75
G1 X87.25
G1  Y66.75
G1 X89.25
G1  Y61.75
G1 X162.25
G1  Y66.75
G1 X164.25
G1  Y61.75
G1 X165.25
G1 X165.557 Y61.765
G1 X165.855 Y61.811
G1 X166.142 Y61.885
G1 X166.418 Y61.985
G1 X166.68 Y62.112
G1 X166.928 Y62.262
G1 X167.159 Y62.435
G1 X167.372 Y62.628
G1 X167.565 Y62.841
G1 X167.738 Y63.072
G1 X167.888 Y63.32
G1 X168.014 Y63.582
G1 X168.115 Y63.858
G1 X168.189 Y64.145
G1 X168.235 Y64.443
G1 X168.25 Y64.75
G1  Y73.75
G1 X168.235 Y74.056
G1 X168.189 Y74.354
G1 X168.115 Y74.642
G1 X168.014 Y74.917
G1 X167.888 Y75.18
G1 X167.738 Y75.427
G1 X167.565 Y75.658
G1 X167.372 Y75.871
G1 X167.159 Y76.065
G1 X166.928 Y76.237
G1 X166.68 Y76.388
G1 X166.418 Y76.514
G1 X166.142 Y76.615
G1 X165.855 Y76.689
G1 X165.557 Y76.734
G1 X165.25 Y76.75
G1 X9.25
G1 X8.944 Y76.734
G1 X8.646 Y76.689
G1 X8.358 Y76.615
G1 X8.083 Y76.514
G1 X7.82 Y76.388
G1 X7.573 Y76.237
G1 X7.342 Y76.065
G1 X7.129 Y75.871
G1 X6.935 Y75.658
G1 X6.763 Y75.427
G1 X6.612 Y75.18
G1 X6.486 Y74.917
G1 X6.385 Y74.642
G1 X6.311 Y74.354
G1 X6.266 Y74.056
G1 X6.25 Y73.75
G1  Y64.75
G1 X6.266 Y64.443
G1 X6.311 Y64.145
G1 X6.385 Y63.858
G1 X6.486 Y63.582
G1 X6.612 Y63.32
G1 X6.763 Y63.072
G1 X6.935 Y62.841
G1 X7.129 Y62.628
G1 X7.342 Y62.435
G1 X7.573 Y62.262
G1 X7.82 Y62.112
G1 X8.083 Y61.985
G1 X8.358 Y61.885
G1 X8.646 Y61.811
G1 X8.944 Y61.765
G1 X9.25 Y61.75
; Layer C00 Pass 2 of 3
G1 X10.25
G1  Y66.75
G1 X12.25
G1  Y61.75
G1 X87.25
G1  Y66.75
G1 X89.25
G1  Y61.75
G1 X162.25
G1  Y66.75
G1 X164.25
G1  Y61.75
G1 X165.25
G1 X165.557 Y61.765
G1 X165.855 Y61.811
G1 X166.142 Y61.885
G1 X166.418 Y61.985
G1 X166.68 Y62.112
G1 X166.928 Y62.262
G1 X167.159 Y62.435
G1 X167.372 Y62.628
G1 X167.565 Y62.841
G1 X167.738 Y63.072
G1 X167.888 Y63.32
G1 X168.014 Y63.582
G1 X168.115 Y63.858
G1 X168.189 Y64.145
G1 X168.235 Y64.443
G1 X168.25 Y64.75
G1  Y73.75
G1 X168.235 Y74.056
G1 X168.189 Y74.354
G1 X168.115 Y74.642
G1 X168.014 Y74.917
G1 X167.888 Y75.18
G1 X167.738 Y75.427
G1 X167.565 Y75.658
G1 X167.372 Y75.871
G1 X167.159 Y76.065
G1 X166.928 Y76.237
G1 X166.68 Y76.388
G1 X166.418 Y76.514
G1 X166.142 Y76.615
G1 X165.855 Y76.689
G1 X165.557 Y76.734
G1 X165.25 Y76.75
G1 X9.25
G1 X8.944 Y76.734
G1 X8.646 Y76.689
G1 X8.358 Y76.615
G1 X8.083 Y76.514
G1 X7.82 Y76.388
G1 X7.573 Y76.237
G1 X7.342 Y76.065
G1 X7.129 Y75.871
G1 X6.935 Y75.658
G1 X6.763 Y75.427
G1 X6.612 Y75.18
G1 X6.486 Y74.917
G1 X6.385 Y74.642
G1 X6.311 Y74.354
G1 X6.266 Y74.056
G1 X6.25 Y73.75
G1  Y64.75
G1 X6.266 Y64.443
G1 X6.311 Y64.145
G1 X6.385 Y63.858
G1 X6.486 Y63.582
G1 X6.612 Y63.32
G1 X6.763 Y63.072
G1 X6.935 Y62.841
G1 X7.129 Y62.628
G1 X7.342 Y62.435
G1 X7.573 Y62.262
G1 X7.82 Y62.112
G1 X8.083 Y61.985
G1 X8.358 Y61.885
G1 X8.646 Y61.811
G1 X8.944 Y61.765
G1 X9.25 Y61.75
; Layer C00 Pass 3 of 3
G1 X10.25
G1  Y66.75
G1 X12.25
G1  Y61.75
G1 X87.25
G1  Y66.75
G1 X89.25
G1  Y61.75
G1 X162.25
G1  Y66.75
G1 X164.25
G1  Y61.75
G1 X165.25
G1 X165.557 Y61.765
G1 X165.855 Y61.811
G1 X166.142 Y61.885
G1 X166.418 Y61.985
G1 X166.68 Y62.112
G1 X166.928 Y62.262
G1 X167.159 Y62.435
G1 X167.372 Y62.628
G1 X167.565 Y62.841
G1 X167.738 Y63.072
G1 X167.888 Y63.32
G1 X168.014 Y63.582
G1 X168.115 Y63.858
G1 X168.189 Y64.145
G1 X168.235 Y64.443
G1 X168.25 Y64.75
G1  Y73.75
G1 X168.235 Y74.056
G1 X168.189 Y74.354
G1 X168.115 Y74.642
G1 X168.014 Y74.917
G1 X167.888 Y75.18
G1 X167.738 Y75.427
G1 X167.565 Y75.658
G1 X167.372 Y75.871
G1 X167.159 Y76.065
G1 X166.928 Y76.237
G1 X166.68 Y76.388
G1 X166.418 Y76.514
G1 X166.142 Y76.615
G1 X165.855 Y76.689
G1 X165.557 Y76.734
G1 X165.25 Y76.75
G1 X9.25
G1 X8.944 Y76.734
G1 X8.646 Y76.689
G1 X8.358 Y76.615
G1 X8.083 Y76.514
G1 X7.82 Y76.388
G1 X7.573 Y76.237
G1 X7.342 Y76.065
G1 X7.129 Y75.871
G1 X6.935 Y75.658
G1 X6.763 Y75.427
G1 X6.612 Y75.18
G1 X6.486 Y74.917
G1 X6.385 Y74.642
G1 X6.311 Y74.354
G1 X6.266 Y74.056
G1 X6.25 Y73.75
G1  Y64.75
G1 X6.266 Y64.443
G1 X6.311 Y64.145
G1 X6.385 Y63.858
G1 X6.486 Y63.582
G1 X6.612 Y63.32
G1 X6.763 Y63.072
G1 X6.935 Y62.841
G1 X7.129 Y62.628
G1 X7.342 Y62.435
G1 X7.573 Y62.262
G1 X7.82 Y62.112
G1 X8.083 Y61.985
G1 X8.358 Y61.885
G1 X8.646 Y61.811
G1 X8.944 Y61.765
G1 X9.25 Y61.75
M05 
G0 X9.25 Y79.75 F0
; Layer C00 Pass 1 of 3
M03 S1000
G1 X10.25 F600
G1  Y84.75
G1 X12.25
G1  Y79.75
G1 X87.25
G1  Y84.75
G1 X89.25
G1  Y79.75
G1 X162.25
G1  Y84.75
G1 X164.25
G1  Y79.75
G1 X165.25
G1 X165.557 Y79.765
G1 X165.855 Y79.811
G1 X166.142 Y79.885
G1 X166.418 Y79.985
G1 X166.68 Y80.112
G1 X166.928 Y80.262
G1 X167.159 Y80.435
G1 X167.372 Y80.628
G1 X167.565 Y80.841
G1 X167.738 Y81.072
G1 X167.888 Y81.32
G1 X168.014 Y81.582
G1 X168.115 Y81.858
G1 X168.189 Y82.145
G1 X168.235 Y82.443
G1 X168.25 Y82.75
G1  Y91.75
G1 X168.235 Y92.056
G1 X168.189 Y92.354
G1 X168.115 Y92.642
G1 X168.014 Y92.917
G1 X167.888 Y93.18
G1 X167.738 Y93.427
G1 X167.565 Y93.658
G1 X167.372 Y93.871
G1 X167.159 Y94.065
G1 X166.928 Y94.237
G1 X166.68 Y94.388
G1 X166.418 Y94.514
G1 X166.142 Y94.615
G1 X165.855 Y94.689
G1 X165.557 Y94.734
G1 X165.25 Y94.75
G1 X9.25
G1 X8.944 Y94.734
G1 X8.646 Y94.689
G1 X8.358 Y94.615
G1 X8.083 Y94.514
G1 X7.82 Y94.388
G1 X7.573 Y94.237
G1 X7.342 Y94.065
G1 X7.129 Y93.871
G1 X6.935 Y93.658
G1 X6.763 Y93.427
G1 X6.612 Y93.18
G1 X6.486 Y92.917
G1 X6.385 Y92.642
G1 X6.311 Y92.354
G1 X6.266 Y92.056
G1 X6.25 Y91.75
G1  Y82.75
G1 X6.266 Y82.443
G1 X6.311 Y82.145
G1 X6.385 Y81.858
G1 X6.486 Y81.582
G1 X6.612 Y81.32
G1 X6.763 Y81.072
G1 X6.935 Y80.841
G1 X7.129 Y80.628
G1 X7.342 Y80.435
G1 X7.573 Y80.262
G1 X7.82 Y80.112
G1 X8.083 Y79.985
G1 X8.358 Y79.885
G1 X8.646 Y79.811
G1 X8.944 Y79.765
G1 X9.25 Y79.75
; Layer C00 Pass 2 of 3
G1 X10.25
G1  Y84.75
G1 X12.25
G1  Y79.75
G1 X87.25
G1  Y84.75
G1 X89.25
G1  Y79.75
G1 X162.25
G1  Y84.75
G1 X164.25
G1  Y79.75
G1 X165.25
G1 X165.557 Y79.765
G1 X165.855 Y79.811
G1 X166.142 Y79.885
G1 X166.418 Y79.985
G1 X166.68 Y80.112
G1 X166.928 Y80.262
G1 X167.159 Y80.435
G1 X167.372 Y80.628
G1 X167.565 Y80.841
G1 X167.738 Y81.072
G1 X167.888 Y81.32
G1 X168.014 Y81.582
G1 X168.115 Y81.858
G1 X168.189 Y82.145
G1 X168.235 Y82.443
G1 X168.25 Y82.75
G1  Y91.75
G1 X168.235 Y92.056
G1 X168.189 Y92.354
G1 X168.115 Y92.642
G1 X168.014 Y92.917
G1 X167.888 Y93.18
G1 X167.738 Y93.427
G1 X167.565 Y93.658
G1 X167.372 Y93.871
G1 X167.159 Y94.065
G1 X166.928 Y94.237
G1 X166.68 Y94.388
G1 X166.418 Y94.514
G1 X166.142 Y94.615
G1 X165.855 Y94.689
G1 X165.557 Y94.734
G1 X165.25 Y94.75
G1 X9.25
G1 X8.944 Y94.734
G1 X8.646 Y94.689
G1 X8.358 Y94.615
G1 X8.083 Y94.514
G1 X7.82 Y94.388
G1 X7.573 Y94.237
G1 X7.342 Y94.065
G1 X7.129 Y93.871
G1 X6.935 Y93.658
G1 X6.763 Y93.427
G1 X6.612 Y93.18
G1 X6.486 Y92.917
G1 X6.385 Y92.642
G1 X6.311 Y92.354
G1 X6.266 Y92.056
G1 X6.25 Y91.75
G1  Y82.75
G1 X6.266 Y82.443
G1 X6.311 Y82.145
G1 X6.385 Y81.858
G1 X6.486 Y81.582
G1 X6.612 Y81.32
G1 X6.763 Y81.072
G1 X6.935 Y80.841
G1 X7.129 Y80.628
G1 X7.342 Y80.435
G1 X7.573 Y80.262
G1 X7.82 Y80.112
G1 X8.083 Y79.985
G1 X8.358 Y79.885
G1 X8.646 Y79.811
G1 X8.944 Y79.765
G1 X9.25 Y79.75
; Layer C00 Pass 3 of 3
G1 X10.25
G1  Y84.75
G1 X12.25
G1  Y79.75
G1 X87.25
G1  Y84.75
G1 X89.25
G1  Y79.75
G1 X162.25
G1  Y84.75
G1 X164.25
G1  Y79.75
G1 X165.25
G1 X165.557 Y79.765
G1 X165.855 Y79.811
G1 X166.142 Y79.885
G1 X166.418 Y79.985
G1 X166.68 Y80.112
G1 X166.928 Y80.262
G1 X167.159 Y80.435
G1 X167.372 Y80.628
G1 X167.565 Y80.841
G1 X167.738 Y81.072
G1 X167.888 Y81.32
G1 X168.014 Y81.582
G1 X168.115 Y81.858
G1 X168.189 Y82.145
G1 X168.235 Y82.443
G1 X168.25 Y82.75
G1  Y91.75
G1 X168.235 Y92.056
G1 X168.189 Y92.354
G1 X168.115 Y92.642
G1 X168.014 Y92.917
G1 X167.888 Y93.18
G1 X167.738 Y93.427
G1 X167.565 Y93.658
G1 X167.372 Y93.871
G1 X167.159 Y94.065
G1 X166.928 Y94.237
G1 X166.68 Y94.388
G1 X166.418 Y94.514
G1 X166.142 Y94.615
G1 X165.855 Y94.689
G1 X165.557 Y94.734
G1 X165.25 Y94.75
G1 X9.25
G1 X8.944 Y94.734
G1 X8.646 Y94.689
G1 X8.358 Y94.615
G1 X8.083 Y94.514
G1 X7.82 Y94.388
G1 X7.573 Y94.237
G1 X7.342 Y94.065
G1 X7.129 Y93.871
G1 X6.935 Y93.658
G1 X6.763 Y93.427
G1 X6.612 Y93.18
G1 X6.486 Y92.917
G1 X6.385 Y92.642
G1 X6.311 Y92.354
G1 X6.266 Y92.056
G1 X6.25 Y91.75
G1  Y82.75
G1 X6.266 Y82.443
G1 X6.311 Y82.145
G1 X6.385 Y81.858
G1 X6.486 Y81.582
G1 X6.612 Y81.32
G1 X6.763 Y81.072
G1 X6.935 Y80.841
G1 X7.129 Y80.628
G1 X7.342 Y80.435
G1 X7.573 Y80.262
G1 X7.82 Y80.112
G1 X8.083 Y79.985
G1 X8.358 Y79.885
G1 X8.646 Y79.811
G1 X8.944 Y79.765
G1 X9.25 Y79.75
M05 
G0 X9.25 Y95.75 F0
; Layer C00 Pass 1 of 3
M03 S1000
G1 X10.25 F600
G1  Y100.75
G1 X12.25
G1  Y95.75
G1 X87.25
G1  Y100.75
G1 X89.25
G1  Y95.75
G1 X162.25
G1  Y100.75
G1 X164.25
G1  Y95.75
G1 X165.25
G1 X165.557 Y95.765
G1 X165.855 Y95.811
G1 X166.142 Y95.885
G1 X166.418 Y95.985
G1 X166.68 Y96.112
G1 X166.928 Y96.262
G1 X167.159 Y96.435
G1 X167.372 Y96.628
G1 X167.565 Y96.841
G1 X167.738 Y97.072
G1 X167.888 Y97.32
G1 X168.014 Y97.582
G1 X168.115 Y97.858
G1 X168.189 Y98.145
G1 X168.235 Y98.443
G1 X168.25 Y98.75
G1  Y107.75
G1 X168.235 Y108.056
G1 X168.189 Y108.354
G1 X168.115 Y108.642
G1 X168.014 Y108.917
G1 X167.888 Y109.18
G1 X167.738 Y109.427
G1 X167.565 Y109.658
G1 X167.372 Y109.871
G1 X167.159 Y110.065
G1 X166.928 Y110.237
G1 X166.68 Y110.388
G1 X166.418 Y110.514
G1 X166.142 Y110.615
G1 X165.855 Y110.689
G1 X165.557 Y110.734
G1 X165.25 Y110.75
G1 X9.25
G1 X8.944 Y110.734
G1 X8.646 Y110.689
G1 X8.358 Y110.615
G1 X8.083 Y110.514
G1 X7.82 Y110.388
G1 X7.573 Y110.237
G1 X7.342 Y110.065
G1 X7.129 Y109.871
G1 X6.935 Y109.658
G1 X6.763 Y109.427
G1 X6.612 Y109.18
G1 X6.486 Y108.917
G1 X6.385 Y108.642
G1 X6.311 Y108.354
G1 X6.266 Y108.056
G1 X6.25 Y107.75
G1  Y98.75
G1 X6.266 Y98.443
G1 X6.311 Y98.145
G1 X6.385 Y97.858
G1 X6.486 Y97.582
G1 X6.612 Y97.32
G1 X6.763 Y97.072
G1 X6.935 Y96.841
G1 X7.129 Y96.628
G1 X7.342 Y96.435
G1 X7.573 Y96.262
G1 X7.82 Y96.112
G1 X8.083 Y95.985
G1 X8.358 Y95.885
G1 X8.646 Y95.811
G1 X8.944 Y95.765
G1 X9.25 Y95.75
; Layer C00 Pass 2 of 3
G1 X10.25
G1  Y100.75
G1 X12.25
G1  Y95.75
G1 X87.25
G1  Y100.75
G1 X89.25
G1  Y95.75
G1 X162.25
G1  Y100.75
G1 X164.25
G1  Y95.75
G1 X165.25
G1 X165.557 Y95.765
G1 X165.855 Y95.811
G1 X166.142 Y95.885
G1 X166.418 Y95.985
G1 X166.68 Y96.112
G1 X166.928 Y96.262
G1 X167.159 Y96.435
G1 X167.372 Y96.628
G1 X167.565 Y96.841
G1 X167.738 Y97.072
G1 X167.888 Y97.32
G1 X168.014 Y97.582
G1 X168.115 Y97.858
G1 X168.189 Y98.145
G1 X168.235 Y98.443
G1 X168.25 Y98.75
G1  Y107.75
G1 X168.235 Y108.056
G1 X168.189 Y108.354
G1 X168.115 Y108.642
G1 X168.014 Y108.917
G1 X167.888 Y109.18
G1 X167.738 Y109.427
G1 X167.565 Y109.658
G1 X167.372 Y109.871
G1 X167.159 Y110.065
G1 X166.928 Y110.237
G1 X166.68 Y110.388
G1 X166.418 Y110.514
G1 X166.142 Y110.615
G1 X165.855 Y110.689
G1 X165.557 Y110.734
G1 X165.25 Y110.75
G1 X9.25
G1 X8.944 Y110.734
G1 X8.646 Y110.689
G1 X8.358 Y110.615
G1 X8.083 Y110.514
G1 X7.82 Y110.388
G1 X7.573 Y110.237
G1 X7.342 Y110.065
G1 X7.129 Y109.871
G1 X6.935 Y109.658
G1 X6.763 Y109.427
G1 X6.612 Y109.18
G1 X6.486 Y108.917
G1 X6.385 Y108.642
G1 X6.311 Y108.354
G1 X6.266 Y108.056
G1 X6.25 Y107.75
G1  Y98.75
G1 X6.266 Y98.443
G1 X6.311 Y98.145
G1 X6.385 Y97.858
G1 X6.486 Y97.582
G1 X6.612 Y97.32
G1 X6.763 Y97.072
G1 X6.935 Y96.841
G1 X7.129 Y96.628
G1 X7.342 Y96.435
G1 X7.573 Y96.262
G1 X7.82 Y96.112
G1 X8.083 Y95.985
G1 X8.358 Y95.885
G1 X8.646 Y95.811
G1 X8.944 Y95.765
G1 X9.25 Y95.75
; Layer C00 Pass 3 of 3
G1 X10.25
G1  Y100.75
G1 X12.25
G1  Y95.75
G1 X87.25
G1  Y100.75
G1 X89.25
G1  Y95.75
G1 X162.25
G1  Y100.75
G1 X164.25
G1  Y95.75
G1 X165.25
G1 X165.557 Y95.765
G1 X165.855 Y95.811
G1 X166.142 Y95.885
G1 X166.418 Y95.985
G1 X166.68 Y96.112
G1 X166.928 Y96.262
G1 X167.159 Y96.435
G1 X167.372 Y96.628
G1 X167.565 Y96.841
G1 X167.738 Y97.072
G1 X167.888 Y97.32
G1 X168.014 Y97.582
G1 X168.115 Y97.858
G1 X168.189 Y98.145
G1 X168.235 Y98.443
G1 X168.25 Y98.75
G1  Y107.75
G1 X168.235 Y108.056
G1 X168.189 Y108.354
G1 X168.115 Y108.642
G1 X168.014 Y108.917
G1 X167.888 Y109.18
G1 X167.738 Y109.427
G1 X167.565 Y109.658
G1 X167.372 Y109.871
G1 X167.159 Y110.065
G1 X166.928 Y110.237
G1 X166.68 Y110.388
G1 X166.418 Y110.514
G1 X166.142 Y110.615
G1 X165.855 Y110.689
G1 X165.557 Y110.734
G1 X165.25 Y110.75
G1 X9.25
G1 X8.944 Y110.734
G1 X8.646 Y110.689
G1 X8.358 Y110.615
G1 X8.083 Y110.514
G1 X7.82 Y110.388
G1 X7.573 Y110.237
G1 X7.342 Y110.065
G1 X7.129 Y109.871
G1 X6.935 Y109.658
G1 X6.763 Y109.427
G1 X6.612 Y109.18
G1 X6.486 Y108.917
G1 X6.385 Y108.642
G1 X6.311 Y108.354
G1 X6.266 Y108.056
G1 X6.25 Y107.75
G1  Y98.75
G1 X6.266 Y98.443
G1 X6.311 Y98.145
G1 X6.385 Y97.858
G1 X6.486 Y97.582
G1 X6.612 Y97.32
G1 X6.763 Y97.072
G1 X6.935 Y96.841
G1 X7.129 Y96.628
G1 X7.342 Y96.435
G1 X7.573 Y96.262
G1 X7.82 Y96.112
G1 X8.083 Y95.985
G1 X8.358 Y95.885
G1 X8.646 Y95.811
G1 X8.944 Y95.765
G1 X9.25 Y95.75
M05 
G0 X10.25 Y113.75 F0
; Layer C00 Pass 1 of 3
M03 S1000
G1 X11.25 F600
G1  Y118.75
G1 X13.25
G1  Y113.75
G1 X88.25
G1  Y118.75
G1 X90.25
G1  Y113.75
G1 X163.25
G1  Y118.75
G1 X165.25
G1  Y113.75
G1 X166.25
G1 X166.557 Y113.765
G1 X166.855 Y113.811
G1 X167.142 Y113.885
G1 X167.418 Y113.985
G1 X167.68 Y114.112
G1 X167.928 Y114.262
G1 X168.159 Y114.435
G1 X168.372 Y114.628
G1 X168.565 Y114.841
G1 X168.738 Y115.072
G1 X168.888 Y115.32
G1 X169.014 Y115.582
G1 X169.115 Y115.858
G1 X169.189 Y116.145
G1 X169.235 Y116.443
G1 X169.25 Y116.75
G1  Y125.75
G1 X169.235 Y126.056
G1 X169.189 Y126.354
G1 X169.115 Y126.642
G1 X169.014 Y126.917
G1 X168.888 Y127.18
G1 X168.738 Y127.427
G1 X168.565 Y127.658
G1 X168.372 Y127.871
G1 X168.159 Y128.065
G1 X167.928 Y128.237
G1 X167.68 Y128.388
G1 X167.418 Y128.514
G1 X167.142 Y128.615
G1 X166.855 Y128.689
G1 X166.557 Y128.734
G1 X166.25 Y128.75
G1 X10.25
G1 X9.944 Y128.734
G1 X9.646 Y128.689
G1 X9.358 Y128.615
G1 X9.083 Y128.514
G1 X8.82 Y128.388
G1 X8.573 Y128.237
G1 X8.342 Y128.065
G1 X8.129 Y127.871
G1 X7.935 Y127.658
G1 X7.763 Y127.427
G1 X7.612 Y127.18
G1 X7.486 Y126.917
G1 X7.385 Y126.642
G1 X7.311 Y126.354
G1 X7.266 Y126.056
G1 X7.25 Y125.75
G1  Y116.75
G1 X7.266 Y116.443
G1 X7.311 Y116.145
G1 X7.385 Y115.858
G1 X7.486 Y115.582
G1 X7.612 Y115.32
G1 X7.763 Y115.072
G1 X7.935 Y114.841
G1 X8.129 Y114.628
G1 X8.342 Y114.435
G1 X8.573 Y114.262
G1 X8.82 Y114.112
G1 X9.083 Y113.985
G1 X9.358 Y113.885
G1 X9.646 Y113.811
G1 X9.944 Y113.765
G1 X10.25 Y113.75
; Layer C00 Pass 2 of 3
G1 X11.25
G1  Y118.75
G1 X13.25
G1  Y113.75
G1 X88.25
G1  Y118.75
G1 X90.25
G1  Y113.75
G1 X163.25
G1  Y118.75
G1 X165.25
G1  Y113.75
G1 X166.25
G1 X166.557 Y113.765
G1 X166.855 Y113.811
G1 X167.142 Y113.885
G1 X167.418 Y113.985
G1 X167.68 Y114.112
G1 X167.928 Y114.262
G1 X168.159 Y114.435
G1 X168.372 Y114.628
G1 X168.565 Y114.841
G1 X168.738 Y115.072
G1 X168.888 Y115.32
G1 X169.014 Y115.582
G1 X169.115 Y115.858
G1 X169.189 Y116.145
G1 X169.235 Y116.443
G1 X169.25 Y116.75
G1  Y125.75
G1 X169.235 Y126.056
G1 X169.189 Y126.354
G1 X169.115 Y126.642
G1 X169.014 Y126.917
G1 X168.888 Y127.18
G1 X168.738 Y127.427
G1 X168.565 Y127.658
G1 X168.372 Y127.871
G1 X168.159 Y128.065
G1 X167.928 Y128.237
G1 X167.68 Y128.388
G1 X167.418 Y128.514
G1 X167.142 Y128.615
G1 X166.855 Y128.689
G1 X166.557 Y128.734
G1 X166.25 Y128.75
G1 X10.25
G1 X9.944 Y128.734
G1 X9.646 Y128.689
G1 X9.358 Y128.615
G1 X9.083 Y128.514
G1 X8.82 Y128.388
G1 X8.573 Y128.237
G1 X8.342 Y128.065
G1 X8.129 Y127.871
G1 X7.935 Y127.658
G1 X7.763 Y127.427
G1 X7.612 Y127.18
G1 X7.486 Y126.917
G1 X7.385 Y126.642
G1 X7.311 Y126.354
G1 X7.266 Y126.056
G1 X7.25 Y125.75
G1  Y116.75
G1 X7.266 Y116.443
G1 X7.311 Y116.145
G1 X7.385 Y115.858
G1 X7.486 Y115.582
G1 X7.612 Y115.32
G1 X7.763 Y115.072
G1 X7.935 Y114.841
G1 X8.129 Y114.628
G1 X8.342 Y114.435
G1 X8.573 Y114.262
G1 X8.82 Y114.112
G1 X9.083 Y113.985
G1 X9.358 Y113.885
G1 X9.646 Y113.811
G1 X9.944 Y113.765
G1 X10.25 Y113.75
; Layer C00 Pass 3 of 3
G1 X11.25
G1  Y118.75
G1 X13.25
G1  Y113.75
G1 X88.25
G1  Y118.75
G1 X90.25
G1  Y113.75
G1 X163.25
G1  Y118.75
G1 X165.25
G1  Y113.75
G1 X166.25
G1 X166.557 Y113.765
G1 X166.855 Y113.811
G1 X167.142 Y113.885
G1 X167.418 Y113.985
G1 X167.68 Y114.112
G1 X167.928 Y114.262
G1 X168.159 Y114.435
G1 X168.372 Y114.628
G1 X168.565 Y114.841
G1 X168.738 Y115.072
G1 X168.888 Y115.32
G1 X169.014 Y115.582
G1 X169.115 Y115.858
G1 X169.189 Y116.145
G1 X169.235 Y116.443
G1 X169.25 Y116.75
G1  Y125.75
G1 X169.235 Y126.056
G1 X169.189 Y126.354
G1 X169.115 Y126.642
G1 X169.014 Y126.917
G1 X168.888 Y127.18
G1 X168.738 Y127.427
G1 X168.565 Y127.658
G1 X168.372 Y127.871
G1 X168.159 Y128.065
G1 X167.928 Y128.237
G1 X167.68 Y128.388
G1 X167.418 Y128.514
G1 X167.142 Y128.615
G1 X166.855 Y128.689
G1 X166.557 Y128.734
G1 X166.25 Y128.75
G1 X10.25
G1 X9.944 Y128.734
G1 X9.646 Y128.689
G1 X9.358 Y128.615
G1 X9.083 Y128.514
G1 X8.82 Y128.388
G1 X8.573 Y128.237
G1 X8.342 Y128.065
G1 X8.129 Y127.871
G1 X7.935 Y127.658
G1 X7.763 Y127.427
G1 X7.612 Y127.18
G1 X7.486 Y126.917
G1 X7.385 Y126.642
G1 X7.311 Y126.354
G1 X7.266 Y126.056
G1 X7.25 Y125.75
G1  Y116.75
G1 X7.266 Y116.443
G1 X7.311 Y116.145
G1 X7.385 Y115.858
G1 X7.486 Y115.582
G1 X7.612 Y115.32
G1 X7.763 Y115.072
G1 X7.935 Y114.841
G1 X8.129 Y114.628
G1 X8.342 Y114.435
G1 X8.573 Y114.262
G1 X8.82 Y114.112
G1 X9.083 Y113.985
G1 X9.358 Y113.885
G1 X9.646 Y113.811
G1 X9.944 Y113.765
G1 X10.25 Y113.75
M05 
G0 X10.25 Y131.75 F0
; Layer C00 Pass 1 of 3
M03 S1000
G1 X11.25 F600
G1  Y136.75
G1 X13.25
G1  Y131.75
G1 X88.25
G1  Y136.75
G1 X90.25
G1  Y131.75
G1 X163.25
G1  Y136.75
G1 X165.25
G1  Y131.75
G1 X166.25
G1 X166.557 Y131.765
G1 X166.855 Y131.811
G1 X167.142 Y131.885
G1 X167.418 Y131.985
G1 X167.68 Y132.112
G1 X167.928 Y132.262
G1 X168.159 Y132.435
G1 X168.372 Y132.628
G1 X168.565 Y132.841
G1 X168.738 Y133.072
G1 X168.888 Y133.32
G1 X169.014 Y133.582
G1 X169.115 Y133.858
G1 X169.189 Y134.145
G1 X169.235 Y134.443
G1 X169.25 Y134.75
G1  Y143.75
G1 X169.235 Y144.056
G1 X169.189 Y144.354
G1 X169.115 Y144.642
G1 X169.014 Y144.917
G1 X168.888 Y145.18
G1 X168.738 Y145.427
G1 X168.565 Y145.658
G1 X168.372 Y145.871
G1 X168.159 Y146.065
G1 X167.928 Y146.237
G1 X167.68 Y146.388
G1 X167.418 Y146.514
G1 X167.142 Y146.615
G1 X166.855 Y146.689
G1 X166.557 Y146.734
G1 X166.25 Y146.75
G1 X10.25
G1 X9.944 Y146.734
G1 X9.646 Y146.689
G1 X9.358 Y146.615
G1 X9.083 Y146.514
G1 X8.82 Y146.388
G1 X8.573 Y146.237
G1 X8.342 Y146.065
G1 X8.129 Y145.871
G1 X7.935 Y145.658
G1 X7.763 Y145.427
G1 X7.612 Y145.18
G1 X7.486 Y144.917
G1 X7.385 Y144.642
G1 X7.311 Y144.354
G1 X7.266 Y144.056
G1 X7.25 Y143.75
G1  Y134.75
G1 X7.266 Y134.443
G1 X7.311 Y134.145
G1 X7.385 Y133.858
G1 X7.486 Y133.582
G1 X7.612 Y133.32
G1 X7.763 Y133.072
G1 X7.935 Y132.841
G1 X8.129 Y132.628
G1 X8.342 Y132.435
G1 X8.573 Y132.262
G1 X8.82 Y132.112
G1 X9.083 Y131.985
G1 X9.358 Y131.885
G1 X9.646 Y131.811
G1 X9.944 Y131.765
G1 X10.25 Y131.75
; Layer C00 Pass 2 of 3
G1 X11.25
G1  Y136.75
G1 X13.25
G1  Y131.75
G1 X88.25
G1  Y136.75
G1 X90.25
G1  Y131.75
G1 X163.25
G1  Y136.75
G1 X165.25
G1  Y131.75
G1 X166.25
G1 X166.557 Y131.765
G1 X166.855 Y131.811
G1 X167.142 Y131.885
G1 X167.418 Y131.985
G1 X167.68 Y132.112
G1 X167.928 Y132.262
G1 X168.159 Y132.435
G1 X168.372 Y132.628
G1 X168.565 Y132.841
G1 X168.738 Y133.072
G1 X168.888 Y133.32
G1 X169.014 Y133.582
G1 X169.115 Y133.858
G1 X169.189 Y134.145
G1 X169.235 Y134.443
G1 X169.25 Y134.75
G1  Y143.75
G1 X169.235 Y144.056
G1 X169.189 Y144.354
G1 X169.115 Y144.642
G1 X169.014 Y144.917
G1 X168.888 Y145.18
G1 X168.738 Y145.427
G1 X168.565 Y145.658
G1 X168.372 Y145.871
G1 X168.159 Y146.065
G1 X167.928 Y146.237
G1 X167.68 Y146.388
G1 X167.418 Y146.514
G1 X167.142 Y146.615
G1 X166.855 Y146.689
G1 X166.557 Y146.734
G1 X166.25 Y146.75
G1 X10.25
G1 X9.944 Y146.734
G1 X9.646 Y146.689
G1 X9.358 Y146.615
G1 X9.083 Y146.514
G1 X8.82 Y146.388
G1 X8.573 Y146.237
G1 X8.342 Y146.065
G1 X8.129 Y145.871
G1 X7.935 Y145.658
G1 X7.763 Y145.427
G1 X7.612 Y145.18
G1 X7.486 Y144.917
G1 X7.385 Y144.642
G1 X7.311 Y144.354
G1 X7.266 Y144.056
G1 X7.25 Y143.75
G1  Y134.75
G1 X7.266 Y134.443
G1 X7.311 Y134.145
G1 X7.385 Y133.858
G1 X7.486 Y133.582
G1 X7.612 Y133.32
G1 X7.763 Y133.072
G1 X7.935 Y132.841
G1 X8.129 Y132.628
G1 X8.342 Y132.435
G1 X8.573 Y132.262
G1 X8.82 Y132.112
G1 X9.083 Y131.985
G1 X9.358 Y131.885
G1 X9.646 Y131.811
G1 X9.944 Y131.765
G1 X10.25 Y131.75
; Layer C00 Pass 3 of 3
G1 X11.25
G1  Y136.75
G1 X13.25
G1  Y131.75
G1 X88.25
G1  Y136.75
G1 X90.25
G1  Y131.75
G1 X163.25
G1  Y136.75
G1 X165.25
G1  Y131.75
G1 X166.25
G1 X166.557 Y131.765
G1 X166.855 Y131.811
G1 X167.142 Y131.885
G1 X167.418 Y131.985
G1 X167.68 Y132.112
G1 X167.928 Y132.262
G1 X168.159 Y132.435
G1 X168.372 Y132.628
G1 X168.565 Y132.841
G1 X168.738 Y133.072
G1 X168.888 Y133.32
G1 X169.014 Y133.582
G1 X169.115 Y133.858
G1 X169.189 Y134.145
G1 X169.235 Y134.443
G1 X169.25 Y134.75
G1  Y143.75
G1 X169.235 Y144.056
G1 X169.189 Y144.354
G1 X169.115 Y144.642
G1 X169.014 Y144.917
G1 X168.888 Y145.18
G1 X168.738 Y145.427
G1 X168.565 Y145.658
G1 X168.372 Y145.871
G1 X168.159 Y146.065
G1 X167.928 Y146.237
G1 X167.68 Y146.388
G1 X167.418 Y146.514
G1 X167.142 Y146.615
G1 X166.855 Y146.689
G1 X166.557 Y146.734
G1 X166.25 Y146.75
G1 X10.25
G1 X9.944 Y146.734
G1 X9.646 Y146.689
G1 X9.358 Y146.615
G1 X9.083 Y146.514
G1 X8.82 Y146.388
G1 X8.573 Y146.237
G1 X8.342 Y146.065
G1 X8.129 Y145.871
G1 X7.935 Y145.658
G1 X7.763 Y145.427
G1 X7.612 Y145.18
G1 X7.486 Y144.917
G1 X7.385 Y144.642
G1 X7.311 Y144.354
G1 X7.266 Y144.056
G1 X7.25 Y143.75
G1  Y134.75
G1 X7.266 Y134.443
G1 X7.311 Y134.145
G1 X7.385 Y133.858
G1 X7.486 Y133.582
G1 X7.612 Y133.32
G1 X7.763 Y133.072
G1 X7.935 Y132.841
G1 X8.129 Y132.628
G1 X8.342 Y132.435
G1 X8.573 Y132.262
G1 X8.82 Y132.112
G1 X9.083 Y131.985
G1 X9.358 Y131.885
G1 X9.646 Y131.811
G1 X9.944 Y131.765
G1 X10.25 Y131.75
M05 
G0 X10.25 Y149.75 F0
; Layer C00 Pass 1 of 3
M03 S1000
G1 X11.25 F600
G1  Y154.75
G1 X13.25
G1  Y149.75
G1 X86.25
G1  Y154.75
G1 X88.25
G1  Y149.75
G1 X163.25
G1  Y154.75
G1 X165.25
G1  Y149.75
G1 X166.25
G1 X166.557 Y149.766
G1 X166.855 Y149.811
G1 X167.142 Y149.885
G1 X167.418 Y149.986
G1 X167.68 Y150.112
G1 X167.928 Y150.262
G1 X168.159 Y150.435
G1 X168.372 Y150.629
G1 X168.565 Y150.842
G1 X168.738 Y151.073
G1 X168.888 Y151.32
G1 X169.014 Y151.582
G1 X169.115 Y151.858
G1 X169.189 Y152.145
G1 X169.235 Y152.443
G1 X169.25 Y152.75
G1  Y161.75
G1 X169.235 Y162.057
G1 X169.189 Y162.355
G1 X169.115 Y162.642
G1 X169.014 Y162.918
G1 X168.888 Y163.18
G1 X168.738 Y163.427
G1 X168.565 Y163.658
G1 X168.372 Y163.871
G1 X168.159 Y164.065
G1 X167.928 Y164.238
G1 X167.68 Y164.388
G1 X167.418 Y164.514
G1 X167.142 Y164.615
G1 X166.855 Y164.689
G1 X166.557 Y164.735
G1 X166.25 Y164.75
G1 X10.25
G1 X9.944 Y164.735
G1 X9.646 Y164.689
G1 X9.358 Y164.615
G1 X9.083 Y164.514
G1 X8.82 Y164.388
G1 X8.573 Y164.238
G1 X8.342 Y164.065
G1 X8.129 Y163.871
G1 X7.935 Y163.658
G1 X7.763 Y163.427
G1 X7.612 Y163.18
G1 X7.486 Y162.918
G1 X7.385 Y162.642
G1 X7.311 Y162.355
G1 X7.266 Y162.057
G1 X7.25 Y161.75
G1  Y152.75
G1 X7.266 Y152.443
G1 X7.311 Y152.145
G1 X7.385 Y151.858
G1 X7.486 Y151.582
G1 X7.612 Y151.32
G1 X7.763 Y151.073
G1 X7.935 Y150.842
G1 X8.129 Y150.629
G1 X8.342 Y150.435
G1 X8.573 Y150.262
G1 X8.82 Y150.112
G1 X9.083 Y149.986
G1 X9.358 Y149.885
G1 X9.646 Y149.811
G1 X9.944 Y149.766
G1 X10.25 Y149.75
; Layer C00 Pass 2 of 3
G1 X11.25
G1  Y154.75
G1 X13.25
G1  Y149.75
G1 X86.25
G1  Y154.75
G1 X88.25
G1  Y149.75
G1 X163.25
G1  Y154.75
G1 X165.25
G1  Y149.75
G1 X166.25
G1 X166.557 Y149.766
G1 X166.855 Y149.811
G1 X167.142 Y149.885
G1 X167.418 Y149.986
G1 X167.68 Y150.112
G1 X167.928 Y150.262
G1 X168.159 Y150.435
G1 X168.372 Y150.629
G1 X168.565 Y150.842
G1 X168.738 Y151.073
G1 X168.888 Y151.32
G1 X169.014 Y151.582
G1 X169.115 Y151.858
G1 X169.189 Y152.145
G1 X169.235 Y152.443
G1 X169.25 Y152.75
G1  Y161.75
G1 X169.235 Y162.057
G1 X169.189 Y162.355
G1 X169.115 Y162.642
G1 X169.014 Y162.918
G1 X168.888 Y163.18
G1 X168.738 Y163.427
G1 X168.565 Y163.658
G1 X168.372 Y163.871
G1 X168.159 Y164.065
G1 X167.928 Y164.238
G1 X167.68 Y164.388
G1 X167.418 Y164.514
G1 X167.142 Y164.615
G1 X166.855 Y164.689
G1 X166.557 Y164.735
G1 X166.25 Y164.75
G1 X10.25
G1 X9.944 Y164.735
G1 X9.646 Y164.689
G1 X9.358 Y164.615
G1 X9.083 Y164.514
G1 X8.82 Y164.388
G1 X8.573 Y164.238
G1 X8.342 Y164.065
G1 X8.129 Y163.871
G1 X7.935 Y163.658
G1 X7.763 Y163.427
G1 X7.612 Y163.18
G1 X7.486 Y162.918
G1 X7.385 Y162.642
G1 X7.311 Y162.355
G1 X7.266 Y162.057
G1 X7.25 Y161.75
G1  Y152.75
G1 X7.266 Y152.443
G1 X7.311 Y152.145
G1 X7.385 Y151.858
G1 X7.486 Y151.582
G1 X7.612 Y151.32
G1 X7.763 Y151.073
G1 X7.935 Y150.842
G1 X8.129 Y150.629
G1 X8.342 Y150.435
G1 X8.573 Y150.262
G1 X8.82 Y150.112
G1 X9.083 Y149.986
G1 X9.358 Y149.885
G1 X9.646 Y149.811
G1 X9.944 Y149.766
G1 X10.25 Y149.75
; Layer C00 Pass 3 of 3
G1 X11.25
G1  Y154.75
G1 X13.25
G1  Y149.75
G1 X86.25
G1  Y154.75
G1 X88.25
G1  Y149.75
G1 X163.25
G1  Y154.75
G1 X165.25
G1  Y149.75
G1 X166.25
G1 X166.557 Y149.766
G1 X166.855 Y149.811
G1 X167.142 Y149.885
G1 X167.418 Y149.986
G1 X167.68 Y150.112
G1 X167.928 Y150.262
G1 X168.159 Y150.435
G1 X168.372 Y150.629
G1 X168.565 Y150.842
G1 X168.738 Y151.073
G1 X168.888 Y151.32
G1 X169.014 Y151.582
G1 X169.115 Y151.858
G1 X169.189 Y152.145
G1 X169.235 Y152.443
G1 X169.25 Y152.75
G1  Y161.75
G1 X169.235 Y162.057
G1 X169.189 Y162.355
G1 X169.115 Y162.642
G1 X169.014 Y162.918
G1 X168.888 Y163.18
G1 X168.738 Y163.427
G1 X168.565 Y163.658
G1 X168.372 Y163.871
G1 X168.159 Y164.065
G1 X167.928 Y164.238
G1 X167.68 Y164.388
G1 X167.418 Y164.514
G1 X167.142 Y164.615
G1 X166.855 Y164.689
G1 X166.557 Y164.735
G1 X166.25 Y164.75
G1 X10.25
G1 X9.944 Y164.735
G1 X9.646 Y164.689
G1 X9.358 Y164.615
G1 X9.083 Y164.514
G1 X8.82 Y164.388
G1 X8.573 Y164.238
G1 X8.342 Y164.065
G1 X8.129 Y163.871
G1 X7.935 Y163.658
G1 X7.763 Y163.427
G1 X7.612 Y163.18
G1 X7.486 Y162.918
G1 X7.385 Y162.642
G1 X7.311 Y162.355
G1 X7.266 Y162.057
G1 X7.25 Y161.75
G1  Y152.75
G1 X7.266 Y152.443
G1 X7.311 Y152.145
G1 X7.385 Y151.858
G1 X7.486 Y151.582
G1 X7.612 Y151.32
G1 X7.763 Y151.073
G1 X7.935 Y150.842
G1 X8.129 Y150.629
G1 X8.342 Y150.435
G1 X8.573 Y150.262
G1 X8.82 Y150.112
G1 X9.083 Y149.986
G1 X9.358 Y149.885
G1 X9.646 Y149.811
G1 X9.944 Y149.766
G1 X10.25 Y149.75
M05 
G0 X174.75 Y170.25 F0
; Layer C00 Pass 1 of 3
M03 S1000
G1  Y14.25 F600
G1 X174.765 Y13.943
G1 X174.811 Y13.645
G1 X174.885 Y13.358
G1 X174.986 Y13.082
G1 X175.112 Y12.82
G1 X175.262 Y12.573
G1 X175.435 Y12.342
G1 X175.628 Y12.129
G1 X175.842 Y11.935
G1 X176.072 Y11.762
G1 X176.32 Y11.612
G1 X176.582 Y11.486
G1 X176.858 Y11.385
G1 X177.145 Y11.311
G1 X177.443 Y11.266
G1 X177.75 Y11.25
G1 X186.75
G1 X186.948
G1 X187.146 Y11.276
G1  Y15.25
G1 X184.75
G1  Y17.25
G1 X187.146
G1  Y21.25
G1 X189.75
G1  Y90.25
G1 X184.75
G1  Y92.25
G1 X189.75
G1  Y167.25
G1 X184.75
G1  Y169.25
G1 X189.75
G1  Y170.25
G1 X189.734 Y170.557
G1 X189.689 Y170.855
G1 X189.615 Y171.142
G1 X189.514 Y171.418
G1 X189.388 Y171.68
G1 X189.237 Y171.927
G1 X189.065 Y172.158
G1 X188.871 Y172.371
G1 X188.658 Y172.565
G1 X188.427 Y172.738
G1 X188.18 Y172.888
G1 X187.918 Y173.014
G1 X187.642 Y173.115
G1 X187.354 Y173.189
G1 X187.057 Y173.235
G1 X186.75 Y173.25
G1 X177.75
G1 X177.443 Y173.235
G1 X177.145 Y173.189
G1 X176.858 Y173.115
G1 X176.582 Y173.014
G1 X176.32 Y172.888
G1 X176.072 Y172.738
G1 X175.842 Y172.565
G1 X175.628 Y172.371
G1 X175.435 Y172.158
G1 X175.262 Y171.927
G1 X175.112 Y171.68
G1 X174.986 Y171.418
G1 X174.885 Y171.142
G1 X174.811 Y170.855
G1 X174.765 Y170.557
G1 X174.75 Y170.25
; Layer C00 Pass 2 of 3
G1  Y14.25
G1 X174.765 Y13.943
G1 X174.811 Y13.645
G1 X174.885 Y13.358
G1 X174.986 Y13.082
G1 X175.112 Y12.82
G1 X175.262 Y12.573
G1 X175.435 Y12.342
G1 X175.628 Y12.129
G1 X175.842 Y11.935
G1 X176.072 Y11.762
G1 X176.32 Y11.612
G1 X176.582 Y11.486
G1 X176.858 Y11.385
G1 X177.145 Y11.311
G1 X177.443 Y11.266
G1 X177.75 Y11.25
G1 X186.75
G1 X186.948
G1 X187.146 Y11.276
G1  Y15.25
G1 X184.75
G1  Y17.25
G1 X187.146
G1  Y21.25
G1 X189.75
G1  Y90.25
G1 X184.75
G1  Y92.25
G1 X189.75
G1  Y167.25
G1 X184.75
G1  Y169.25
G1 X189.75
G1  Y170.25
G1 X189.734 Y170.557
G1 X189.689 Y170.855
G1 X189.615 Y171.142
G1 X189.514 Y171.418
G1 X189.388 Y171.68
G1 X189.237 Y171.927
G1 X189.065 Y172.158
G1 X188.871 Y172.371
G1 X188.658 Y172.565
G1 X188.427 Y172.738
G1 X188.18 Y172.888
G1 X187.918 Y173.014
G1 X187.642 Y173.115
G1 X187.354 Y173.189
G1 X187.057 Y173.235
G1 X186.75 Y173.25
G1 X177.75
G1 X177.443 Y173.235
G1 X177.145 Y173.189
G1 X176.858 Y173.115
G1 X176.582 Y173.014
G1 X176.32 Y172.888
G1 X176.072 Y172.738
G1 X175.842 Y172.565
G1 X175.628 Y172.371
G1 X175.435 Y172.158
G1 X175.262 Y171.927
G1 X175.112 Y171.68
G1 X174.986 Y171.418
G1 X174.885 Y171.142
G1 X174.811 Y170.855
G1 X174.765 Y170.557
G1 X174.75 Y170.25
; Layer C00 Pass 3 of 3
G1  Y14.25
G1 X174.765 Y13.943
G1 X174.811 Y13.645
G1 X174.885 Y13.358
G1 X174.986 Y13.082
G1 X175.112 Y12.82
G1 X175.262 Y12.573
G1 X175.435 Y12.342
G1 X175.628 Y12.129
G1 X175.842 Y11.935
G1 X176.072 Y11.762
G1 X176.32 Y11.612
G1 X176.582 Y11.486
G1 X176.858 Y11.385
G1 X177.145 Y11.311
G1 X177.443 Y11.266
G1 X177.75 Y11.25
G1 X186.75
G1 X186.948
G1 X187.146 Y11.276
G1  Y15.25
G1 X184.75
G1  Y17.25
G1 X187.146
G1  Y21.25
G1 X189.75
G1  Y90.25
G1 X184.75
G1  Y92.25
G1 X189.75
G1  Y167.25
G1 X184.75
G1  Y169.25
G1 X189.75
G1  Y170.25
G1 X189.734 Y170.557
G1 X189.689 Y170.855
G1 X189.615 Y171.142
G1 X189.514 Y171.418
G1 X189.388 Y171.68
G1 X189.237 Y171.927
G1 X189.065 Y172.158
G1 X188.871 Y172.371
G1 X188.658 Y172.565
G1 X188.427 Y172.738
G1 X188.18 Y172.888
G1 X187.918 Y173.014
G1 X187.642 Y173.115
G1 X187.354 Y173.189
G1 X187.057 Y173.235
G1 X186.75 Y173.25
G1 X177.75
G1 X177.443 Y173.235
G1 X177.145 Y173.189
G1 X176.858 Y173.115
G1 X176.582 Y173.014
G1 X176.32 Y172.888
G1 X176.072 Y172.738
G1 X175.842 Y172.565
G1 X175.628 Y172.371
G1 X175.435 Y172.158
G1 X175.262 Y171.927
G1 X175.112 Y171.68
G1 X174.986 Y171.418
G1 X174.885 Y171.142
G1 X174.811 Y170.855
G1 X174.765 Y170.557
G1 X174.75 Y170.25
M9
M05
G90
; return to user-defined finish pos
G0 X0 Y0 F0
