; LightBurn 1.4.00
; Marlin device profile, absolute coords
; Bounds: X4.34 Y2.71 to X204.66 Y215.29
G21
G90
; Cut @ 10 mm/sec, 100% power
M8
M05 
G0 X27.052 Y7.115 F0
; Layer C00 Pass 1 of 3
M03 S1000
G1 X26.551 Y7.94 F600
G1 X26.13 Y8.814
G1 X25.794 Y9.733
G1 X25.547 Y10.691
G1 X25.459 Y11.184
G1 X25.396 Y11.684
G1 X25.357 Y12.192
G1 X25.344 Y12.706
G1  Y24.531
G1 X35.344
G1  Y26.631
G1 X25.344
G1  Y36.355
G1 X25.363 Y37.099
G1 X25.418 Y37.837
G1 X25.509 Y38.57
G1 X25.635 Y39.295
G1 X25.797 Y40.011
G1 X25.992 Y40.717
G1 X26.222 Y41.412
G1 X26.486 Y42.095
G1 X26.782 Y42.764
G1 X27.111 Y43.418
G1 X27.472 Y44.056
G1 X27.864 Y44.677
G1 X28.287 Y45.279
G1 X28.741 Y45.861
G1 X29.225 Y46.422
G1 X29.738 Y46.961
G1 X37.271 Y54.495
G1 X38.481 Y55.37
G1 X39.719 Y56.204
G1 X40.648 Y56.792
G1 X41.605 Y57.329
G1 X42.59 Y57.814
G1 X43.6 Y58.246
G1 X44.256 Y58.471
G1 X44.925 Y58.633
G1 X45.603 Y58.731
G1 X46.286 Y58.766
G1 X46.97 Y58.738
G1 X47.649 Y58.647
G1 X48.32 Y58.492
G1 X48.978 Y58.273
G1 X49.204 Y58.16
G1 X49.393 Y57.996
G1 X49.535 Y57.79
G1 X49.622 Y57.552
G1 X49.646 Y57.3
G1 X49.608 Y57.053
G1 X49.509 Y56.823
G1 X49.354 Y56.623
G1 X47.552 Y54.821
G1 X53.881 Y48.492
G1 X46.81 Y41.421
G1 X48.294 Y39.936
G1 X55.366 Y47.007
G1 X58.159 Y44.214
G1 X113.442 Y99.498
G1 X120.514 Y92.427
G1 X121.998 Y93.912
G1 X114.927 Y100.983
G1 X190.663 Y176.718
G1 X197.735 Y169.648
G1 X199.22 Y171.133
G1 X192.149 Y178.204
G1 X202.95 Y189.005
G1 X203.188 Y189.181
G1 X203.462 Y189.279
G1 X203.752 Y189.294
G1 X204.039 Y189.222
G1 X204.294 Y189.069
G1 X204.488 Y188.854
G1 X204.613 Y188.591
G1 X204.657 Y188.298
G1  Y53.536
G1 X194.656
G1  Y51.436
G1 X204.655
G1  Y12.706
G1 X204.62 Y11.872
G1 X204.517 Y11.047
G1 X204.345 Y10.237
G1 X204.108 Y9.445
G1 X203.807 Y8.675
G1 X203.442 Y7.932
G1 X203.015 Y7.219
G1 X202.528 Y6.54
G1 X195.659 Y13.647
G1 X194.193 Y12.287
G1 X200.985 Y4.965
G1 X200.295 Y4.449
G1 X199.567 Y3.996
G1 X198.806 Y3.608
G1 X198.015 Y3.288
G1 X197.201 Y3.036
G1 X196.366 Y2.854
G1 X195.516 Y2.744
G1 X194.655 Y2.706
G1 X186.646
G1 X185.845 Y2.721
G1 X185.046 Y2.766
G1 X184.252 Y2.84
G1 X183.462 Y2.944
G1 X182.677 Y3.076
G1 X181.899 Y3.237
G1 X181.127 Y3.427
G1 X180.364 Y3.645
G1 X179.609 Y3.891
G1 X178.863 Y4.165
G1 X178.127 Y4.466
G1 X177.403 Y4.795
G1 X176.69 Y5.151
G1 X175.99 Y5.533
G1 X175.302 Y5.943
G1 X174.629 Y6.378
G1 X172.176 Y8.022
G1 X169.705 Y9.637
G1 X167.216 Y11.224
G1 X164.709 Y12.783
G1 X162.184 Y14.314
G1 X159.643 Y15.815
G1 X157.084 Y17.288
G1 X154.508 Y18.732
G1 X152.22 Y19.979
G1 X149.912 Y21.189
G1 X147.585 Y22.362
G1 X145.24 Y23.497
G1 X142.877 Y24.595
G1 X140.497 Y25.655
G1 X138.1 Y26.677
G1 X135.686 Y27.66
G1 X133.781 Y28.397
G1 X131.862 Y29.092
G1 X129.928 Y29.747
G1 X127.982 Y30.361
G1 X126.022 Y30.934
G1 X124.051 Y31.466
G1 X122.069 Y31.955
G1 X120.076 Y32.403
G1 X118.409 Y32.735
G1 X116.733 Y33.02
G1 X115.051 Y33.258
G1 X113.363 Y33.448
G1 X111.67 Y33.591
G1 X109.974 Y33.686
G1 X108.275 Y33.733
G1 X106.574
G1 X105.508 Y33.704
G1 X104.444 Y33.649
G1 X103.383 Y33.569
G1 X102.325 Y33.463
G1 X101.27 Y33.331
G1 X100.22 Y33.174
G1 X99.173 Y32.992
G1 X98.132 Y32.784
G1 X97.096 Y32.55
G1 X96.066 Y32.292
G1 X95.042 Y32.009
G1 X94.025 Y31.701
G1 X93.015 Y31.368
G1 X92.013 Y31.01
G1 X91.019 Y30.628
G1 X90.033 Y30.221
G1 X88.351 Y29.444
G1 X86.702 Y28.604
G1 X85.088 Y27.701
G1 X83.511 Y26.737
G1 X81.973 Y25.712
G1 X80.475 Y24.628
G1 X79.019 Y23.486
G1 X77.607 Y22.286
G1 X78.379 Y22.997
G1 X71.609 Y30.357
G1 X70.064 Y28.935
G1 X76.821 Y21.59
G1 X75.581 Y20.438
G1 X74.357 Y19.234
G1 X73.147 Y17.978
G1 X71.953 Y16.67
G1 X70.775 Y15.31
G1 X69.612 Y13.899
G1 X68.465 Y12.436
G1 X67.334 Y10.921
G1 X66.602 Y9.978
G1 X65.821 Y9.086
G1 X64.992 Y8.246
G1 X64.119 Y7.46
G1 X63.205 Y6.729
G1 X62.251 Y6.054
G1 X61.262 Y5.436
G1 X60.239 Y4.878
G1 X59.185 Y4.38
G1 X58.103 Y3.945
G1 X56.996 Y3.572
G1 X55.866 Y3.264
G1 X54.716 Y3.022
G1 X53.549 Y2.848
G1 X52.368 Y2.742
G1 X51.175 Y2.706
G1 X35.344
G1 X34.83 Y2.719
G1 X34.322 Y2.758
G1 X33.821 Y2.822
G1 X33.329 Y2.91
G1 X32.37 Y3.156
G1 X31.452 Y3.492
G1 X30.578 Y3.913
G1 X29.753 Y4.414
G1 X28.983 Y4.99
G1 X28.273 Y5.635
G1 X27.628 Y6.346
G1 X27.052 Y7.115
; Layer C00 Pass 2 of 3
G1 X26.551 Y7.94
G1 X26.13 Y8.814
G1 X25.794 Y9.733
G1 X25.547 Y10.691
G1 X25.459 Y11.184
G1 X25.396 Y11.684
G1 X25.357 Y12.192
G1 X25.344 Y12.706
G1  Y24.531
G1 X35.344
G1  Y26.631
G1 X25.344
G1  Y36.355
G1 X25.363 Y37.099
G1 X25.418 Y37.837
G1 X25.509 Y38.57
G1 X25.635 Y39.295
G1 X25.797 Y40.011
G1 X25.992 Y40.717
G1 X26.222 Y41.412
G1 X26.486 Y42.095
G1 X26.782 Y42.764
G1 X27.111 Y43.418
G1 X27.472 Y44.056
G1 X27.864 Y44.677
G1 X28.287 Y45.279
G1 X28.741 Y45.861
G1 X29.225 Y46.422
G1 X29.738 Y46.961
G1 X37.271 Y54.495
G1 X38.481 Y55.37
G1 X39.719 Y56.204
G1 X40.648 Y56.792
G1 X41.605 Y57.329
G1 X42.59 Y57.814
G1 X43.6 Y58.246
G1 X44.256 Y58.471
G1 X44.925 Y58.633
G1 X45.603 Y58.731
G1 X46.286 Y58.766
G1 X46.97 Y58.738
G1 X47.649 Y58.647
G1 X48.32 Y58.492
G1 X48.978 Y58.273
G1 X49.204 Y58.16
G1 X49.393 Y57.996
G1 X49.535 Y57.79
G1 X49.622 Y57.552
G1 X49.646 Y57.3
G1 X49.608 Y57.053
G1 X49.509 Y56.823
G1 X49.354 Y56.623
G1 X47.552 Y54.821
G1 X53.881 Y48.492
G1 X46.81 Y41.421
G1 X48.294 Y39.936
G1 X55.366 Y47.007
G1 X58.159 Y44.214
G1 X113.442 Y99.498
G1 X120.514 Y92.427
G1 X121.998 Y93.912
G1 X114.927 Y100.983
G1 X190.663 Y176.718
G1 X197.735 Y169.648
G1 X199.22 Y171.133
G1 X192.149 Y178.204
G1 X202.95 Y189.005
G1 X203.188 Y189.181
G1 X203.462 Y189.279
G1 X203.752 Y189.294
G1 X204.039 Y189.222
G1 X204.294 Y189.069
G1 X204.488 Y188.854
G1 X204.613 Y188.591
G1 X204.657 Y188.298
G1  Y53.536
G1 X194.656
G1  Y51.436
G1 X204.655
G1  Y12.706
G1 X204.62 Y11.872
G1 X204.517 Y11.047
G1 X204.345 Y10.237
G1 X204.108 Y9.445
G1 X203.807 Y8.675
G1 X203.442 Y7.932
G1 X203.015 Y7.219
G1 X202.528 Y6.54
G1 X195.659 Y13.647
G1 X194.193 Y12.287
G1 X200.985 Y4.965
G1 X200.295 Y4.449
G1 X199.567 Y3.996
G1 X198.806 Y3.608
G1 X198.015 Y3.288
G1 X197.201 Y3.036
G1 X196.366 Y2.854
G1 X195.516 Y2.744
G1 X194.655 Y2.706
G1 X186.646
G1 X185.845 Y2.721
G1 X185.046 Y2.766
G1 X184.252 Y2.84
G1 X183.462 Y2.944
G1 X182.677 Y3.076
G1 X181.899 Y3.237
G1 X181.127 Y3.427
G1 X180.364 Y3.645
G1 X179.609 Y3.891
G1 X178.863 Y4.165
G1 X178.127 Y4.466
G1 X177.403 Y4.795
G1 X176.69 Y5.151
G1 X175.99 Y5.533
G1 X175.302 Y5.943
G1 X174.629 Y6.378
G1 X172.176 Y8.022
G1 X169.705 Y9.637
G1 X167.216 Y11.224
G1 X164.709 Y12.783
G1 X162.184 Y14.314
G1 X159.643 Y15.815
G1 X157.084 Y17.288
G1 X154.508 Y18.732
G1 X152.22 Y19.979
G1 X149.912 Y21.189
G1 X147.585 Y22.362
G1 X145.24 Y23.497
G1 X142.877 Y24.595
G1 X140.497 Y25.655
G1 X138.1 Y26.677
G1 X135.686 Y27.66
G1 X133.781 Y28.397
G1 X131.862 Y29.092
G1 X129.928 Y29.747
G1 X127.982 Y30.361
G1 X126.022 Y30.934
G1 X124.051 Y31.466
G1 X122.069 Y31.955
G1 X120.076 Y32.403
G1 X118.409 Y32.735
G1 X116.733 Y33.02
G1 X115.051 Y33.258
G1 X113.363 Y33.448
G1 X111.67 Y33.591
G1 X109.974 Y33.686
G1 X108.275 Y33.733
G1 X106.574
G1 X105.508 Y33.704
G1 X104.444 Y33.649
G1 X103.383 Y33.569
G1 X102.325 Y33.463
G1 X101.27 Y33.331
G1 X100.22 Y33.174
G1 X99.173 Y32.992
G1 X98.132 Y32.784
G1 X97.096 Y32.55
G1 X96.066 Y32.292
G1 X95.042 Y32.009
G1 X94.025 Y31.701
G1 X93.015 Y31.368
G1 X92.013 Y31.01
G1 X91.019 Y30.628
G1 X90.033 Y30.221
G1 X88.351 Y29.444
G1 X86.702 Y28.604
G1 X85.088 Y27.701
G1 X83.511 Y26.737
G1 X81.973 Y25.712
G1 X80.475 Y24.628
G1 X79.019 Y23.486
G1 X77.607 Y22.286
G1 X78.379 Y22.997
G1 X71.609 Y30.357
G1 X70.064 Y28.935
G1 X76.821 Y21.59
G1 X75.581 Y20.438
G1 X74.357 Y19.234
G1 X73.147 Y17.978
G1 X71.953 Y16.67
G1 X70.775 Y15.31
G1 X69.612 Y13.899
G1 X68.465 Y12.436
G1 X67.334 Y10.921
G1 X66.602 Y9.978
G1 X65.821 Y9.086
G1 X64.992 Y8.246
G1 X64.119 Y7.46
G1 X63.205 Y6.729
G1 X62.251 Y6.054
G1 X61.262 Y5.436
G1 X60.239 Y4.878
G1 X59.185 Y4.38
G1 X58.103 Y3.945
G1 X56.996 Y3.572
G1 X55.866 Y3.264
G1 X54.716 Y3.022
G1 X53.549 Y2.848
G1 X52.368 Y2.742
G1 X51.175 Y2.706
G1 X35.344
G1 X34.83 Y2.719
G1 X34.322 Y2.758
G1 X33.821 Y2.822
G1 X33.329 Y2.91
G1 X32.37 Y3.156
G1 X31.452 Y3.492
G1 X30.578 Y3.913
G1 X29.753 Y4.414
G1 X28.983 Y4.99
G1 X28.273 Y5.635
G1 X27.628 Y6.346
G1 X27.052 Y7.115
; Layer C00 Pass 3 of 3
G1 X26.551 Y7.94
G1 X26.13 Y8.814
G1 X25.794 Y9.733
G1 X25.547 Y10.691
G1 X25.459 Y11.184
G1 X25.396 Y11.684
G1 X25.357 Y12.192
G1 X25.344 Y12.706
G1  Y24.531
G1 X35.344
G1  Y26.631
G1 X25.344
G1  Y36.355
G1 X25.363 Y37.099
G1 X25.418 Y37.837
G1 X25.509 Y38.57
G1 X25.635 Y39.295
G1 X25.797 Y40.011
G1 X25.992 Y40.717
G1 X26.222 Y41.412
G1 X26.486 Y42.095
G1 X26.782 Y42.764
G1 X27.111 Y43.418
G1 X27.472 Y44.056
G1 X27.864 Y44.677
G1 X28.287 Y45.279
G1 X28.741 Y45.861
G1 X29.225 Y46.422
G1 X29.738 Y46.961
G1 X37.271 Y54.495
G1 X38.481 Y55.37
G1 X39.719 Y56.204
G1 X40.648 Y56.792
G1 X41.605 Y57.329
G1 X42.59 Y57.814
G1 X43.6 Y58.246
G1 X44.256 Y58.471
G1 X44.925 Y58.633
G1 X45.603 Y58.731
G1 X46.286 Y58.766
G1 X46.97 Y58.738
G1 X47.649 Y58.647
G1 X48.32 Y58.492
G1 X48.978 Y58.273
G1 X49.204 Y58.16
G1 X49.393 Y57.996
G1 X49.535 Y57.79
G1 X49.622 Y57.552
G1 X49.646 Y57.3
G1 X49.608 Y57.053
G1 X49.509 Y56.823
G1 X49.354 Y56.623
G1 X47.552 Y54.821
G1 X53.881 Y48.492
G1 X46.81 Y41.421
G1 X48.294 Y39.936
G1 X55.366 Y47.007
G1 X58.159 Y44.214
G1 X113.442 Y99.498
G1 X120.514 Y92.427
G1 X121.998 Y93.912
G1 X114.927 Y100.983
G1 X190.663 Y176.718
G1 X197.735 Y169.648
G1 X199.22 Y171.133
G1 X192.149 Y178.204
G1 X202.95 Y189.005
G1 X203.188 Y189.181
G1 X203.462 Y189.279
G1 X203.752 Y189.294
G1 X204.039 Y189.222
G1 X204.294 Y189.069
G1 X204.488 Y188.854
G1 X204.613 Y188.591
G1 X204.657 Y188.298
G1  Y53.536
G1 X194.656
G1  Y51.436
G1 X204.655
G1  Y12.706
G1 X204.62 Y11.872
G1 X204.517 Y11.047
G1 X204.345 Y10.237
G1 X204.108 Y9.445
G1 X203.807 Y8.675
G1 X203.442 Y7.932
G1 X203.015 Y7.219
G1 X202.528 Y6.54
G1 X195.659 Y13.647
G1 X194.193 Y12.287
G1 X200.985 Y4.965
G1 X200.295 Y4.449
G1 X199.567 Y3.996
G1 X198.806 Y3.608
G1 X198.015 Y3.288
G1 X197.201 Y3.036
G1 X196.366 Y2.854
G1 X195.516 Y2.744
G1 X194.655 Y2.706
G1 X186.646
G1 X185.845 Y2.721
G1 X185.046 Y2.766
G1 X184.252 Y2.84
G1 X183.462 Y2.944
G1 X182.677 Y3.076
G1 X181.899 Y3.237
G1 X181.127 Y3.427
G1 X180.364 Y3.645
G1 X179.609 Y3.891
G1 X178.863 Y4.165
G1 X178.127 Y4.466
G1 X177.403 Y4.795
G1 X176.69 Y5.151
G1 X175.99 Y5.533
G1 X175.302 Y5.943
G1 X174.629 Y6.378
G1 X172.176 Y8.022
G1 X169.705 Y9.637
G1 X167.216 Y11.224
G1 X164.709 Y12.783
G1 X162.184 Y14.314
G1 X159.643 Y15.815
G1 X157.084 Y17.288
G1 X154.508 Y18.732
G1 X152.22 Y19.979
G1 X149.912 Y21.189
G1 X147.585 Y22.362
G1 X145.24 Y23.497
G1 X142.877 Y24.595
G1 X140.497 Y25.655
G1 X138.1 Y26.677
G1 X135.686 Y27.66
G1 X133.781 Y28.397
G1 X131.862 Y29.092
G1 X129.928 Y29.747
G1 X127.982 Y30.361
G1 X126.022 Y30.934
G1 X124.051 Y31.466
G1 X122.069 Y31.955
G1 X120.076 Y32.403
G1 X118.409 Y32.735
G1 X116.733 Y33.02
G1 X115.051 Y33.258
G1 X113.363 Y33.448
G1 X111.67 Y33.591
G1 X109.974 Y33.686
G1 X108.275 Y33.733
G1 X106.574
G1 X105.508 Y33.704
G1 X104.444 Y33.649
G1 X103.383 Y33.569
G1 X102.325 Y33.463
G1 X101.27 Y33.331
G1 X100.22 Y33.174
G1 X99.173 Y32.992
G1 X98.132 Y32.784
G1 X97.096 Y32.55
G1 X96.066 Y32.292
G1 X95.042 Y32.009
G1 X94.025 Y31.701
G1 X93.015 Y31.368
G1 X92.013 Y31.01
G1 X91.019 Y30.628
G1 X90.033 Y30.221
G1 X88.351 Y29.444
G1 X86.702 Y28.604
G1 X85.088 Y27.701
G1 X83.511 Y26.737
G1 X81.973 Y25.712
G1 X80.475 Y24.628
G1 X79.019 Y23.486
G1 X77.607 Y22.286
G1 X78.379 Y22.997
G1 X71.609 Y30.357
G1 X70.064 Y28.935
G1 X76.821 Y21.59
G1 X75.581 Y20.438
G1 X74.357 Y19.234
G1 X73.147 Y17.978
G1 X71.953 Y16.67
G1 X70.775 Y15.31
G1 X69.612 Y13.899
G1 X68.465 Y12.436
G1 X67.334 Y10.921
G1 X66.602 Y9.978
G1 X65.821 Y9.086
G1 X64.992 Y8.246
G1 X64.119 Y7.46
G1 X63.205 Y6.729
G1 X62.251 Y6.054
G1 X61.262 Y5.436
G1 X60.239 Y4.878
G1 X59.185 Y4.38
G1 X58.103 Y3.945
G1 X56.996 Y3.572
G1 X55.866 Y3.264
G1 X54.716 Y3.022
G1 X53.549 Y2.848
G1 X52.368 Y2.742
G1 X51.175 Y2.706
G1 X35.344
G1 X34.83 Y2.719
G1 X34.322 Y2.758
G1 X33.821 Y2.822
G1 X33.329 Y2.91
G1 X32.37 Y3.156
G1 X31.452 Y3.492
G1 X30.578 Y3.913
G1 X29.753 Y4.414
G1 X28.983 Y4.99
G1 X28.273 Y5.635
G1 X27.628 Y6.346
G1 X27.052 Y7.115
M05 
G0 X5.812 Y28.819 F0
; Layer C00 Pass 1 of 3
M03 S1000
G1 X5.539 Y28.722 F600
G1 X5.249 Y28.707
G1 X4.961 Y28.779
G1 X4.707 Y28.931
G1 X4.512 Y29.147
G1 X4.388 Y29.409
G1 X4.344 Y29.702
G1  Y164.464
G1 X14.345
G1  Y166.564
G1 X4.345
G1  Y205.294
G1 X4.38 Y206.129
G1 X4.484 Y206.953
G1 X4.655 Y207.763
G1 X4.892 Y208.555
G1 X5.194 Y209.325
G1 X5.559 Y210.069
G1 X5.986 Y210.782
G1 X6.473 Y211.46
G1 X13.341 Y204.353
G1 X14.808 Y205.713
G1 X8.015 Y213.036
G1 X8.706 Y213.552
G1 X9.434 Y214.005
G1 X10.195 Y214.392
G1 X10.985 Y214.712
G1 X11.8 Y214.965
G1 X12.634 Y215.147
G1 X13.484 Y215.257
G1 X14.345 Y215.294
G1 X22.354
G1 X23.156 Y215.279
G1 X23.954 Y215.234
G1 X24.749 Y215.16
G1 X25.539 Y215.057
G1 X26.323 Y214.924
G1 X27.102 Y214.763
G1 X27.873 Y214.574
G1 X28.637 Y214.356
G1 X29.392 Y214.11
G1 X30.138 Y213.836
G1 X30.873 Y213.534
G1 X31.598 Y213.206
G1 X32.311 Y212.85
G1 X33.011 Y212.467
G1 X33.698 Y212.058
G1 X34.371 Y211.622
G1 X36.824 Y209.979
G1 X39.295 Y208.363
G1 X41.785 Y206.776
G1 X44.292 Y205.217
G1 X46.816 Y203.687
G1 X49.358 Y202.185
G1 X51.917 Y200.712
G1 X54.492 Y199.268
G1 X56.781 Y198.021
G1 X59.089 Y196.811
G1 X61.415 Y195.639
G1 X63.76 Y194.503
G1 X66.123 Y193.405
G1 X68.503 Y192.346
G1 X70.9 Y191.324
G1 X73.314 Y190.34
G1 X75.219 Y189.604
G1 X77.139 Y188.908
G1 X79.072 Y188.253
G1 X81.019 Y187.639
G1 X82.978 Y187.066
G1 X84.949 Y186.535
G1 X86.931 Y186.045
G1 X88.924 Y185.597
G1 X90.592 Y185.265
G1 X92.268 Y184.98
G1 X93.95 Y184.743
G1 X95.638 Y184.552
G1 X97.331 Y184.41
G1 X99.027 Y184.315
G1 X100.726 Y184.267
G1 X102.427
G1 X103.492 Y184.296
G1 X104.556 Y184.351
G1 X105.617 Y184.431
G1 X106.676 Y184.537
G1 X107.73 Y184.669
G1 X108.781 Y184.826
G1 X109.827 Y185.009
G1 X110.868 Y185.217
G1 X111.904 Y185.45
G1 X112.934 Y185.708
G1 X113.958 Y185.992
G1 X114.976 Y186.3
G1 X115.985 Y186.633
G1 X116.988 Y186.991
G1 X117.982 Y187.373
G1 X118.967 Y187.78
G1 X120.65 Y188.556
G1 X122.299 Y189.396
G1 X123.912 Y190.299
G1 X125.489 Y191.264
G1 X127.028 Y192.288
G1 X128.526 Y193.373
G1 X129.982 Y194.515
G1 X131.394 Y195.714
G1 X130.621 Y195.003
G1 X137.391 Y187.644
G1 X138.937 Y189.066
G1 X132.18 Y196.411
G1 X133.419 Y197.562
G1 X134.644 Y198.766
G1 X135.853 Y200.022
G1 X137.047 Y201.33
G1 X138.226 Y202.69
G1 X139.388 Y204.102
G1 X140.535 Y205.565
G1 X141.667 Y207.079
G1 X142.398 Y208.022
G1 X143.18 Y208.914
G1 X144.008 Y209.754
G1 X144.881 Y210.54
G1 X145.796 Y211.272
G1 X146.749 Y211.947
G1 X147.739 Y212.564
G1 X148.762 Y213.122
G1 X149.816 Y213.62
G1 X150.898 Y214.056
G1 X152.005 Y214.428
G1 X153.135 Y214.736
G1 X154.284 Y214.978
G1 X155.451 Y215.153
G1 X156.632 Y215.258
G1 X157.825 Y215.294
G1 X173.656
G1 X174.171 Y215.281
G1 X174.679 Y215.242
G1 X175.179 Y215.179
G1 X175.672 Y215.091
G1 X176.63 Y214.844
G1 X177.549 Y214.508
G1 X178.423 Y214.087
G1 X179.247 Y213.586
G1 X180.017 Y213.01
G1 X180.727 Y212.365
G1 X181.373 Y211.655
G1 X181.949 Y210.885
G1 X182.449 Y210.061
G1 X182.871 Y209.186
G1 X183.207 Y208.268
G1 X183.453 Y207.309
G1 X183.541 Y206.817
G1 X183.605 Y206.316
G1 X183.643 Y205.809
G1 X183.656 Y205.294
G1  Y193.47
G1 X173.656
G1  Y191.37
G1 X183.656
G1  Y181.646
G1 X183.638 Y180.902
G1 X183.583 Y180.163
G1 X183.492 Y179.431
G1 X183.365 Y178.706
G1 X183.204 Y177.989
G1 X183.008 Y177.283
G1 X182.778 Y176.588
G1 X182.515 Y175.905
G1 X182.218 Y175.236
G1 X181.889 Y174.582
G1 X181.528 Y173.944
G1 X181.136 Y173.324
G1 X180.713 Y172.722
G1 X180.259 Y172.139
G1 X179.776 Y171.578
G1 X179.263 Y171.039
G1 X171.729 Y163.505
G1 X170.519 Y162.631
G1 X169.281 Y161.796
G1 X168.353 Y161.209
G1 X167.395 Y160.672
G1 X166.41 Y160.187
G1 X165.4 Y159.755
G1 X164.745 Y159.53
G1 X164.076 Y159.368
G1 X163.397 Y159.269
G1 X162.714 Y159.234
G1 X162.031 Y159.262
G1 X161.351 Y159.354
G1 X160.681 Y159.509
G1 X160.023 Y159.727
G1 X159.796 Y159.841
G1 X159.608 Y160.005
G1 X159.466 Y160.21
G1 X159.379 Y160.448
G1 X159.354 Y160.701
G1 X159.393 Y160.948
G1 X159.491 Y161.177
G1 X159.646 Y161.378
G1 X161.448 Y163.18
G1 X155.12 Y169.508
G1 X162.191 Y176.579
G1 X160.706 Y178.064
G1 X153.635 Y170.993
G1 X150.842 Y173.786
G1 X95.558 Y118.503
G1 X88.487 Y125.574
G1 X87.002 Y124.089
G1 X94.073 Y117.018
G1 X18.338 Y41.282
G1 X11.266 Y48.352
G1 X9.781 Y46.867
G1 X16.852 Y39.796
G1 X6.051 Y28.995
G1 X5.812 Y28.819
; Layer C00 Pass 2 of 3
G1 X5.539 Y28.722
G1 X5.249 Y28.707
G1 X4.961 Y28.779
G1 X4.707 Y28.931
G1 X4.512 Y29.147
G1 X4.388 Y29.409
G1 X4.344 Y29.702
G1  Y164.464
G1 X14.345
G1  Y166.564
G1 X4.345
G1  Y205.294
G1 X4.38 Y206.129
G1 X4.484 Y206.953
G1 X4.655 Y207.763
G1 X4.892 Y208.555
G1 X5.194 Y209.325
G1 X5.559 Y210.069
G1 X5.986 Y210.782
G1 X6.473 Y211.46
G1 X13.341 Y204.353
G1 X14.808 Y205.713
G1 X8.015 Y213.036
G1 X8.706 Y213.552
G1 X9.434 Y214.005
G1 X10.195 Y214.392
G1 X10.985 Y214.712
G1 X11.8 Y214.965
G1 X12.634 Y215.147
G1 X13.484 Y215.257
G1 X14.345 Y215.294
G1 X22.354
G1 X23.156 Y215.279
G1 X23.954 Y215.234
G1 X24.749 Y215.16
G1 X25.539 Y215.057
G1 X26.323 Y214.924
G1 X27.102 Y214.763
G1 X27.873 Y214.574
G1 X28.637 Y214.356
G1 X29.392 Y214.11
G1 X30.138 Y213.836
G1 X30.873 Y213.534
G1 X31.598 Y213.206
G1 X32.311 Y212.85
G1 X33.011 Y212.467
G1 X33.698 Y212.058
G1 X34.371 Y211.622
G1 X36.824 Y209.979
G1 X39.295 Y208.363
G1 X41.785 Y206.776
G1 X44.292 Y205.217
G1 X46.816 Y203.687
G1 X49.358 Y202.185
G1 X51.917 Y200.712
G1 X54.492 Y199.268
G1 X56.781 Y198.021
G1 X59.089 Y196.811
G1 X61.415 Y195.639
G1 X63.76 Y194.503
G1 X66.123 Y193.405
G1 X68.503 Y192.346
G1 X70.9 Y191.324
G1 X73.314 Y190.34
G1 X75.219 Y189.604
G1 X77.139 Y188.908
G1 X79.072 Y188.253
G1 X81.019 Y187.639
G1 X82.978 Y187.066
G1 X84.949 Y186.535
G1 X86.931 Y186.045
G1 X88.924 Y185.597
G1 X90.592 Y185.265
G1 X92.268 Y184.98
G1 X93.95 Y184.743
G1 X95.638 Y184.552
G1 X97.331 Y184.41
G1 X99.027 Y184.315
G1 X100.726 Y184.267
G1 X102.427
G1 X103.492 Y184.296
G1 X104.556 Y184.351
G1 X105.617 Y184.431
G1 X106.676 Y184.537
G1 X107.73 Y184.669
G1 X108.781 Y184.826
G1 X109.827 Y185.009
G1 X110.868 Y185.217
G1 X111.904 Y185.45
G1 X112.934 Y185.708
G1 X113.958 Y185.992
G1 X114.976 Y186.3
G1 X115.985 Y186.633
G1 X116.988 Y186.991
G1 X117.982 Y187.373
G1 X118.967 Y187.78
G1 X120.65 Y188.556
G1 X122.299 Y189.396
G1 X123.912 Y190.299
G1 X125.489 Y191.264
G1 X127.028 Y192.288
G1 X128.526 Y193.373
G1 X129.982 Y194.515
G1 X131.394 Y195.714
G1 X130.621 Y195.003
G1 X137.391 Y187.644
G1 X138.937 Y189.066
G1 X132.18 Y196.411
G1 X133.419 Y197.562
G1 X134.644 Y198.766
G1 X135.853 Y200.022
G1 X137.047 Y201.33
G1 X138.226 Y202.69
G1 X139.388 Y204.102
G1 X140.535 Y205.565
G1 X141.667 Y207.079
G1 X142.398 Y208.022
G1 X143.18 Y208.914
G1 X144.008 Y209.754
G1 X144.881 Y210.54
G1 X145.796 Y211.272
G1 X146.749 Y211.947
G1 X147.739 Y212.564
G1 X148.762 Y213.122
G1 X149.816 Y213.62
G1 X150.898 Y214.056
G1 X152.005 Y214.428
G1 X153.135 Y214.736
G1 X154.284 Y214.978
G1 X155.451 Y215.153
G1 X156.632 Y215.258
G1 X157.825 Y215.294
G1 X173.656
G1 X174.171 Y215.281
G1 X174.679 Y215.242
G1 X175.179 Y215.179
G1 X175.672 Y215.091
G1 X176.63 Y214.844
G1 X177.549 Y214.508
G1 X178.423 Y214.087
G1 X179.247 Y213.586
G1 X180.017 Y213.01
G1 X180.727 Y212.365
G1 X181.373 Y211.655
G1 X181.949 Y210.885
G1 X182.449 Y210.061
G1 X182.871 Y209.186
G1 X183.207 Y208.268
G1 X183.453 Y207.309
G1 X183.541 Y206.817
G1 X183.605 Y206.316
G1 X183.643 Y205.809
G1 X183.656 Y205.294
G1  Y193.47
G1 X173.656
G1  Y191.37
G1 X183.656
G1  Y181.646
G1 X183.638 Y180.902
G1 X183.583 Y180.163
G1 X183.492 Y179.431
G1 X183.365 Y178.706
G1 X183.204 Y177.989
G1 X183.008 Y177.283
G1 X182.778 Y176.588
G1 X182.515 Y175.905
G1 X182.218 Y175.236
G1 X181.889 Y174.582
G1 X181.528 Y173.944
G1 X181.136 Y173.324
G1 X180.713 Y172.722
G1 X180.259 Y172.139
G1 X179.776 Y171.578
G1 X179.263 Y171.039
G1 X171.729 Y163.505
G1 X170.519 Y162.631
G1 X169.281 Y161.796
G1 X168.353 Y161.209
G1 X167.395 Y160.672
G1 X166.41 Y160.187
G1 X165.4 Y159.755
G1 X164.745 Y159.53
G1 X164.076 Y159.368
G1 X163.397 Y159.269
G1 X162.714 Y159.234
G1 X162.031 Y159.262
G1 X161.351 Y159.354
G1 X160.681 Y159.509
G1 X160.023 Y159.727
G1 X159.796 Y159.841
G1 X159.608 Y160.005
G1 X159.466 Y160.21
G1 X159.379 Y160.448
G1 X159.354 Y160.701
G1 X159.393 Y160.948
G1 X159.491 Y161.177
G1 X159.646 Y161.378
G1 X161.448 Y163.18
G1 X155.12 Y169.508
G1 X162.191 Y176.579
G1 X160.706 Y178.064
G1 X153.635 Y170.993
G1 X150.842 Y173.786
G1 X95.558 Y118.503
G1 X88.487 Y125.574
G1 X87.002 Y124.089
G1 X94.073 Y117.018
G1 X18.338 Y41.282
G1 X11.266 Y48.352
G1 X9.781 Y46.867
G1 X16.852 Y39.796
G1 X6.051 Y28.995
G1 X5.812 Y28.819
; Layer C00 Pass 3 of 3
G1 X5.539 Y28.722
G1 X5.249 Y28.707
G1 X4.961 Y28.779
G1 X4.707 Y28.931
G1 X4.512 Y29.147
G1 X4.388 Y29.409
G1 X4.344 Y29.702
G1  Y164.464
G1 X14.345
G1  Y166.564
G1 X4.345
G1  Y205.294
G1 X4.38 Y206.129
G1 X4.484 Y206.953
G1 X4.655 Y207.763
G1 X4.892 Y208.555
G1 X5.194 Y209.325
G1 X5.559 Y210.069
G1 X5.986 Y210.782
G1 X6.473 Y211.46
G1 X13.341 Y204.353
G1 X14.808 Y205.713
G1 X8.015 Y213.036
G1 X8.706 Y213.552
G1 X9.434 Y214.005
G1 X10.195 Y214.392
G1 X10.985 Y214.712
G1 X11.8 Y214.965
G1 X12.634 Y215.147
G1 X13.484 Y215.257
G1 X14.345 Y215.294
G1 X22.354
G1 X23.156 Y215.279
G1 X23.954 Y215.234
G1 X24.749 Y215.16
G1 X25.539 Y215.057
G1 X26.323 Y214.924
G1 X27.102 Y214.763
G1 X27.873 Y214.574
G1 X28.637 Y214.356
G1 X29.392 Y214.11
G1 X30.138 Y213.836
G1 X30.873 Y213.534
G1 X31.598 Y213.206
G1 X32.311 Y212.85
G1 X33.011 Y212.467
G1 X33.698 Y212.058
G1 X34.371 Y211.622
G1 X36.824 Y209.979
G1 X39.295 Y208.363
G1 X41.785 Y206.776
G1 X44.292 Y205.217
G1 X46.816 Y203.687
G1 X49.358 Y202.185
G1 X51.917 Y200.712
G1 X54.492 Y199.268
G1 X56.781 Y198.021
G1 X59.089 Y196.811
G1 X61.415 Y195.639
G1 X63.76 Y194.503
G1 X66.123 Y193.405
G1 X68.503 Y192.346
G1 X70.9 Y191.324
G1 X73.314 Y190.34
G1 X75.219 Y189.604
G1 X77.139 Y188.908
G1 X79.072 Y188.253
G1 X81.019 Y187.639
G1 X82.978 Y187.066
G1 X84.949 Y186.535
G1 X86.931 Y186.045
G1 X88.924 Y185.597
G1 X90.592 Y185.265
G1 X92.268 Y184.98
G1 X93.95 Y184.743
G1 X95.638 Y184.552
G1 X97.331 Y184.41
G1 X99.027 Y184.315
G1 X100.726 Y184.267
G1 X102.427
G1 X103.492 Y184.296
G1 X104.556 Y184.351
G1 X105.617 Y184.431
G1 X106.676 Y184.537
G1 X107.73 Y184.669
G1 X108.781 Y184.826
G1 X109.827 Y185.009
G1 X110.868 Y185.217
G1 X111.904 Y185.45
G1 X112.934 Y185.708
G1 X113.958 Y185.992
G1 X114.976 Y186.3
G1 X115.985 Y186.633
G1 X116.988 Y186.991
G1 X117.982 Y187.373
G1 X118.967 Y187.78
G1 X120.65 Y188.556
G1 X122.299 Y189.396
G1 X123.912 Y190.299
G1 X125.489 Y191.264
G1 X127.028 Y192.288
G1 X128.526 Y193.373
G1 X129.982 Y194.515
G1 X131.394 Y195.714
G1 X130.621 Y195.003
G1 X137.391 Y187.644
G1 X138.937 Y189.066
G1 X132.18 Y196.411
G1 X133.419 Y197.562
G1 X134.644 Y198.766
G1 X135.853 Y200.022
G1 X137.047 Y201.33
G1 X138.226 Y202.69
G1 X139.388 Y204.102
G1 X140.535 Y205.565
G1 X141.667 Y207.079
G1 X142.398 Y208.022
G1 X143.18 Y208.914
G1 X144.008 Y209.754
G1 X144.881 Y210.54
G1 X145.796 Y211.272
G1 X146.749 Y211.947
G1 X147.739 Y212.564
G1 X148.762 Y213.122
G1 X149.816 Y213.62
G1 X150.898 Y214.056
G1 X152.005 Y214.428
G1 X153.135 Y214.736
G1 X154.284 Y214.978
G1 X155.451 Y215.153
G1 X156.632 Y215.258
G1 X157.825 Y215.294
G1 X173.656
G1 X174.171 Y215.281
G1 X174.679 Y215.242
G1 X175.179 Y215.179
G1 X175.672 Y215.091
G1 X176.63 Y214.844
G1 X177.549 Y214.508
G1 X178.423 Y214.087
G1 X179.247 Y213.586
G1 X180.017 Y213.01
G1 X180.727 Y212.365
G1 X181.373 Y211.655
G1 X181.949 Y210.885
G1 X182.449 Y210.061
G1 X182.871 Y209.186
G1 X183.207 Y208.268
G1 X183.453 Y207.309
G1 X183.541 Y206.817
G1 X183.605 Y206.316
G1 X183.643 Y205.809
G1 X183.656 Y205.294
G1  Y193.47
G1 X173.656
G1  Y191.37
G1 X183.656
G1  Y181.646
G1 X183.638 Y180.902
G1 X183.583 Y180.163
G1 X183.492 Y179.431
G1 X183.365 Y178.706
G1 X183.204 Y177.989
G1 X183.008 Y177.283
G1 X182.778 Y176.588
G1 X182.515 Y175.905
G1 X182.218 Y175.236
G1 X181.889 Y174.582
G1 X181.528 Y173.944
G1 X181.136 Y173.324
G1 X180.713 Y172.722
G1 X180.259 Y172.139
G1 X179.776 Y171.578
G1 X179.263 Y171.039
G1 X171.729 Y163.505
G1 X170.519 Y162.631
G1 X169.281 Y161.796
G1 X168.353 Y161.209
G1 X167.395 Y160.672
G1 X166.41 Y160.187
G1 X165.4 Y159.755
G1 X164.745 Y159.53
G1 X164.076 Y159.368
G1 X163.397 Y159.269
G1 X162.714 Y159.234
G1 X162.031 Y159.262
G1 X161.351 Y159.354
G1 X160.681 Y159.509
G1 X160.023 Y159.727
G1 X159.796 Y159.841
G1 X159.608 Y160.005
G1 X159.466 Y160.21
G1 X159.379 Y160.448
G1 X159.354 Y160.701
G1 X159.393 Y160.948
G1 X159.491 Y161.177
G1 X159.646 Y161.378
G1 X161.448 Y163.18
G1 X155.12 Y169.508
G1 X162.191 Y176.579
G1 X160.706 Y178.064
G1 X153.635 Y170.993
G1 X150.842 Y173.786
G1 X95.558 Y118.503
G1 X88.487 Y125.574
G1 X87.002 Y124.089
G1 X94.073 Y117.018
G1 X18.338 Y41.282
G1 X11.266 Y48.352
G1 X9.781 Y46.867
G1 X16.852 Y39.796
G1 X6.051 Y28.995
G1 X5.812 Y28.819
M05 
G0 X21.718 Y65.169 F0
; Layer C00 Pass 1 of 3
M03 S1000
G1 X21.418 Y65.235 F600
G1 X21.127 Y65.335
G1 X20.848 Y65.467
G1 X20.584 Y65.631
G1 X20.339 Y65.825
G1 X19.869 Y66.289
G1 X19.447 Y66.794
G1 X19.076 Y67.337
G1 X18.757 Y67.915
G1 X18.239 Y69.036
G1 X17.784 Y70.183
G1 X17.395 Y71.354
G1 X17.072 Y72.546
G1 X16.518 Y75.016
G1 X16.062 Y77.504
G1 X15.704 Y80.008
G1 X15.445 Y82.525
G1 X15.279 Y84.61
G1 X15.149 Y86.695
G1 X15.056 Y88.782
G1 X14.998 Y90.869
G1 X14.976 Y92.956
G1 X14.99 Y95.043
G1 X15.039 Y97.129
G1 X15.125 Y99.214
G1 X15.246 Y101.297
G1 X15.403 Y103.378
G1 X15.596 Y105.456
G1 X15.824 Y107.53
G1 X16.089 Y109.602
G1 X16.388 Y111.669
G1 X16.724 Y113.731
G1 X17.095 Y115.789
G1 X17.395 Y117.281
G1 X17.724 Y118.766
G1 X18.083 Y120.244
G1 X18.472 Y121.714
G1 X18.89 Y123.177
G1 X19.337 Y124.63
G1 X19.813 Y126.075
G1 X20.318 Y127.511
G1 X20.765 Y128.706
G1 X21.246 Y129.888
G1 X21.758 Y131.055
G1 X22.303 Y132.208
G1 X22.879 Y133.345
G1 X23.487 Y134.466
G1 X24.126 Y135.57
G1 X24.796 Y136.656
G1 X25.368 Y137.522
G1 X25.972 Y138.364
G1 X26.607 Y139.182
G1 X27.272 Y139.975
G1 X27.967 Y140.743
G1 X28.69 Y141.484
G1 X29.442 Y142.197
G1 X30.221 Y142.882
G1 X30.961 Y143.474
G1 X31.726 Y144.026
G1 X32.515 Y144.538
G1 X33.325 Y145.009
G1 X34.155 Y145.44
G1 X35.004 Y145.828
G1 X35.87 Y146.174
G1 X36.752 Y146.477
G1 X37.647 Y146.738
G1 X38.554 Y146.954
G1 X39.471 Y147.126
G1 X40.398 Y147.253
G1 X41.332 Y147.335
G1 X42.271 Y147.371
G1 X43.215 Y147.361
G1 X44.161 Y147.304
G1 X45.333 Y147.179
G1 X46.497 Y147.005
G1 X47.652 Y146.783
G1 X48.796 Y146.513
G1 X49.927 Y146.194
G1 X51.045 Y145.829
G1 X52.147 Y145.416
G1 X53.233 Y144.957
G1 X54.402 Y144.416
G1 X55.551 Y143.839
G1 X56.68 Y143.228
G1 X57.788 Y142.583
G1 X58.875 Y141.903
G1 X59.938 Y141.191
G1 X60.979 Y140.446
G1 X61.995 Y139.669
G1 X62.987 Y138.861
G1 X63.953 Y138.022
G1 X64.893 Y137.153
G1 X65.806 Y136.254
G1 X66.691 Y135.326
G1 X67.548 Y134.37
G1 X68.376 Y133.386
G1 X69.173 Y132.374
G1 X69.665 Y131.706
G1 X70.132 Y131.021
G1 X70.573 Y130.319
G1 X70.989 Y129.602
G1 X71.378 Y128.871
G1 X71.74 Y128.125
G1 X72.075 Y127.367
G1 X72.382 Y126.596
G1 X72.602 Y125.967
G1 X72.785 Y125.329
G1 X72.93 Y124.682
G1 X73.038 Y124.028
G1 X73.109 Y123.369
G1 X73.142 Y122.707
G1  Y122.043
G1 X73.093 Y121.379
G1 X72.99 Y120.732
G1 X72.847 Y120.095
G1 X72.664 Y119.469
G1 X72.443 Y118.857
G1 X72.183 Y118.26
G1 X71.886 Y117.68
G1 X71.553 Y117.119
G1 X71.183 Y116.578
G1 X70.463 Y115.64
G1 X69.693 Y114.743
G1 X68.874 Y113.89
G1 X68.008 Y113.083
G1 X66.883 Y112.1
G1 X65.737 Y111.14
G1 X64.573 Y110.203
G1 X63.39 Y109.29
G1 X60.742 Y107.251
G1 X58.135 Y105.225
G1 X55.588 Y103.125
G1 X53.101 Y100.954
G1 X50.677 Y98.712
G1 X49.186 Y97.23
G1 X47.727 Y95.717
G1 X46.299 Y94.176
G1 X44.904 Y92.605
G1 X43.541 Y91.006
G1 X42.212 Y89.379
G1 X40.916 Y87.725
G1 X39.654 Y86.044
G1 X37.738 Y83.397
G1 X35.849 Y80.73
G1 X33.987 Y78.045
G1 X32.152 Y75.34
G1 X30.671 Y73.185
G1 X29.675 Y71.801
G1 X28.649 Y70.439
G1 X27.593 Y69.1
G1 X26.93 Y68.307
G1 X26.224 Y67.553
G1 X25.475 Y66.841
G1 X24.687 Y66.173
G1 X24.222 Y65.838
G1 X23.724 Y65.559
G1 X23.196 Y65.339
G1 X22.646 Y65.18
G1 X22.335 Y65.141
G1 X22.025
G1 X21.718 Y65.169
; Layer C00 Pass 2 of 3
G1 X21.418 Y65.235
G1 X21.127 Y65.335
G1 X20.848 Y65.467
G1 X20.584 Y65.631
G1 X20.339 Y65.825
G1 X19.869 Y66.289
G1 X19.447 Y66.794
G1 X19.076 Y67.337
G1 X18.757 Y67.915
G1 X18.239 Y69.036
G1 X17.784 Y70.183
G1 X17.395 Y71.354
G1 X17.072 Y72.546
G1 X16.518 Y75.016
G1 X16.062 Y77.504
G1 X15.704 Y80.008
G1 X15.445 Y82.525
G1 X15.279 Y84.61
G1 X15.149 Y86.695
G1 X15.056 Y88.782
G1 X14.998 Y90.869
G1 X14.976 Y92.956
G1 X14.99 Y95.043
G1 X15.039 Y97.129
G1 X15.125 Y99.214
G1 X15.246 Y101.297
G1 X15.403 Y103.378
G1 X15.596 Y105.456
G1 X15.824 Y107.53
G1 X16.089 Y109.602
G1 X16.388 Y111.669
G1 X16.724 Y113.731
G1 X17.095 Y115.789
G1 X17.395 Y117.281
G1 X17.724 Y118.766
G1 X18.083 Y120.244
G1 X18.472 Y121.714
G1 X18.89 Y123.177
G1 X19.337 Y124.63
G1 X19.813 Y126.075
G1 X20.318 Y127.511
G1 X20.765 Y128.706
G1 X21.246 Y129.888
G1 X21.758 Y131.055
G1 X22.303 Y132.208
G1 X22.879 Y133.345
G1 X23.487 Y134.466
G1 X24.126 Y135.57
G1 X24.796 Y136.656
G1 X25.368 Y137.522
G1 X25.972 Y138.364
G1 X26.607 Y139.182
G1 X27.272 Y139.975
G1 X27.967 Y140.743
G1 X28.69 Y141.484
G1 X29.442 Y142.197
G1 X30.221 Y142.882
G1 X30.961 Y143.474
G1 X31.726 Y144.026
G1 X32.515 Y144.538
G1 X33.325 Y145.009
G1 X34.155 Y145.44
G1 X35.004 Y145.828
G1 X35.87 Y146.174
G1 X36.752 Y146.477
G1 X37.647 Y146.738
G1 X38.554 Y146.954
G1 X39.471 Y147.126
G1 X40.398 Y147.253
G1 X41.332 Y147.335
G1 X42.271 Y147.371
G1 X43.215 Y147.361
G1 X44.161 Y147.304
G1 X45.333 Y147.179
G1 X46.497 Y147.005
G1 X47.652 Y146.783
G1 X48.796 Y146.513
G1 X49.927 Y146.194
G1 X51.045 Y145.829
G1 X52.147 Y145.416
G1 X53.233 Y144.957
G1 X54.402 Y144.416
G1 X55.551 Y143.839
G1 X56.68 Y143.228
G1 X57.788 Y142.583
G1 X58.875 Y141.903
G1 X59.938 Y141.191
G1 X60.979 Y140.446
G1 X61.995 Y139.669
G1 X62.987 Y138.861
G1 X63.953 Y138.022
G1 X64.893 Y137.153
G1 X65.806 Y136.254
G1 X66.691 Y135.326
G1 X67.548 Y134.37
G1 X68.376 Y133.386
G1 X69.173 Y132.374
G1 X69.665 Y131.706
G1 X70.132 Y131.021
G1 X70.573 Y130.319
G1 X70.989 Y129.602
G1 X71.378 Y128.871
G1 X71.74 Y128.125
G1 X72.075 Y127.367
G1 X72.382 Y126.596
G1 X72.602 Y125.967
G1 X72.785 Y125.329
G1 X72.93 Y124.682
G1 X73.038 Y124.028
G1 X73.109 Y123.369
G1 X73.142 Y122.707
G1  Y122.043
G1 X73.093 Y121.379
G1 X72.99 Y120.732
G1 X72.847 Y120.095
G1 X72.664 Y119.469
G1 X72.443 Y118.857
G1 X72.183 Y118.26
G1 X71.886 Y117.68
G1 X71.553 Y117.119
G1 X71.183 Y116.578
G1 X70.463 Y115.64
G1 X69.693 Y114.743
G1 X68.874 Y113.89
G1 X68.008 Y113.083
G1 X66.883 Y112.1
G1 X65.737 Y111.14
G1 X64.573 Y110.203
G1 X63.39 Y109.29
G1 X60.742 Y107.251
G1 X58.135 Y105.225
G1 X55.588 Y103.125
G1 X53.101 Y100.954
G1 X50.677 Y98.712
G1 X49.186 Y97.23
G1 X47.727 Y95.717
G1 X46.299 Y94.176
G1 X44.904 Y92.605
G1 X43.541 Y91.006
G1 X42.212 Y89.379
G1 X40.916 Y87.725
G1 X39.654 Y86.044
G1 X37.738 Y83.397
G1 X35.849 Y80.73
G1 X33.987 Y78.045
G1 X32.152 Y75.34
G1 X30.671 Y73.185
G1 X29.675 Y71.801
G1 X28.649 Y70.439
G1 X27.593 Y69.1
G1 X26.93 Y68.307
G1 X26.224 Y67.553
G1 X25.475 Y66.841
G1 X24.687 Y66.173
G1 X24.222 Y65.838
G1 X23.724 Y65.559
G1 X23.196 Y65.339
G1 X22.646 Y65.18
G1 X22.335 Y65.141
G1 X22.025
G1 X21.718 Y65.169
; Layer C00 Pass 3 of 3
G1 X21.418 Y65.235
G1 X21.127 Y65.335
G1 X20.848 Y65.467
G1 X20.584 Y65.631
G1 X20.339 Y65.825
G1 X19.869 Y66.289
G1 X19.447 Y66.794
G1 X19.076 Y67.337
G1 X18.757 Y67.915
G1 X18.239 Y69.036
G1 X17.784 Y70.183
G1 X17.395 Y71.354
G1 X17.072 Y72.546
G1 X16.518 Y75.016
G1 X16.062 Y77.504
G1 X15.704 Y80.008
G1 X15.445 Y82.525
G1 X15.279 Y84.61
G1 X15.149 Y86.695
G1 X15.056 Y88.782
G1 X14.998 Y90.869
G1 X14.976 Y92.956
G1 X14.99 Y95.043
G1 X15.039 Y97.129
G1 X15.125 Y99.214
G1 X15.246 Y101.297
G1 X15.403 Y103.378
G1 X15.596 Y105.456
G1 X15.824 Y107.53
G1 X16.089 Y109.602
G1 X16.388 Y111.669
G1 X16.724 Y113.731
G1 X17.095 Y115.789
G1 X17.395 Y117.281
G1 X17.724 Y118.766
G1 X18.083 Y120.244
G1 X18.472 Y121.714
G1 X18.89 Y123.177
G1 X19.337 Y124.63
G1 X19.813 Y126.075
G1 X20.318 Y127.511
G1 X20.765 Y128.706
G1 X21.246 Y129.888
G1 X21.758 Y131.055
G1 X22.303 Y132.208
G1 X22.879 Y133.345
G1 X23.487 Y134.466
G1 X24.126 Y135.57
G1 X24.796 Y136.656
G1 X25.368 Y137.522
G1 X25.972 Y138.364
G1 X26.607 Y139.182
G1 X27.272 Y139.975
G1 X27.967 Y140.743
G1 X28.69 Y141.484
G1 X29.442 Y142.197
G1 X30.221 Y142.882
G1 X30.961 Y143.474
G1 X31.726 Y144.026
G1 X32.515 Y144.538
G1 X33.325 Y145.009
G1 X34.155 Y145.44
G1 X35.004 Y145.828
G1 X35.87 Y146.174
G1 X36.752 Y146.477
G1 X37.647 Y146.738
G1 X38.554 Y146.954
G1 X39.471 Y147.126
G1 X40.398 Y147.253
G1 X41.332 Y147.335
G1 X42.271 Y147.371
G1 X43.215 Y147.361
G1 X44.161 Y147.304
G1 X45.333 Y147.179
G1 X46.497 Y147.005
G1 X47.652 Y146.783
G1 X48.796 Y146.513
G1 X49.927 Y146.194
G1 X51.045 Y145.829
G1 X52.147 Y145.416
G1 X53.233 Y144.957
G1 X54.402 Y144.416
G1 X55.551 Y143.839
G1 X56.68 Y143.228
G1 X57.788 Y142.583
G1 X58.875 Y141.903
G1 X59.938 Y141.191
G1 X60.979 Y140.446
G1 X61.995 Y139.669
G1 X62.987 Y138.861
G1 X63.953 Y138.022
G1 X64.893 Y137.153
G1 X65.806 Y136.254
G1 X66.691 Y135.326
G1 X67.548 Y134.37
G1 X68.376 Y133.386
G1 X69.173 Y132.374
G1 X69.665 Y131.706
G1 X70.132 Y131.021
G1 X70.573 Y130.319
G1 X70.989 Y129.602
G1 X71.378 Y128.871
G1 X71.74 Y128.125
G1 X72.075 Y127.367
G1 X72.382 Y126.596
G1 X72.602 Y125.967
G1 X72.785 Y125.329
G1 X72.93 Y124.682
G1 X73.038 Y124.028
G1 X73.109 Y123.369
G1 X73.142 Y122.707
G1  Y122.043
G1 X73.093 Y121.379
G1 X72.99 Y120.732
G1 X72.847 Y120.095
G1 X72.664 Y119.469
G1 X72.443 Y118.857
G1 X72.183 Y118.26
G1 X71.886 Y117.68
G1 X71.553 Y117.119
G1 X71.183 Y116.578
G1 X70.463 Y115.64
G1 X69.693 Y114.743
G1 X68.874 Y113.89
G1 X68.008 Y113.083
G1 X66.883 Y112.1
G1 X65.737 Y111.14
G1 X64.573 Y110.203
G1 X63.39 Y109.29
G1 X60.742 Y107.251
G1 X58.135 Y105.225
G1 X55.588 Y103.125
G1 X53.101 Y100.954
G1 X50.677 Y98.712
G1 X49.186 Y97.23
G1 X47.727 Y95.717
G1 X46.299 Y94.176
G1 X44.904 Y92.605
G1 X43.541 Y91.006
G1 X42.212 Y89.379
G1 X40.916 Y87.725
G1 X39.654 Y86.044
G1 X37.738 Y83.397
G1 X35.849 Y80.73
G1 X33.987 Y78.045
G1 X32.152 Y75.34
G1 X30.671 Y73.185
G1 X29.675 Y71.801
G1 X28.649 Y70.439
G1 X27.593 Y69.1
G1 X26.93 Y68.307
G1 X26.224 Y67.553
G1 X25.475 Y66.841
G1 X24.687 Y66.173
G1 X24.222 Y65.838
G1 X23.724 Y65.559
G1 X23.196 Y65.339
G1 X22.646 Y65.18
G1 X22.335 Y65.141
G1 X22.025
G1 X21.718 Y65.169
M05 
G0 X21.788 Y65.16 F0
; Layer C00 Pass 1 of 3
M03 S1000
G1 X22.186 Y65.132 F600
G1 X22.585 Y65.162
G1 X22.98 Y65.249
G1 X23.364 Y65.396
G1 X23.997 Y65.723
G1 X24.597 Y66.104
G1 X25.16 Y66.538
G1 X25.683 Y67.021
G1 X26.597 Y67.968
G1 X27.47 Y68.951
G1 X28.302 Y69.968
G1 X29.093 Y71.02
G1 X30.59 Y73.091
G1 X32.048 Y75.189
G1 X34.636 Y78.975
G1 X36.587 Y81.814
G1 X38.597 Y84.611
G1 X40.663 Y87.366
G1 X42.787 Y90.078
G1 X44.524 Y92.167
G1 X46.319 Y94.205
G1 X48.17 Y96.19
G1 X50.076 Y98.122
G1 X52.036 Y99.998
G1 X54.05 Y101.819
G1 X56.115 Y103.582
G1 X58.23 Y105.287
G1 X61.429 Y107.785
G1 X64.641 Y110.265
G1 X65.363 Y110.839
G1 X66.5 Y111.755
G1 X67.602 Y112.712
G1 X68.667 Y113.711
G1 X69.694 Y114.748
G1 X70.109 Y115.197
G1 X70.504 Y115.663
G1 X70.877 Y116.145
G1 X71.229 Y116.643
G1 X71.558 Y117.155
G1 X71.865 Y117.682
G1 X72.149 Y118.222
G1 X72.41 Y118.775
G1 X72.684 Y119.526
G1 X72.897 Y120.294
G1 X73.047 Y121.073
G1 X73.134 Y121.861
G1 X73.158 Y122.653
G1 X73.119 Y123.446
G1 X73.016 Y124.236
G1 X72.849 Y125.018
G1 X72.659 Y125.712
G1 X72.442 Y126.398
G1 X72.198 Y127.074
G1 X71.927 Y127.739
G1 X71.631 Y128.393
G1 X71.309 Y129.035
G1 X70.961 Y129.665
G1 X70.588 Y130.281
G1 X69.921 Y131.299
G1 X69.219 Y132.294
G1 X68.483 Y133.262
G1 X67.714 Y134.204
G1 X66.913 Y135.118
G1 X66.08 Y136.005
G1 X65.216 Y136.862
G1 X64.322 Y137.689
G1 X62.961 Y138.886
G1 X61.55 Y140.02
G1 X60.091 Y141.088
G1 X58.587 Y142.089
G1 X57.04 Y143.023
G1 X55.452 Y143.887
G1 X53.825 Y144.68
G1 X52.162 Y145.4
G1 X51.112 Y145.803
G1 X50.047 Y146.16
G1 X48.969 Y146.472
G1 X47.88 Y146.739
G1 X46.78 Y146.96
G1 X45.672 Y147.135
G1 X44.556 Y147.263
G1 X43.434 Y147.344
G1 X42.502 Y147.367
G1 X41.575 Y147.344
G1 X40.652 Y147.276
G1 X39.737 Y147.164
G1 X38.83 Y147.009
G1 X37.933 Y146.81
G1 X37.047 Y146.569
G1 X36.175 Y146.285
G1 X35.317 Y145.961
G1 X34.476 Y145.595
G1 X33.652 Y145.188
G1 X32.847 Y144.742
G1 X32.063 Y144.257
G1 X31.301 Y143.732
G1 X30.563 Y143.169
G1 X29.85 Y142.569
G1 X29.1 Y141.881
G1 X28.375 Y141.166
G1 X27.678 Y140.426
G1 X27.007 Y139.662
G1 X26.365 Y138.874
G1 X25.752 Y138.063
G1 X25.168 Y137.229
G1 X24.615 Y136.375
G1 X23.912 Y135.206
G1 X23.244 Y134.018
G1 X22.61 Y132.812
G1 X22.011 Y131.589
G1 X21.447 Y130.35
G1 X20.918 Y129.095
G1 X20.425 Y127.824
G1 X19.968 Y126.539
G1 X19.389 Y124.779
G1 X18.85 Y123.007
G1 X18.35 Y121.224
G1 X17.89 Y119.43
G1 X17.47 Y117.627
G1 X17.089 Y115.814
G1 X16.749 Y113.993
G1 X16.449 Y112.164
G1 X16.166 Y110.26
G1 X15.914 Y108.353
G1 X15.691 Y106.442
G1 X15.498 Y104.528
G1 X15.336 Y102.613
G1 X15.204 Y100.695
G1 X15.102 Y98.776
G1 X15.031 Y96.855
G1 X14.989 Y94.934
G1 X14.978 Y93.012
G1 X14.997 Y91.09
G1 X15.047 Y89.168
G1 X15.127 Y87.247
G1 X15.237 Y85.326
G1 X15.377 Y83.407
G1 X15.548 Y81.489
G1 X15.817 Y79.131
G1 X16.179 Y76.785
G1 X16.633 Y74.456
G1 X17.179 Y72.146
G1 X17.491 Y71.043
G1 X17.863 Y69.961
G1 X18.295 Y68.9
G1 X18.784 Y67.864
G1 X19.097 Y67.3
G1 X19.462 Y66.769
G1 X19.877 Y66.277
G1 X20.339 Y65.825
G1 X20.667 Y65.578
G1 X21.022 Y65.383
G1 X21.398 Y65.244
G1 X21.788 Y65.16
; Layer C00 Pass 2 of 3
G1 X22.186 Y65.132
G1 X22.585 Y65.162
G1 X22.98 Y65.249
G1 X23.364 Y65.396
G1 X23.997 Y65.723
G1 X24.597 Y66.104
G1 X25.16 Y66.538
G1 X25.683 Y67.021
G1 X26.597 Y67.968
G1 X27.47 Y68.951
G1 X28.302 Y69.968
G1 X29.093 Y71.02
G1 X30.59 Y73.091
G1 X32.048 Y75.189
G1 X34.636 Y78.975
G1 X36.587 Y81.814
G1 X38.597 Y84.611
G1 X40.663 Y87.366
G1 X42.787 Y90.078
G1 X44.524 Y92.167
G1 X46.319 Y94.205
G1 X48.17 Y96.19
G1 X50.076 Y98.122
G1 X52.036 Y99.998
G1 X54.05 Y101.819
G1 X56.115 Y103.582
G1 X58.23 Y105.287
G1 X61.429 Y107.785
G1 X64.641 Y110.265
G1 X65.363 Y110.839
G1 X66.5 Y111.755
G1 X67.602 Y112.712
G1 X68.667 Y113.711
G1 X69.694 Y114.748
G1 X70.109 Y115.197
G1 X70.504 Y115.663
G1 X70.877 Y116.145
G1 X71.229 Y116.643
G1 X71.558 Y117.155
G1 X71.865 Y117.682
G1 X72.149 Y118.222
G1 X72.41 Y118.775
G1 X72.684 Y119.526
G1 X72.897 Y120.294
G1 X73.047 Y121.073
G1 X73.134 Y121.861
G1 X73.158 Y122.653
G1 X73.119 Y123.446
G1 X73.016 Y124.236
G1 X72.849 Y125.018
G1 X72.659 Y125.712
G1 X72.442 Y126.398
G1 X72.198 Y127.074
G1 X71.927 Y127.739
G1 X71.631 Y128.393
G1 X71.309 Y129.035
G1 X70.961 Y129.665
G1 X70.588 Y130.281
G1 X69.921 Y131.299
G1 X69.219 Y132.294
G1 X68.483 Y133.262
G1 X67.714 Y134.204
G1 X66.913 Y135.118
G1 X66.08 Y136.005
G1 X65.216 Y136.862
G1 X64.322 Y137.689
G1 X62.961 Y138.886
G1 X61.55 Y140.02
G1 X60.091 Y141.088
G1 X58.587 Y142.089
G1 X57.04 Y143.023
G1 X55.452 Y143.887
G1 X53.825 Y144.68
G1 X52.162 Y145.4
G1 X51.112 Y145.803
G1 X50.047 Y146.16
G1 X48.969 Y146.472
G1 X47.88 Y146.739
G1 X46.78 Y146.96
G1 X45.672 Y147.135
G1 X44.556 Y147.263
G1 X43.434 Y147.344
G1 X42.502 Y147.367
G1 X41.575 Y147.344
G1 X40.652 Y147.276
G1 X39.737 Y147.164
G1 X38.83 Y147.009
G1 X37.933 Y146.81
G1 X37.047 Y146.569
G1 X36.175 Y146.285
G1 X35.317 Y145.961
G1 X34.476 Y145.595
G1 X33.652 Y145.188
G1 X32.847 Y144.742
G1 X32.063 Y144.257
G1 X31.301 Y143.732
G1 X30.563 Y143.169
G1 X29.85 Y142.569
G1 X29.1 Y141.881
G1 X28.375 Y141.166
G1 X27.678 Y140.426
G1 X27.007 Y139.662
G1 X26.365 Y138.874
G1 X25.752 Y138.063
G1 X25.168 Y137.229
G1 X24.615 Y136.375
G1 X23.912 Y135.206
G1 X23.244 Y134.018
G1 X22.61 Y132.812
G1 X22.011 Y131.589
G1 X21.447 Y130.35
G1 X20.918 Y129.095
G1 X20.425 Y127.824
G1 X19.968 Y126.539
G1 X19.389 Y124.779
G1 X18.85 Y123.007
G1 X18.35 Y121.224
G1 X17.89 Y119.43
G1 X17.47 Y117.627
G1 X17.089 Y115.814
G1 X16.749 Y113.993
G1 X16.449 Y112.164
G1 X16.166 Y110.26
G1 X15.914 Y108.353
G1 X15.691 Y106.442
G1 X15.498 Y104.528
G1 X15.336 Y102.613
G1 X15.204 Y100.695
G1 X15.102 Y98.776
G1 X15.031 Y96.855
G1 X14.989 Y94.934
G1 X14.978 Y93.012
G1 X14.997 Y91.09
G1 X15.047 Y89.168
G1 X15.127 Y87.247
G1 X15.237 Y85.326
G1 X15.377 Y83.407
G1 X15.548 Y81.489
G1 X15.817 Y79.131
G1 X16.179 Y76.785
G1 X16.633 Y74.456
G1 X17.179 Y72.146
G1 X17.491 Y71.043
G1 X17.863 Y69.961
G1 X18.295 Y68.9
G1 X18.784 Y67.864
G1 X19.097 Y67.3
G1 X19.462 Y66.769
G1 X19.877 Y66.277
G1 X20.339 Y65.825
G1 X20.667 Y65.578
G1 X21.022 Y65.383
G1 X21.398 Y65.244
G1 X21.788 Y65.16
; Layer C00 Pass 3 of 3
G1 X22.186 Y65.132
G1 X22.585 Y65.162
G1 X22.98 Y65.249
G1 X23.364 Y65.396
G1 X23.997 Y65.723
G1 X24.597 Y66.104
G1 X25.16 Y66.538
G1 X25.683 Y67.021
G1 X26.597 Y67.968
G1 X27.47 Y68.951
G1 X28.302 Y69.968
G1 X29.093 Y71.02
G1 X30.59 Y73.091
G1 X32.048 Y75.189
G1 X34.636 Y78.975
G1 X36.587 Y81.814
G1 X38.597 Y84.611
G1 X40.663 Y87.366
G1 X42.787 Y90.078
G1 X44.524 Y92.167
G1 X46.319 Y94.205
G1 X48.17 Y96.19
G1 X50.076 Y98.122
G1 X52.036 Y99.998
G1 X54.05 Y101.819
G1 X56.115 Y103.582
G1 X58.23 Y105.287
G1 X61.429 Y107.785
G1 X64.641 Y110.265
G1 X65.363 Y110.839
G1 X66.5 Y111.755
G1 X67.602 Y112.712
G1 X68.667 Y113.711
G1 X69.694 Y114.748
G1 X70.109 Y115.197
G1 X70.504 Y115.663
G1 X70.877 Y116.145
G1 X71.229 Y116.643
G1 X71.558 Y117.155
G1 X71.865 Y117.682
G1 X72.149 Y118.222
G1 X72.41 Y118.775
G1 X72.684 Y119.526
G1 X72.897 Y120.294
G1 X73.047 Y121.073
G1 X73.134 Y121.861
G1 X73.158 Y122.653
G1 X73.119 Y123.446
G1 X73.016 Y124.236
G1 X72.849 Y125.018
G1 X72.659 Y125.712
G1 X72.442 Y126.398
G1 X72.198 Y127.074
G1 X71.927 Y127.739
G1 X71.631 Y128.393
G1 X71.309 Y129.035
G1 X70.961 Y129.665
G1 X70.588 Y130.281
G1 X69.921 Y131.299
G1 X69.219 Y132.294
G1 X68.483 Y133.262
G1 X67.714 Y134.204
G1 X66.913 Y135.118
G1 X66.08 Y136.005
G1 X65.216 Y136.862
G1 X64.322 Y137.689
G1 X62.961 Y138.886
G1 X61.55 Y140.02
G1 X60.091 Y141.088
G1 X58.587 Y142.089
G1 X57.04 Y143.023
G1 X55.452 Y143.887
G1 X53.825 Y144.68
G1 X52.162 Y145.4
G1 X51.112 Y145.803
G1 X50.047 Y146.16
G1 X48.969 Y146.472
G1 X47.88 Y146.739
G1 X46.78 Y146.96
G1 X45.672 Y147.135
G1 X44.556 Y147.263
G1 X43.434 Y147.344
G1 X42.502 Y147.367
G1 X41.575 Y147.344
G1 X40.652 Y147.276
G1 X39.737 Y147.164
G1 X38.83 Y147.009
G1 X37.933 Y146.81
G1 X37.047 Y146.569
G1 X36.175 Y146.285
G1 X35.317 Y145.961
G1 X34.476 Y145.595
G1 X33.652 Y145.188
G1 X32.847 Y144.742
G1 X32.063 Y144.257
G1 X31.301 Y143.732
G1 X30.563 Y143.169
G1 X29.85 Y142.569
G1 X29.1 Y141.881
G1 X28.375 Y141.166
G1 X27.678 Y140.426
G1 X27.007 Y139.662
G1 X26.365 Y138.874
G1 X25.752 Y138.063
G1 X25.168 Y137.229
G1 X24.615 Y136.375
G1 X23.912 Y135.206
G1 X23.244 Y134.018
G1 X22.61 Y132.812
G1 X22.011 Y131.589
G1 X21.447 Y130.35
G1 X20.918 Y129.095
G1 X20.425 Y127.824
G1 X19.968 Y126.539
G1 X19.389 Y124.779
G1 X18.85 Y123.007
G1 X18.35 Y121.224
G1 X17.89 Y119.43
G1 X17.47 Y117.627
G1 X17.089 Y115.814
G1 X16.749 Y113.993
G1 X16.449 Y112.164
G1 X16.166 Y110.26
G1 X15.914 Y108.353
G1 X15.691 Y106.442
G1 X15.498 Y104.528
G1 X15.336 Y102.613
G1 X15.204 Y100.695
G1 X15.102 Y98.776
G1 X15.031 Y96.855
G1 X14.989 Y94.934
G1 X14.978 Y93.012
G1 X14.997 Y91.09
G1 X15.047 Y89.168
G1 X15.127 Y87.247
G1 X15.237 Y85.326
G1 X15.377 Y83.407
G1 X15.548 Y81.489
G1 X15.817 Y79.131
G1 X16.179 Y76.785
G1 X16.633 Y74.456
G1 X17.179 Y72.146
G1 X17.491 Y71.043
G1 X17.863 Y69.961
G1 X18.295 Y68.9
G1 X18.784 Y67.864
G1 X19.097 Y67.3
G1 X19.462 Y66.769
G1 X19.877 Y66.277
G1 X20.339 Y65.825
G1 X20.667 Y65.578
G1 X21.022 Y65.383
G1 X21.398 Y65.244
G1 X21.788 Y65.16
M05 
G0 X84.184 Y52.615 F0
; Layer C00 Pass 1 of 3
M03 S1000
G1 X84.499 Y53.319 F600
G1 X85.284 Y54.877
G1 X86.117 Y56.409
G1 X86.999 Y57.914
G1 X87.928 Y59.391
G1 X89.541 Y61.878
G1 X91.215 Y64.324
G1 X92.949 Y66.729
G1 X94.741 Y69.091
G1 X96.02 Y70.675
G1 X97.369 Y72.199
G1 X98.786 Y73.66
G1 X100.268 Y75.057
G1 X100.873 Y75.583
G1 X101.498 Y76.085
G1 X102.14 Y76.563
G1 X102.799 Y77.017
G1 X103.475 Y77.446
G1 X104.166 Y77.85
G1 X104.873 Y78.228
G1 X105.594 Y78.579
G1 X106.614 Y78.997
G1 X107.656 Y79.344
G1 X108.717 Y79.618
G1 X109.794 Y79.821
G1 X110.881 Y79.95
G1 X111.976 Y80.006
G1 X113.074 Y79.988
G1 X114.172 Y79.895
G1 X115.336 Y79.732
G1 X116.488 Y79.51
G1 X117.628 Y79.23
G1 X118.753 Y78.891
G1 X119.771 Y78.532
G1 X120.779 Y78.145
G1 X121.775 Y77.731
G1 X122.759 Y77.289
G1 X123.73 Y76.819
G1 X124.688 Y76.324
G1 X125.633 Y75.801
G1 X126.563 Y75.252
G1 X128.021 Y74.341
G1 X129.458 Y73.396
G1 X130.873 Y72.419
G1 X132.264 Y71.41
G1 X133.631 Y70.369
G1 X134.975 Y69.296
G1 X136.294 Y68.193
G1 X137.587 Y67.059
G1 X139.194 Y65.612
G1 X140.765 Y64.127
G1 X142.3 Y62.606
G1 X143.797 Y61.049
G1 X145.257 Y59.456
G1 X146.679 Y57.829
G1 X148.061 Y56.167
G1 X149.404 Y54.472
G1 X150.527 Y52.964
G1 X151.582 Y51.409
G1 X152.566 Y49.808
G1 X153.479 Y48.165
G1 X153.94 Y47.231
G1 X154.335 Y46.269
G1 X154.664 Y45.282
G1 X154.924 Y44.274
G1 X155.031 Y43.635
G1 X155.056 Y42.99
G1 X155 Y42.347
G1 X154.863 Y41.714
G1 X154.725 Y41.374
G1 X154.552 Y41.053
G1 X154.346 Y40.755
G1 X154.11 Y40.482
G1 X153.846 Y40.235
G1 X153.557 Y40.018
G1 X153.244 Y39.832
G1 X152.909 Y39.68
G1 X152.139 Y39.411
G1 X151.35 Y39.211
G1 X150.546 Y39.08
G1 X149.732 Y39.02
G1 X148.537 Y38.99
G1 X147.343 Y39.01
G1 X146.15 Y39.078
G1 X144.961 Y39.196
G1 X142.633 Y39.491
G1 X140.311 Y39.831
G1 X137.996 Y40.217
G1 X135.689 Y40.647
G1 X131.666 Y41.41
G1 X127.644 Y42.179
G1 X125.786 Y42.527
G1 X121.644 Y43.284
G1 X117.489 Y43.963
G1 X113.322 Y44.563
G1 X109.144 Y45.084
G1 X105.979 Y45.406
G1 X102.81 Y45.677
G1 X99.637 Y45.897
G1 X96.461 Y46.066
G1 X93.852 Y46.193
G1 X92.311 Y46.26
G1 X90.772 Y46.362
G1 X89.236 Y46.5
G1 X87.704 Y46.672
G1 X87.039 Y46.774
G1 X86.384 Y46.922
G1 X85.74 Y47.114
G1 X85.11 Y47.35
G1 X84.694 Y47.558
G1 X84.323 Y47.832
G1 X84.002 Y48.164
G1 X83.741 Y48.548
G1 X83.579 Y48.995
G1 X83.489 Y49.458
G1 X83.472 Y49.93
G1 X83.529 Y50.401
G1 X83.698 Y51.154
G1 X83.916 Y51.893
G1 X84.184 Y52.615
; Layer C00 Pass 2 of 3
G1 X84.499 Y53.319
G1 X85.284 Y54.877
G1 X86.117 Y56.409
G1 X86.999 Y57.914
G1 X87.928 Y59.391
G1 X89.541 Y61.878
G1 X91.215 Y64.324
G1 X92.949 Y66.729
G1 X94.741 Y69.091
G1 X96.02 Y70.675
G1 X97.369 Y72.199
G1 X98.786 Y73.66
G1 X100.268 Y75.057
G1 X100.873 Y75.583
G1 X101.498 Y76.085
G1 X102.14 Y76.563
G1 X102.799 Y77.017
G1 X103.475 Y77.446
G1 X104.166 Y77.85
G1 X104.873 Y78.228
G1 X105.594 Y78.579
G1 X106.614 Y78.997
G1 X107.656 Y79.344
G1 X108.717 Y79.618
G1 X109.794 Y79.821
G1 X110.881 Y79.95
G1 X111.976 Y80.006
G1 X113.074 Y79.988
G1 X114.172 Y79.895
G1 X115.336 Y79.732
G1 X116.488 Y79.51
G1 X117.628 Y79.23
G1 X118.753 Y78.891
G1 X119.771 Y78.532
G1 X120.779 Y78.145
G1 X121.775 Y77.731
G1 X122.759 Y77.289
G1 X123.73 Y76.819
G1 X124.688 Y76.324
G1 X125.633 Y75.801
G1 X126.563 Y75.252
G1 X128.021 Y74.341
G1 X129.458 Y73.396
G1 X130.873 Y72.419
G1 X132.264 Y71.41
G1 X133.631 Y70.369
G1 X134.975 Y69.296
G1 X136.294 Y68.193
G1 X137.587 Y67.059
G1 X139.194 Y65.612
G1 X140.765 Y64.127
G1 X142.3 Y62.606
G1 X143.797 Y61.049
G1 X145.257 Y59.456
G1 X146.679 Y57.829
G1 X148.061 Y56.167
G1 X149.404 Y54.472
G1 X150.527 Y52.964
G1 X151.582 Y51.409
G1 X152.566 Y49.808
G1 X153.479 Y48.165
G1 X153.94 Y47.231
G1 X154.335 Y46.269
G1 X154.664 Y45.282
G1 X154.924 Y44.274
G1 X155.031 Y43.635
G1 X155.056 Y42.99
G1 X155 Y42.347
G1 X154.863 Y41.714
G1 X154.725 Y41.374
G1 X154.552 Y41.053
G1 X154.346 Y40.755
G1 X154.11 Y40.482
G1 X153.846 Y40.235
G1 X153.557 Y40.018
G1 X153.244 Y39.832
G1 X152.909 Y39.68
G1 X152.139 Y39.411
G1 X151.35 Y39.211
G1 X150.546 Y39.08
G1 X149.732 Y39.02
G1 X148.537 Y38.99
G1 X147.343 Y39.01
G1 X146.15 Y39.078
G1 X144.961 Y39.196
G1 X142.633 Y39.491
G1 X140.311 Y39.831
G1 X137.996 Y40.217
G1 X135.689 Y40.647
G1 X131.666 Y41.41
G1 X127.644 Y42.179
G1 X125.786 Y42.527
G1 X121.644 Y43.284
G1 X117.489 Y43.963
G1 X113.322 Y44.563
G1 X109.144 Y45.084
G1 X105.979 Y45.406
G1 X102.81 Y45.677
G1 X99.637 Y45.897
G1 X96.461 Y46.066
G1 X93.852 Y46.193
G1 X92.311 Y46.26
G1 X90.772 Y46.362
G1 X89.236 Y46.5
G1 X87.704 Y46.672
G1 X87.039 Y46.774
G1 X86.384 Y46.922
G1 X85.74 Y47.114
G1 X85.11 Y47.35
G1 X84.694 Y47.558
G1 X84.323 Y47.832
G1 X84.002 Y48.164
G1 X83.741 Y48.548
G1 X83.579 Y48.995
G1 X83.489 Y49.458
G1 X83.472 Y49.93
G1 X83.529 Y50.401
G1 X83.698 Y51.154
G1 X83.916 Y51.893
G1 X84.184 Y52.615
; Layer C00 Pass 3 of 3
G1 X84.499 Y53.319
G1 X85.284 Y54.877
G1 X86.117 Y56.409
G1 X86.999 Y57.914
G1 X87.928 Y59.391
G1 X89.541 Y61.878
G1 X91.215 Y64.324
G1 X92.949 Y66.729
G1 X94.741 Y69.091
G1 X96.02 Y70.675
G1 X97.369 Y72.199
G1 X98.786 Y73.66
G1 X100.268 Y75.057
G1 X100.873 Y75.583
G1 X101.498 Y76.085
G1 X102.14 Y76.563
G1 X102.799 Y77.017
G1 X103.475 Y77.446
G1 X104.166 Y77.85
G1 X104.873 Y78.228
G1 X105.594 Y78.579
G1 X106.614 Y78.997
G1 X107.656 Y79.344
G1 X108.717 Y79.618
G1 X109.794 Y79.821
G1 X110.881 Y79.95
G1 X111.976 Y80.006
G1 X113.074 Y79.988
G1 X114.172 Y79.895
G1 X115.336 Y79.732
G1 X116.488 Y79.51
G1 X117.628 Y79.23
G1 X118.753 Y78.891
G1 X119.771 Y78.532
G1 X120.779 Y78.145
G1 X121.775 Y77.731
G1 X122.759 Y77.289
G1 X123.73 Y76.819
G1 X124.688 Y76.324
G1 X125.633 Y75.801
G1 X126.563 Y75.252
G1 X128.021 Y74.341
G1 X129.458 Y73.396
G1 X130.873 Y72.419
G1 X132.264 Y71.41
G1 X133.631 Y70.369
G1 X134.975 Y69.296
G1 X136.294 Y68.193
G1 X137.587 Y67.059
G1 X139.194 Y65.612
G1 X140.765 Y64.127
G1 X142.3 Y62.606
G1 X143.797 Y61.049
G1 X145.257 Y59.456
G1 X146.679 Y57.829
G1 X148.061 Y56.167
G1 X149.404 Y54.472
G1 X150.527 Y52.964
G1 X151.582 Y51.409
G1 X152.566 Y49.808
G1 X153.479 Y48.165
G1 X153.94 Y47.231
G1 X154.335 Y46.269
G1 X154.664 Y45.282
G1 X154.924 Y44.274
G1 X155.031 Y43.635
G1 X155.056 Y42.99
G1 X155 Y42.347
G1 X154.863 Y41.714
G1 X154.725 Y41.374
G1 X154.552 Y41.053
G1 X154.346 Y40.755
G1 X154.11 Y40.482
G1 X153.846 Y40.235
G1 X153.557 Y40.018
G1 X153.244 Y39.832
G1 X152.909 Y39.68
G1 X152.139 Y39.411
G1 X151.35 Y39.211
G1 X150.546 Y39.08
G1 X149.732 Y39.02
G1 X148.537 Y38.99
G1 X147.343 Y39.01
G1 X146.15 Y39.078
G1 X144.961 Y39.196
G1 X142.633 Y39.491
G1 X140.311 Y39.831
G1 X137.996 Y40.217
G1 X135.689 Y40.647
G1 X131.666 Y41.41
G1 X127.644 Y42.179
G1 X125.786 Y42.527
G1 X121.644 Y43.284
G1 X117.489 Y43.963
G1 X113.322 Y44.563
G1 X109.144 Y45.084
G1 X105.979 Y45.406
G1 X102.81 Y45.677
G1 X99.637 Y45.897
G1 X96.461 Y46.066
G1 X93.852 Y46.193
G1 X92.311 Y46.26
G1 X90.772 Y46.362
G1 X89.236 Y46.5
G1 X87.704 Y46.672
G1 X87.039 Y46.774
G1 X86.384 Y46.922
G1 X85.74 Y47.114
G1 X85.11 Y47.35
G1 X84.694 Y47.558
G1 X84.323 Y47.832
G1 X84.002 Y48.164
G1 X83.741 Y48.548
G1 X83.579 Y48.995
G1 X83.489 Y49.458
G1 X83.472 Y49.93
G1 X83.529 Y50.401
G1 X83.698 Y51.154
G1 X83.916 Y51.893
G1 X84.184 Y52.615
M05 
G0 X84.196 Y52.601 F0
; Layer C00 Pass 1 of 3
M03 S1000
G1 X83.816 Y51.591 F600
G1 X83.648 Y51.045
G1 X83.54 Y50.487
G1 X83.491 Y49.92
G1 X83.502 Y49.35
G1 X83.555 Y49.058
G1 X83.643 Y48.778
G1 X83.764 Y48.512
G1 X83.917 Y48.265
G1 X84.098 Y48.038
G1 X84.307 Y47.835
G1 X84.541 Y47.657
G1 X84.798 Y47.509
G1 X85.439 Y47.224
G1 X86.101 Y46.995
G1 X86.78 Y46.823
G1 X87.473 Y46.708
G1 X88.666 Y46.554
G1 X89.862 Y46.43
G1 X91.061 Y46.337
G1 X92.262 Y46.275
G1 X98.34 Y45.968
G1 X101.122 Y45.8
G1 X103.899 Y45.591
G1 X106.674 Y45.34
G1 X109.444 Y45.049
G1 X112.209 Y44.716
G1 X114.969 Y44.343
G1 X117.724 Y43.928
G1 X120.473 Y43.472
G1 X127.944 Y42.118
G1 X135.404 Y40.7
G1 X138.514 Y40.124
G1 X140.638 Y39.775
G1 X142.768 Y39.467
G1 X144.904 Y39.202
G1 X146.263 Y39.068
G1 X147.626 Y39.001
G1 X148.99
G1 X150.354 Y39.07
G1 X151.076 Y39.154
G1 X151.786 Y39.304
G1 X152.479 Y39.519
G1 X153.152 Y39.796
G1 X153.573 Y40.035
G1 X153.949 Y40.327
G1 X154.277 Y40.667
G1 X154.552 Y41.048
G1 X154.771 Y41.464
G1 X154.93 Y41.908
G1 X155.025 Y42.375
G1 X155.052 Y42.858
G1 X155.003 Y43.689
G1 X154.877 Y44.51
G1 X154.674 Y45.316
G1 X154.396 Y46.1
G1 X153.824 Y47.436
G1 X153.181 Y48.739
G1 X152.47 Y50.005
G1 X151.691 Y51.233
G1 X150.34 Y53.198
G1 X148.918 Y55.112
G1 X147.427 Y56.972
G1 X145.867 Y58.777
G1 X144.124 Y60.703
G1 X142.328 Y62.579
G1 X140.48 Y64.401
G1 X138.581 Y66.171
G1 X136.633 Y67.885
G1 X134.636 Y69.544
G1 X132.592 Y71.146
G1 X130.503 Y72.69
G1 X128.657 Y73.956
G1 X126.76 Y75.141
G1 X124.813 Y76.242
G1 X122.82 Y77.26
G1 X121.824 Y77.718
G1 X120.813 Y78.143
G1 X119.789 Y78.534
G1 X118.753 Y78.891
G1 X117.893 Y79.163
G1 X117.023 Y79.396
G1 X116.145 Y79.592
G1 X115.259 Y79.749
G1 X114.368 Y79.868
G1 X113.471 Y79.948
G1 X112.572 Y79.99
G1 X111.67
G1 X110.622 Y79.922
G1 X109.584 Y79.785
G1 X108.559 Y79.583
G1 X107.55 Y79.315
G1 X106.561 Y78.982
G1 X105.593 Y78.587
G1 X104.652 Y78.129
G1 X103.739 Y77.611
G1 X103.004 Y77.141
G1 X102.286 Y76.648
G1 X101.585 Y76.133
G1 X100.9 Y75.596
G1 X100.234 Y75.036
G1 X99.586 Y74.455
G1 X98.956 Y73.853
G1 X98.346 Y73.231
G1 X97.083 Y71.871
G1 X95.864 Y70.472
G1 X94.689 Y69.036
G1 X93.56 Y67.563
G1 X92.483 Y66.113
G1 X91.429 Y64.646
G1 X90.399 Y63.163
G1 X89.393 Y61.663
G1 X88.411 Y60.148
G1 X87.454 Y58.617
G1 X86.521 Y57.071
G1 X85.613 Y55.509
G1 X85.095 Y54.562
G1 X84.622 Y53.592
G1 X84.196 Y52.601
; Layer C00 Pass 2 of 3
G1 X83.816 Y51.591
G1 X83.648 Y51.045
G1 X83.54 Y50.487
G1 X83.491 Y49.92
G1 X83.502 Y49.35
G1 X83.555 Y49.058
G1 X83.643 Y48.778
G1 X83.764 Y48.512
G1 X83.917 Y48.265
G1 X84.098 Y48.038
G1 X84.307 Y47.835
G1 X84.541 Y47.657
G1 X84.798 Y47.509
G1 X85.439 Y47.224
G1 X86.101 Y46.995
G1 X86.78 Y46.823
G1 X87.473 Y46.708
G1 X88.666 Y46.554
G1 X89.862 Y46.43
G1 X91.061 Y46.337
G1 X92.262 Y46.275
G1 X98.34 Y45.968
G1 X101.122 Y45.8
G1 X103.899 Y45.591
G1 X106.674 Y45.34
G1 X109.444 Y45.049
G1 X112.209 Y44.716
G1 X114.969 Y44.343
G1 X117.724 Y43.928
G1 X120.473 Y43.472
G1 X127.944 Y42.118
G1 X135.404 Y40.7
G1 X138.514 Y40.124
G1 X140.638 Y39.775
G1 X142.768 Y39.467
G1 X144.904 Y39.202
G1 X146.263 Y39.068
G1 X147.626 Y39.001
G1 X148.99
G1 X150.354 Y39.07
G1 X151.076 Y39.154
G1 X151.786 Y39.304
G1 X152.479 Y39.519
G1 X153.152 Y39.796
G1 X153.573 Y40.035
G1 X153.949 Y40.327
G1 X154.277 Y40.667
G1 X154.552 Y41.048
G1 X154.771 Y41.464
G1 X154.93 Y41.908
G1 X155.025 Y42.375
G1 X155.052 Y42.858
G1 X155.003 Y43.689
G1 X154.877 Y44.51
G1 X154.674 Y45.316
G1 X154.396 Y46.1
G1 X153.824 Y47.436
G1 X153.181 Y48.739
G1 X152.47 Y50.005
G1 X151.691 Y51.233
G1 X150.34 Y53.198
G1 X148.918 Y55.112
G1 X147.427 Y56.972
G1 X145.867 Y58.777
G1 X144.124 Y60.703
G1 X142.328 Y62.579
G1 X140.48 Y64.401
G1 X138.581 Y66.171
G1 X136.633 Y67.885
G1 X134.636 Y69.544
G1 X132.592 Y71.146
G1 X130.503 Y72.69
G1 X128.657 Y73.956
G1 X126.76 Y75.141
G1 X124.813 Y76.242
G1 X122.82 Y77.26
G1 X121.824 Y77.718
G1 X120.813 Y78.143
G1 X119.789 Y78.534
G1 X118.753 Y78.891
G1 X117.893 Y79.163
G1 X117.023 Y79.396
G1 X116.145 Y79.592
G1 X115.259 Y79.749
G1 X114.368 Y79.868
G1 X113.471 Y79.948
G1 X112.572 Y79.99
G1 X111.67
G1 X110.622 Y79.922
G1 X109.584 Y79.785
G1 X108.559 Y79.583
G1 X107.55 Y79.315
G1 X106.561 Y78.982
G1 X105.593 Y78.587
G1 X104.652 Y78.129
G1 X103.739 Y77.611
G1 X103.004 Y77.141
G1 X102.286 Y76.648
G1 X101.585 Y76.133
G1 X100.9 Y75.596
G1 X100.234 Y75.036
G1 X99.586 Y74.455
G1 X98.956 Y73.853
G1 X98.346 Y73.231
G1 X97.083 Y71.871
G1 X95.864 Y70.472
G1 X94.689 Y69.036
G1 X93.56 Y67.563
G1 X92.483 Y66.113
G1 X91.429 Y64.646
G1 X90.399 Y63.163
G1 X89.393 Y61.663
G1 X88.411 Y60.148
G1 X87.454 Y58.617
G1 X86.521 Y57.071
G1 X85.613 Y55.509
G1 X85.095 Y54.562
G1 X84.622 Y53.592
G1 X84.196 Y52.601
; Layer C00 Pass 3 of 3
G1 X83.816 Y51.591
G1 X83.648 Y51.045
G1 X83.54 Y50.487
G1 X83.491 Y49.92
G1 X83.502 Y49.35
G1 X83.555 Y49.058
G1 X83.643 Y48.778
G1 X83.764 Y48.512
G1 X83.917 Y48.265
G1 X84.098 Y48.038
G1 X84.307 Y47.835
G1 X84.541 Y47.657
G1 X84.798 Y47.509
G1 X85.439 Y47.224
G1 X86.101 Y46.995
G1 X86.78 Y46.823
G1 X87.473 Y46.708
G1 X88.666 Y46.554
G1 X89.862 Y46.43
G1 X91.061 Y46.337
G1 X92.262 Y46.275
G1 X98.34 Y45.968
G1 X101.122 Y45.8
G1 X103.899 Y45.591
G1 X106.674 Y45.34
G1 X109.444 Y45.049
G1 X112.209 Y44.716
G1 X114.969 Y44.343
G1 X117.724 Y43.928
G1 X120.473 Y43.472
G1 X127.944 Y42.118
G1 X135.404 Y40.7
G1 X138.514 Y40.124
G1 X140.638 Y39.775
G1 X142.768 Y39.467
G1 X144.904 Y39.202
G1 X146.263 Y39.068
G1 X147.626 Y39.001
G1 X148.99
G1 X150.354 Y39.07
G1 X151.076 Y39.154
G1 X151.786 Y39.304
G1 X152.479 Y39.519
G1 X153.152 Y39.796
G1 X153.573 Y40.035
G1 X153.949 Y40.327
G1 X154.277 Y40.667
G1 X154.552 Y41.048
G1 X154.771 Y41.464
G1 X154.93 Y41.908
G1 X155.025 Y42.375
G1 X155.052 Y42.858
G1 X155.003 Y43.689
G1 X154.877 Y44.51
G1 X154.674 Y45.316
G1 X154.396 Y46.1
G1 X153.824 Y47.436
G1 X153.181 Y48.739
G1 X152.47 Y50.005
G1 X151.691 Y51.233
G1 X150.34 Y53.198
G1 X148.918 Y55.112
G1 X147.427 Y56.972
G1 X145.867 Y58.777
G1 X144.124 Y60.703
G1 X142.328 Y62.579
G1 X140.48 Y64.401
G1 X138.581 Y66.171
G1 X136.633 Y67.885
G1 X134.636 Y69.544
G1 X132.592 Y71.146
G1 X130.503 Y72.69
G1 X128.657 Y73.956
G1 X126.76 Y75.141
G1 X124.813 Y76.242
G1 X122.82 Y77.26
G1 X121.824 Y77.718
G1 X120.813 Y78.143
G1 X119.789 Y78.534
G1 X118.753 Y78.891
G1 X117.893 Y79.163
G1 X117.023 Y79.396
G1 X116.145 Y79.592
G1 X115.259 Y79.749
G1 X114.368 Y79.868
G1 X113.471 Y79.948
G1 X112.572 Y79.99
G1 X111.67
G1 X110.622 Y79.922
G1 X109.584 Y79.785
G1 X108.559 Y79.583
G1 X107.55 Y79.315
G1 X106.561 Y78.982
G1 X105.593 Y78.587
G1 X104.652 Y78.129
G1 X103.739 Y77.611
G1 X103.004 Y77.141
G1 X102.286 Y76.648
G1 X101.585 Y76.133
G1 X100.9 Y75.596
G1 X100.234 Y75.036
G1 X99.586 Y74.455
G1 X98.956 Y73.853
G1 X98.346 Y73.231
G1 X97.083 Y71.871
G1 X95.864 Y70.472
G1 X94.689 Y69.036
G1 X93.56 Y67.563
G1 X92.483 Y66.113
G1 X91.429 Y64.646
G1 X90.399 Y63.163
G1 X89.393 Y61.663
G1 X88.411 Y60.148
G1 X87.454 Y58.617
G1 X86.521 Y57.071
G1 X85.613 Y55.509
G1 X85.095 Y54.562
G1 X84.622 Y53.592
G1 X84.196 Y52.601
M05 
G0 X143.785 Y81.138 F0
; Layer C00 Pass 1 of 3
M03 S1000
G1 X144.679 Y80.311 F600
G1 X146.04 Y79.114
G1 X147.45 Y77.981
G1 X148.909 Y76.913
G1 X150.413 Y75.911
G1 X151.96 Y74.978
G1 X153.548 Y74.114
G1 X155.175 Y73.321
G1 X156.838 Y72.6
G1 X157.888 Y72.198
G1 X158.953 Y71.84
G1 X160.031 Y71.528
G1 X161.121 Y71.261
G1 X162.22 Y71.041
G1 X163.329 Y70.866
G1 X164.445 Y70.738
G1 X165.566 Y70.656
G1 X166.498 Y70.634
G1 X167.426 Y70.657
G1 X168.348 Y70.724
G1 X169.264 Y70.836
G1 X170.171 Y70.992
G1 X171.068 Y71.19
G1 X171.953 Y71.432
G1 X172.825 Y71.715
G1 X173.683 Y72.04
G1 X174.525 Y72.406
G1 X175.349 Y72.812
G1 X176.153 Y73.258
G1 X176.937 Y73.744
G1 X177.699 Y74.268
G1 X178.437 Y74.831
G1 X179.15 Y75.432
G1 X179.901 Y76.12
G1 X180.625 Y76.834
G1 X181.323 Y77.574
G1 X181.993 Y78.338
G1 X182.635 Y79.127
G1 X183.248 Y79.938
G1 X183.832 Y80.771
G1 X184.386 Y81.626
G1 X185.088 Y82.795
G1 X185.756 Y83.982
G1 X186.39 Y85.188
G1 X186.989 Y86.411
G1 X187.553 Y87.651
G1 X188.082 Y88.906
G1 X188.575 Y90.176
G1 X189.032 Y91.461
G1 X189.611 Y93.221
G1 X190.15 Y94.994
G1 X190.65 Y96.777
G1 X191.111 Y98.57
G1 X191.531 Y100.374
G1 X191.911 Y102.186
G1 X192.251 Y104.007
G1 X192.551 Y105.836
G1 X192.834 Y107.74
G1 X193.087 Y109.648
G1 X193.31 Y111.559
G1 X193.502 Y113.472
G1 X193.664 Y115.388
G1 X193.796 Y117.305
G1 X193.898 Y119.225
G1 X193.97 Y121.145
G1 X194.011 Y123.067
G1 X194.022 Y124.988
G1 X194.003 Y126.911
G1 X193.954 Y128.832
G1 X193.874 Y130.754
G1 X193.764 Y132.674
G1 X193.624 Y134.594
G1 X193.453 Y136.511
G1 X193.184 Y138.87
G1 X192.822 Y141.215
G1 X192.367 Y143.544
G1 X191.821 Y145.855
G1 X191.509 Y146.957
G1 X191.137 Y148.04
G1 X190.706 Y149.1
G1 X190.216 Y150.136
G1 X189.903 Y150.701
G1 X189.538 Y151.231
G1 X189.123 Y151.724
G1 X188.662 Y152.175
G1 X188.334 Y152.423
G1 X187.979 Y152.617
G1 X187.603 Y152.757
G1 X187.213 Y152.841
G1 X186.815 Y152.868
G1 X186.415 Y152.839
G1 X186.02 Y152.751
G1 X185.636 Y152.605
G1 X185.003 Y152.278
G1 X184.404 Y151.896
G1 X183.84 Y151.463
G1 X183.317 Y150.979
G1 X182.404 Y150.033
G1 X181.53 Y149.05
G1 X180.698 Y148.032
G1 X179.908 Y146.98
G1 X178.41 Y144.91
G1 X176.952 Y142.811
G1 X174.364 Y139.025
G1 X172.413 Y136.187
G1 X170.404 Y133.39
G1 X168.337 Y130.635
G1 X166.213 Y127.923
G1 X164.477 Y125.834
G1 X162.682 Y123.796
G1 X160.831 Y121.81
G1 X158.925 Y119.879
G1 X156.964 Y118.002
G1 X154.951 Y116.182
G1 X152.886 Y114.419
G1 X150.77 Y112.714
G1 X147.572 Y110.216
G1 X144.36 Y107.736
G1 X143.637 Y107.161
G1 X142.5 Y106.246
G1 X141.398 Y105.288
G1 X140.333 Y104.29
G1 X139.306 Y103.252
G1 X138.891 Y102.804
G1 X138.497 Y102.338
G1 X138.124 Y101.856
G1 X137.772 Y101.358
G1 X137.442 Y100.845
G1 X137.135 Y100.319
G1 X136.851 Y99.778
G1 X136.591 Y99.225
G1 X136.316 Y98.474
G1 X136.104 Y97.707
G1 X135.954 Y96.927
G1 X135.866 Y96.139
G1 X135.842 Y95.347
G1 X135.882 Y94.554
G1 X135.985 Y93.765
G1 X136.151 Y92.982
G1 X136.342 Y92.288
G1 X136.559 Y91.603
G1 X136.803 Y90.927
G1 X137.073 Y90.261
G1 X137.37 Y89.607
G1 X137.692 Y88.965
G1 X138.04 Y88.336
G1 X138.412 Y87.72
G1 X139.08 Y86.701
G1 X139.782 Y85.707
G1 X140.518 Y84.738
G1 X141.287 Y83.797
G1 X142.088 Y82.882
G1 X142.921 Y81.996
G1 X143.785 Y81.138
; Layer C00 Pass 2 of 3
G1 X144.679 Y80.311
G1 X146.04 Y79.114
G1 X147.45 Y77.981
G1 X148.909 Y76.913
G1 X150.413 Y75.911
G1 X151.96 Y74.978
G1 X153.548 Y74.114
G1 X155.175 Y73.321
G1 X156.838 Y72.6
G1 X157.888 Y72.198
G1 X158.953 Y71.84
G1 X160.031 Y71.528
G1 X161.121 Y71.261
G1 X162.22 Y71.041
G1 X163.329 Y70.866
G1 X164.445 Y70.738
G1 X165.566 Y70.656
G1 X166.498 Y70.634
G1 X167.426 Y70.657
G1 X168.348 Y70.724
G1 X169.264 Y70.836
G1 X170.171 Y70.992
G1 X171.068 Y71.19
G1 X171.953 Y71.432
G1 X172.825 Y71.715
G1 X173.683 Y72.04
G1 X174.525 Y72.406
G1 X175.349 Y72.812
G1 X176.153 Y73.258
G1 X176.937 Y73.744
G1 X177.699 Y74.268
G1 X178.437 Y74.831
G1 X179.15 Y75.432
G1 X179.901 Y76.12
G1 X180.625 Y76.834
G1 X181.323 Y77.574
G1 X181.993 Y78.338
G1 X182.635 Y79.127
G1 X183.248 Y79.938
G1 X183.832 Y80.771
G1 X184.386 Y81.626
G1 X185.088 Y82.795
G1 X185.756 Y83.982
G1 X186.39 Y85.188
G1 X186.989 Y86.411
G1 X187.553 Y87.651
G1 X188.082 Y88.906
G1 X188.575 Y90.176
G1 X189.032 Y91.461
G1 X189.611 Y93.221
G1 X190.15 Y94.994
G1 X190.65 Y96.777
G1 X191.111 Y98.57
G1 X191.531 Y100.374
G1 X191.911 Y102.186
G1 X192.251 Y104.007
G1 X192.551 Y105.836
G1 X192.834 Y107.74
G1 X193.087 Y109.648
G1 X193.31 Y111.559
G1 X193.502 Y113.472
G1 X193.664 Y115.388
G1 X193.796 Y117.305
G1 X193.898 Y119.225
G1 X193.97 Y121.145
G1 X194.011 Y123.067
G1 X194.022 Y124.988
G1 X194.003 Y126.911
G1 X193.954 Y128.832
G1 X193.874 Y130.754
G1 X193.764 Y132.674
G1 X193.624 Y134.594
G1 X193.453 Y136.511
G1 X193.184 Y138.87
G1 X192.822 Y141.215
G1 X192.367 Y143.544
G1 X191.821 Y145.855
G1 X191.509 Y146.957
G1 X191.137 Y148.04
G1 X190.706 Y149.1
G1 X190.216 Y150.136
G1 X189.903 Y150.701
G1 X189.538 Y151.231
G1 X189.123 Y151.724
G1 X188.662 Y152.175
G1 X188.334 Y152.423
G1 X187.979 Y152.617
G1 X187.603 Y152.757
G1 X187.213 Y152.841
G1 X186.815 Y152.868
G1 X186.415 Y152.839
G1 X186.02 Y152.751
G1 X185.636 Y152.605
G1 X185.003 Y152.278
G1 X184.404 Y151.896
G1 X183.84 Y151.463
G1 X183.317 Y150.979
G1 X182.404 Y150.033
G1 X181.53 Y149.05
G1 X180.698 Y148.032
G1 X179.908 Y146.98
G1 X178.41 Y144.91
G1 X176.952 Y142.811
G1 X174.364 Y139.025
G1 X172.413 Y136.187
G1 X170.404 Y133.39
G1 X168.337 Y130.635
G1 X166.213 Y127.923
G1 X164.477 Y125.834
G1 X162.682 Y123.796
G1 X160.831 Y121.81
G1 X158.925 Y119.879
G1 X156.964 Y118.002
G1 X154.951 Y116.182
G1 X152.886 Y114.419
G1 X150.77 Y112.714
G1 X147.572 Y110.216
G1 X144.36 Y107.736
G1 X143.637 Y107.161
G1 X142.5 Y106.246
G1 X141.398 Y105.288
G1 X140.333 Y104.29
G1 X139.306 Y103.252
G1 X138.891 Y102.804
G1 X138.497 Y102.338
G1 X138.124 Y101.856
G1 X137.772 Y101.358
G1 X137.442 Y100.845
G1 X137.135 Y100.319
G1 X136.851 Y99.778
G1 X136.591 Y99.225
G1 X136.316 Y98.474
G1 X136.104 Y97.707
G1 X135.954 Y96.927
G1 X135.866 Y96.139
G1 X135.842 Y95.347
G1 X135.882 Y94.554
G1 X135.985 Y93.765
G1 X136.151 Y92.982
G1 X136.342 Y92.288
G1 X136.559 Y91.603
G1 X136.803 Y90.927
G1 X137.073 Y90.261
G1 X137.37 Y89.607
G1 X137.692 Y88.965
G1 X138.04 Y88.336
G1 X138.412 Y87.72
G1 X139.08 Y86.701
G1 X139.782 Y85.707
G1 X140.518 Y84.738
G1 X141.287 Y83.797
G1 X142.088 Y82.882
G1 X142.921 Y81.996
G1 X143.785 Y81.138
; Layer C00 Pass 3 of 3
G1 X144.679 Y80.311
G1 X146.04 Y79.114
G1 X147.45 Y77.981
G1 X148.909 Y76.913
G1 X150.413 Y75.911
G1 X151.96 Y74.978
G1 X153.548 Y74.114
G1 X155.175 Y73.321
G1 X156.838 Y72.6
G1 X157.888 Y72.198
G1 X158.953 Y71.84
G1 X160.031 Y71.528
G1 X161.121 Y71.261
G1 X162.22 Y71.041
G1 X163.329 Y70.866
G1 X164.445 Y70.738
G1 X165.566 Y70.656
G1 X166.498 Y70.634
G1 X167.426 Y70.657
G1 X168.348 Y70.724
G1 X169.264 Y70.836
G1 X170.171 Y70.992
G1 X171.068 Y71.19
G1 X171.953 Y71.432
G1 X172.825 Y71.715
G1 X173.683 Y72.04
G1 X174.525 Y72.406
G1 X175.349 Y72.812
G1 X176.153 Y73.258
G1 X176.937 Y73.744
G1 X177.699 Y74.268
G1 X178.437 Y74.831
G1 X179.15 Y75.432
G1 X179.901 Y76.12
G1 X180.625 Y76.834
G1 X181.323 Y77.574
G1 X181.993 Y78.338
G1 X182.635 Y79.127
G1 X183.248 Y79.938
G1 X183.832 Y80.771
G1 X184.386 Y81.626
G1 X185.088 Y82.795
G1 X185.756 Y83.982
G1 X186.39 Y85.188
G1 X186.989 Y86.411
G1 X187.553 Y87.651
G1 X188.082 Y88.906
G1 X188.575 Y90.176
G1 X189.032 Y91.461
G1 X189.611 Y93.221
G1 X190.15 Y94.994
G1 X190.65 Y96.777
G1 X191.111 Y98.57
G1 X191.531 Y100.374
G1 X191.911 Y102.186
G1 X192.251 Y104.007
G1 X192.551 Y105.836
G1 X192.834 Y107.74
G1 X193.087 Y109.648
G1 X193.31 Y111.559
G1 X193.502 Y113.472
G1 X193.664 Y115.388
G1 X193.796 Y117.305
G1 X193.898 Y119.225
G1 X193.97 Y121.145
G1 X194.011 Y123.067
G1 X194.022 Y124.988
G1 X194.003 Y126.911
G1 X193.954 Y128.832
G1 X193.874 Y130.754
G1 X193.764 Y132.674
G1 X193.624 Y134.594
G1 X193.453 Y136.511
G1 X193.184 Y138.87
G1 X192.822 Y141.215
G1 X192.367 Y143.544
G1 X191.821 Y145.855
G1 X191.509 Y146.957
G1 X191.137 Y148.04
G1 X190.706 Y149.1
G1 X190.216 Y150.136
G1 X189.903 Y150.701
G1 X189.538 Y151.231
G1 X189.123 Y151.724
G1 X188.662 Y152.175
G1 X188.334 Y152.423
G1 X187.979 Y152.617
G1 X187.603 Y152.757
G1 X187.213 Y152.841
G1 X186.815 Y152.868
G1 X186.415 Y152.839
G1 X186.02 Y152.751
G1 X185.636 Y152.605
G1 X185.003 Y152.278
G1 X184.404 Y151.896
G1 X183.84 Y151.463
G1 X183.317 Y150.979
G1 X182.404 Y150.033
G1 X181.53 Y149.05
G1 X180.698 Y148.032
G1 X179.908 Y146.98
G1 X178.41 Y144.91
G1 X176.952 Y142.811
G1 X174.364 Y139.025
G1 X172.413 Y136.187
G1 X170.404 Y133.39
G1 X168.337 Y130.635
G1 X166.213 Y127.923
G1 X164.477 Y125.834
G1 X162.682 Y123.796
G1 X160.831 Y121.81
G1 X158.925 Y119.879
G1 X156.964 Y118.002
G1 X154.951 Y116.182
G1 X152.886 Y114.419
G1 X150.77 Y112.714
G1 X147.572 Y110.216
G1 X144.36 Y107.736
G1 X143.637 Y107.161
G1 X142.5 Y106.246
G1 X141.398 Y105.288
G1 X140.333 Y104.29
G1 X139.306 Y103.252
G1 X138.891 Y102.804
G1 X138.497 Y102.338
G1 X138.124 Y101.856
G1 X137.772 Y101.358
G1 X137.442 Y100.845
G1 X137.135 Y100.319
G1 X136.851 Y99.778
G1 X136.591 Y99.225
G1 X136.316 Y98.474
G1 X136.104 Y97.707
G1 X135.954 Y96.927
G1 X135.866 Y96.139
G1 X135.842 Y95.347
G1 X135.882 Y94.554
G1 X135.985 Y93.765
G1 X136.151 Y92.982
G1 X136.342 Y92.288
G1 X136.559 Y91.603
G1 X136.803 Y90.927
G1 X137.073 Y90.261
G1 X137.37 Y89.607
G1 X137.692 Y88.965
G1 X138.04 Y88.336
G1 X138.412 Y87.72
G1 X139.08 Y86.701
G1 X139.782 Y85.707
G1 X140.518 Y84.738
G1 X141.287 Y83.797
G1 X142.088 Y82.882
G1 X142.921 Y81.996
G1 X143.785 Y81.138
M05 
G0 X144.107 Y80.847 F0
; Layer C00 Pass 1 of 3
M03 S1000
G1 X143.194 Y81.746 F600
G1 X142.309 Y82.674
G1 X141.452 Y83.63
G1 X140.625 Y84.615
G1 X139.827 Y85.626
G1 X139.335 Y86.295
G1 X138.868 Y86.98
G1 X138.427 Y87.681
G1 X138.012 Y88.398
G1 X137.623 Y89.13
G1 X137.261 Y89.875
G1 X136.926 Y90.634
G1 X136.618 Y91.405
G1 X136.399 Y92.033
G1 X136.216 Y92.672
G1 X136.07 Y93.319
G1 X135.962 Y93.972
G1 X135.891 Y94.631
G1 X135.859 Y95.293
G1  Y95.958
G1 X135.907 Y96.622
G1 X136.01 Y97.269
G1 X136.154 Y97.906
G1 X136.336 Y98.531
G1 X136.558 Y99.143
G1 X136.817 Y99.74
G1 X137.114 Y100.32
G1 X137.448 Y100.881
G1 X137.817 Y101.422
G1 X138.538 Y102.361
G1 X139.308 Y103.257
G1 X140.127 Y104.11
G1 X140.992 Y104.917
G1 X142.118 Y105.9
G1 X143.263 Y106.86
G1 X144.427 Y107.797
G1 X145.61 Y108.711
G1 X148.258 Y110.749
G1 X150.865 Y112.776
G1 X153.413 Y114.875
G1 X155.899 Y117.047
G1 X158.323 Y119.289
G1 X159.814 Y120.771
G1 X161.273 Y122.283
G1 X162.701 Y123.825
G1 X164.096 Y125.395
G1 X165.459 Y126.994
G1 X166.789 Y128.621
G1 X168.085 Y130.275
G1 X169.347 Y131.956
G1 X171.263 Y134.604
G1 X173.152 Y137.27
G1 X175.014 Y139.956
G1 X176.848 Y142.66
G1 X178.329 Y144.815
G1 X179.325 Y146.199
G1 X180.351 Y147.561
G1 X181.408 Y148.9
G1 X182.07 Y149.694
G1 X182.777 Y150.447
G1 X183.525 Y151.159
G1 X184.314 Y151.827
G1 X184.779 Y152.163
G1 X185.277 Y152.442
G1 X185.804 Y152.662
G1 X186.355 Y152.82
G1 X186.666 Y152.859
G1 X186.976
G1 X187.283 Y152.831
G1 X187.583 Y152.765
G1 X187.874 Y152.666
G1 X188.153 Y152.534
G1 X188.416 Y152.37
G1 X188.662 Y152.175
G1 X189.131 Y151.712
G1 X189.553 Y151.207
G1 X189.925 Y150.663
G1 X190.243 Y150.086
G1 X190.762 Y148.965
G1 X191.216 Y147.817
G1 X191.605 Y146.646
G1 X191.928 Y145.454
G1 X192.482 Y142.985
G1 X192.939 Y140.497
G1 X193.297 Y137.992
G1 X193.556 Y135.475
G1 X193.721 Y133.391
G1 X193.851 Y131.305
G1 X193.945 Y129.218
G1 X194.003 Y127.131
G1 X194.025 Y125.044
G1 X194.011 Y122.957
G1 X193.961 Y120.871
G1 X193.876 Y118.786
G1 X193.754 Y116.704
G1 X193.597 Y114.623
G1 X193.405 Y112.545
G1 X193.176 Y110.47
G1 X192.912 Y108.399
G1 X192.612 Y106.332
G1 X192.277 Y104.269
G1 X191.905 Y102.211
G1 X191.606 Y100.72
G1 X191.276 Y99.234
G1 X190.917 Y97.756
G1 X190.529 Y96.286
G1 X190.111 Y94.824
G1 X189.664 Y93.37
G1 X189.188 Y91.925
G1 X188.682 Y90.49
G1 X188.235 Y89.294
G1 X187.755 Y88.113
G1 X187.242 Y86.945
G1 X186.698 Y85.792
G1 X186.121 Y84.655
G1 X185.513 Y83.535
G1 X184.874 Y82.431
G1 X184.205 Y81.344
G1 X183.632 Y80.479
G1 X183.029 Y79.636
G1 X182.394 Y78.818
G1 X181.729 Y78.025
G1 X181.034 Y77.258
G1 X180.31 Y76.517
G1 X179.559 Y75.804
G1 X178.779 Y75.119
G1 X178.039 Y74.527
G1 X177.274 Y73.974
G1 X176.486 Y73.462
G1 X175.676 Y72.991
G1 X174.845 Y72.561
G1 X173.996 Y72.173
G1 X173.13 Y71.826
G1 X172.249 Y71.523
G1 X171.354 Y71.263
G1 X170.447 Y71.047
G1 X169.529 Y70.875
G1 X168.602 Y70.747
G1 X167.669 Y70.665
G1 X166.729 Y70.629
G1 X165.786 Y70.64
G1 X164.84 Y70.697
G1 X163.668 Y70.821
G1 X162.504 Y70.995
G1 X161.349 Y71.217
G1 X160.205 Y71.488
G1 X159.073 Y71.806
G1 X157.956 Y72.172
G1 X156.853 Y72.584
G1 X155.768 Y73.044
G1 X154.599 Y73.585
G1 X153.449 Y74.161
G1 X152.32 Y74.772
G1 X151.212 Y75.418
G1 X150.126 Y76.097
G1 X149.062 Y76.809
G1 X148.022 Y77.554
G1 X147.005 Y78.331
G1 X146.014 Y79.139
G1 X145.047 Y79.978
G1 X144.107 Y80.847
; Layer C00 Pass 2 of 3
G1 X143.194 Y81.746
G1 X142.309 Y82.674
G1 X141.452 Y83.63
G1 X140.625 Y84.615
G1 X139.827 Y85.626
G1 X139.335 Y86.295
G1 X138.868 Y86.98
G1 X138.427 Y87.681
G1 X138.012 Y88.398
G1 X137.623 Y89.13
G1 X137.261 Y89.875
G1 X136.926 Y90.634
G1 X136.618 Y91.405
G1 X136.399 Y92.033
G1 X136.216 Y92.672
G1 X136.07 Y93.319
G1 X135.962 Y93.972
G1 X135.891 Y94.631
G1 X135.859 Y95.293
G1  Y95.958
G1 X135.907 Y96.622
G1 X136.01 Y97.269
G1 X136.154 Y97.906
G1 X136.336 Y98.531
G1 X136.558 Y99.143
G1 X136.817 Y99.74
G1 X137.114 Y100.32
G1 X137.448 Y100.881
G1 X137.817 Y101.422
G1 X138.538 Y102.361
G1 X139.308 Y103.257
G1 X140.127 Y104.11
G1 X140.992 Y104.917
G1 X142.118 Y105.9
G1 X143.263 Y106.86
G1 X144.427 Y107.797
G1 X145.61 Y108.711
G1 X148.258 Y110.749
G1 X150.865 Y112.776
G1 X153.413 Y114.875
G1 X155.899 Y117.047
G1 X158.323 Y119.289
G1 X159.814 Y120.771
G1 X161.273 Y122.283
G1 X162.701 Y123.825
G1 X164.096 Y125.395
G1 X165.459 Y126.994
G1 X166.789 Y128.621
G1 X168.085 Y130.275
G1 X169.347 Y131.956
G1 X171.263 Y134.604
G1 X173.152 Y137.27
G1 X175.014 Y139.956
G1 X176.848 Y142.66
G1 X178.329 Y144.815
G1 X179.325 Y146.199
G1 X180.351 Y147.561
G1 X181.408 Y148.9
G1 X182.07 Y149.694
G1 X182.777 Y150.447
G1 X183.525 Y151.159
G1 X184.314 Y151.827
G1 X184.779 Y152.163
G1 X185.277 Y152.442
G1 X185.804 Y152.662
G1 X186.355 Y152.82
G1 X186.666 Y152.859
G1 X186.976
G1 X187.283 Y152.831
G1 X187.583 Y152.765
G1 X187.874 Y152.666
G1 X188.153 Y152.534
G1 X188.416 Y152.37
G1 X188.662 Y152.175
G1 X189.131 Y151.712
G1 X189.553 Y151.207
G1 X189.925 Y150.663
G1 X190.243 Y150.086
G1 X190.762 Y148.965
G1 X191.216 Y147.817
G1 X191.605 Y146.646
G1 X191.928 Y145.454
G1 X192.482 Y142.985
G1 X192.939 Y140.497
G1 X193.297 Y137.992
G1 X193.556 Y135.475
G1 X193.721 Y133.391
G1 X193.851 Y131.305
G1 X193.945 Y129.218
G1 X194.003 Y127.131
G1 X194.025 Y125.044
G1 X194.011 Y122.957
G1 X193.961 Y120.871
G1 X193.876 Y118.786
G1 X193.754 Y116.704
G1 X193.597 Y114.623
G1 X193.405 Y112.545
G1 X193.176 Y110.47
G1 X192.912 Y108.399
G1 X192.612 Y106.332
G1 X192.277 Y104.269
G1 X191.905 Y102.211
G1 X191.606 Y100.72
G1 X191.276 Y99.234
G1 X190.917 Y97.756
G1 X190.529 Y96.286
G1 X190.111 Y94.824
G1 X189.664 Y93.37
G1 X189.188 Y91.925
G1 X188.682 Y90.49
G1 X188.235 Y89.294
G1 X187.755 Y88.113
G1 X187.242 Y86.945
G1 X186.698 Y85.792
G1 X186.121 Y84.655
G1 X185.513 Y83.535
G1 X184.874 Y82.431
G1 X184.205 Y81.344
G1 X183.632 Y80.479
G1 X183.029 Y79.636
G1 X182.394 Y78.818
G1 X181.729 Y78.025
G1 X181.034 Y77.258
G1 X180.31 Y76.517
G1 X179.559 Y75.804
G1 X178.779 Y75.119
G1 X178.039 Y74.527
G1 X177.274 Y73.974
G1 X176.486 Y73.462
G1 X175.676 Y72.991
G1 X174.845 Y72.561
G1 X173.996 Y72.173
G1 X173.13 Y71.826
G1 X172.249 Y71.523
G1 X171.354 Y71.263
G1 X170.447 Y71.047
G1 X169.529 Y70.875
G1 X168.602 Y70.747
G1 X167.669 Y70.665
G1 X166.729 Y70.629
G1 X165.786 Y70.64
G1 X164.84 Y70.697
G1 X163.668 Y70.821
G1 X162.504 Y70.995
G1 X161.349 Y71.217
G1 X160.205 Y71.488
G1 X159.073 Y71.806
G1 X157.956 Y72.172
G1 X156.853 Y72.584
G1 X155.768 Y73.044
G1 X154.599 Y73.585
G1 X153.449 Y74.161
G1 X152.32 Y74.772
G1 X151.212 Y75.418
G1 X150.126 Y76.097
G1 X149.062 Y76.809
G1 X148.022 Y77.554
G1 X147.005 Y78.331
G1 X146.014 Y79.139
G1 X145.047 Y79.978
G1 X144.107 Y80.847
; Layer C00 Pass 3 of 3
G1 X143.194 Y81.746
G1 X142.309 Y82.674
G1 X141.452 Y83.63
G1 X140.625 Y84.615
G1 X139.827 Y85.626
G1 X139.335 Y86.295
G1 X138.868 Y86.98
G1 X138.427 Y87.681
G1 X138.012 Y88.398
G1 X137.623 Y89.13
G1 X137.261 Y89.875
G1 X136.926 Y90.634
G1 X136.618 Y91.405
G1 X136.399 Y92.033
G1 X136.216 Y92.672
G1 X136.07 Y93.319
G1 X135.962 Y93.972
G1 X135.891 Y94.631
G1 X135.859 Y95.293
G1  Y95.958
G1 X135.907 Y96.622
G1 X136.01 Y97.269
G1 X136.154 Y97.906
G1 X136.336 Y98.531
G1 X136.558 Y99.143
G1 X136.817 Y99.74
G1 X137.114 Y100.32
G1 X137.448 Y100.881
G1 X137.817 Y101.422
G1 X138.538 Y102.361
G1 X139.308 Y103.257
G1 X140.127 Y104.11
G1 X140.992 Y104.917
G1 X142.118 Y105.9
G1 X143.263 Y106.86
G1 X144.427 Y107.797
G1 X145.61 Y108.711
G1 X148.258 Y110.749
G1 X150.865 Y112.776
G1 X153.413 Y114.875
G1 X155.899 Y117.047
G1 X158.323 Y119.289
G1 X159.814 Y120.771
G1 X161.273 Y122.283
G1 X162.701 Y123.825
G1 X164.096 Y125.395
G1 X165.459 Y126.994
G1 X166.789 Y128.621
G1 X168.085 Y130.275
G1 X169.347 Y131.956
G1 X171.263 Y134.604
G1 X173.152 Y137.27
G1 X175.014 Y139.956
G1 X176.848 Y142.66
G1 X178.329 Y144.815
G1 X179.325 Y146.199
G1 X180.351 Y147.561
G1 X181.408 Y148.9
G1 X182.07 Y149.694
G1 X182.777 Y150.447
G1 X183.525 Y151.159
G1 X184.314 Y151.827
G1 X184.779 Y152.163
G1 X185.277 Y152.442
G1 X185.804 Y152.662
G1 X186.355 Y152.82
G1 X186.666 Y152.859
G1 X186.976
G1 X187.283 Y152.831
G1 X187.583 Y152.765
G1 X187.874 Y152.666
G1 X188.153 Y152.534
G1 X188.416 Y152.37
G1 X188.662 Y152.175
G1 X189.131 Y151.712
G1 X189.553 Y151.207
G1 X189.925 Y150.663
G1 X190.243 Y150.086
G1 X190.762 Y148.965
G1 X191.216 Y147.817
G1 X191.605 Y146.646
G1 X191.928 Y145.454
G1 X192.482 Y142.985
G1 X192.939 Y140.497
G1 X193.297 Y137.992
G1 X193.556 Y135.475
G1 X193.721 Y133.391
G1 X193.851 Y131.305
G1 X193.945 Y129.218
G1 X194.003 Y127.131
G1 X194.025 Y125.044
G1 X194.011 Y122.957
G1 X193.961 Y120.871
G1 X193.876 Y118.786
G1 X193.754 Y116.704
G1 X193.597 Y114.623
G1 X193.405 Y112.545
G1 X193.176 Y110.47
G1 X192.912 Y108.399
G1 X192.612 Y106.332
G1 X192.277 Y104.269
G1 X191.905 Y102.211
G1 X191.606 Y100.72
G1 X191.276 Y99.234
G1 X190.917 Y97.756
G1 X190.529 Y96.286
G1 X190.111 Y94.824
G1 X189.664 Y93.37
G1 X189.188 Y91.925
G1 X188.682 Y90.49
G1 X188.235 Y89.294
G1 X187.755 Y88.113
G1 X187.242 Y86.945
G1 X186.698 Y85.792
G1 X186.121 Y84.655
G1 X185.513 Y83.535
G1 X184.874 Y82.431
G1 X184.205 Y81.344
G1 X183.632 Y80.479
G1 X183.029 Y79.636
G1 X182.394 Y78.818
G1 X181.729 Y78.025
G1 X181.034 Y77.258
G1 X180.31 Y76.517
G1 X179.559 Y75.804
G1 X178.779 Y75.119
G1 X178.039 Y74.527
G1 X177.274 Y73.974
G1 X176.486 Y73.462
G1 X175.676 Y72.991
G1 X174.845 Y72.561
G1 X173.996 Y72.173
G1 X173.13 Y71.826
G1 X172.249 Y71.523
G1 X171.354 Y71.263
G1 X170.447 Y71.047
G1 X169.529 Y70.875
G1 X168.602 Y70.747
G1 X167.669 Y70.665
G1 X166.729 Y70.629
G1 X165.786 Y70.64
G1 X164.84 Y70.697
G1 X163.668 Y70.821
G1 X162.504 Y70.995
G1 X161.349 Y71.217
G1 X160.205 Y71.488
G1 X159.073 Y71.806
G1 X157.956 Y72.172
G1 X156.853 Y72.584
G1 X155.768 Y73.044
G1 X154.599 Y73.585
G1 X153.449 Y74.161
G1 X152.32 Y74.772
G1 X151.212 Y75.418
G1 X150.126 Y76.097
G1 X149.062 Y76.809
G1 X148.022 Y77.554
G1 X147.005 Y78.331
G1 X146.014 Y79.139
G1 X145.047 Y79.978
G1 X144.107 Y80.847
M05 
G0 X120.514 Y92.427 F0
; Layer C00 Pass 1 of 3
M03 S1000
G1 X121.998 Y93.912 F600
G1 X114.927 Y100.983
G1 X190.663 Y176.718
G1 X197.735 Y169.648
G1 X199.22 Y171.133
G1 X192.149 Y178.204
G1 X202.95 Y189.005
G1 X203.188 Y189.181
G1 X203.462 Y189.279
G1 X203.752 Y189.294
G1 X204.039 Y189.222
G1 X204.294 Y189.069
G1 X204.488 Y188.854
G1 X204.613 Y188.591
G1 X204.657 Y188.298
G1  Y53.536
G1 X194.656
G1  Y51.436
G1 X204.655
G1  Y12.706
G1 X204.62 Y11.872
G1 X204.517 Y11.047
G1 X204.345 Y10.237
G1 X204.108 Y9.445
G1 X203.807 Y8.675
G1 X203.442 Y7.932
G1 X203.015 Y7.219
G1 X202.528 Y6.54
G1 X195.659 Y13.647
G1 X194.193 Y12.287
G1 X200.985 Y4.965
G1 X200.295 Y4.449
G1 X199.567 Y3.996
G1 X198.806 Y3.608
G1 X198.015 Y3.288
G1 X197.201 Y3.036
G1 X196.366 Y2.854
G1 X195.516 Y2.744
G1 X194.655 Y2.706
G1 X186.646
G1 X185.845 Y2.721
G1 X185.046 Y2.766
G1 X184.252 Y2.84
G1 X183.462 Y2.944
G1 X182.677 Y3.076
G1 X181.899 Y3.237
G1 X181.127 Y3.427
G1 X180.364 Y3.645
G1 X179.609 Y3.891
G1 X178.863 Y4.165
G1 X178.127 Y4.466
G1 X177.403 Y4.795
G1 X176.69 Y5.151
G1 X175.99 Y5.533
G1 X175.302 Y5.943
G1 X174.629 Y6.378
G1 X172.176 Y8.022
G1 X169.705 Y9.637
G1 X167.216 Y11.224
G1 X164.709 Y12.783
G1 X162.184 Y14.314
G1 X159.643 Y15.815
G1 X157.084 Y17.288
G1 X154.508 Y18.732
G1 X152.22 Y19.979
G1 X149.912 Y21.189
G1 X147.585 Y22.362
G1 X145.24 Y23.497
G1 X142.877 Y24.595
G1 X140.497 Y25.655
G1 X138.1 Y26.677
G1 X135.686 Y27.66
G1 X133.781 Y28.397
G1 X131.862 Y29.092
G1 X129.928 Y29.747
G1 X127.982 Y30.361
G1 X126.022 Y30.934
G1 X124.051 Y31.466
G1 X122.069 Y31.955
G1 X120.076 Y32.403
G1 X118.409 Y32.735
G1 X116.733 Y33.02
G1 X115.051 Y33.258
G1 X113.363 Y33.448
G1 X111.67 Y33.591
G1 X109.974 Y33.686
G1 X108.275 Y33.733
G1 X106.574
G1 X105.508 Y33.704
G1 X104.444 Y33.649
G1 X103.383 Y33.569
G1 X102.325 Y33.463
G1 X101.27 Y33.331
G1 X100.22 Y33.174
G1 X99.173 Y32.992
G1 X98.132 Y32.784
G1 X97.096 Y32.55
G1 X96.066 Y32.292
G1 X95.042 Y32.009
G1 X94.025 Y31.701
G1 X93.015 Y31.368
G1 X92.013 Y31.01
G1 X91.019 Y30.628
G1 X90.033 Y30.221
G1 X88.351 Y29.444
G1 X86.702 Y28.604
G1 X85.088 Y27.701
G1 X83.511 Y26.737
G1 X81.973 Y25.712
G1 X80.475 Y24.628
G1 X79.019 Y23.486
G1 X77.607 Y22.286
G1 X78.379 Y22.997
G1 X71.609 Y30.357
G1 X70.064 Y28.935
G1 X76.821 Y21.59
G1 X75.581 Y20.438
G1 X74.357 Y19.234
G1 X73.147 Y17.978
G1 X71.953 Y16.67
G1 X70.775 Y15.31
G1 X69.612 Y13.899
G1 X68.465 Y12.436
G1 X67.334 Y10.921
G1 X66.602 Y9.978
G1 X65.821 Y9.086
G1 X64.992 Y8.246
G1 X64.119 Y7.46
G1 X63.205 Y6.729
G1 X62.251 Y6.054
G1 X61.262 Y5.436
G1 X60.239 Y4.878
G1 X59.185 Y4.38
G1 X58.103 Y3.945
G1 X56.996 Y3.572
G1 X55.866 Y3.264
G1 X54.716 Y3.022
G1 X53.549 Y2.848
G1 X52.368 Y2.742
G1 X51.175 Y2.706
G1 X35.344
G1 X34.83 Y2.719
G1 X34.322 Y2.758
G1 X33.821 Y2.822
G1 X33.329 Y2.91
G1 X32.37 Y3.156
G1 X31.452 Y3.492
G1 X30.578 Y3.913
G1 X29.753 Y4.414
G1 X28.983 Y4.99
G1 X28.273 Y5.635
G1 X27.628 Y6.346
G1 X27.052 Y7.115
G1 X26.551 Y7.94
G1 X26.13 Y8.814
G1 X25.794 Y9.733
G1 X25.547 Y10.691
G1 X25.459 Y11.184
G1 X25.396 Y11.684
G1 X25.357 Y12.192
G1 X25.344 Y12.706
G1  Y24.531
G1 X35.344
G1  Y26.631
G1 X25.344
G1  Y36.355
G1 X25.363 Y37.099
G1 X25.418 Y37.837
G1 X25.509 Y38.57
G1 X25.635 Y39.295
G1 X25.797 Y40.011
G1 X25.992 Y40.717
G1 X26.222 Y41.412
G1 X26.486 Y42.095
G1 X26.782 Y42.764
G1 X27.111 Y43.418
G1 X27.472 Y44.056
G1 X27.864 Y44.677
G1 X28.287 Y45.279
G1 X28.741 Y45.861
G1 X29.225 Y46.422
G1 X29.738 Y46.961
G1 X37.271 Y54.495
G1 X38.481 Y55.37
G1 X39.719 Y56.204
G1 X40.648 Y56.792
G1 X41.605 Y57.329
G1 X42.59 Y57.814
G1 X43.6 Y58.246
G1 X44.256 Y58.471
G1 X44.925 Y58.633
G1 X45.603 Y58.731
G1 X46.286 Y58.766
G1 X46.97 Y58.738
G1 X47.649 Y58.647
G1 X48.32 Y58.492
G1 X48.978 Y58.273
G1 X49.204 Y58.16
G1 X49.393 Y57.996
G1 X49.535 Y57.79
G1 X49.622 Y57.552
G1 X49.646 Y57.3
G1 X49.608 Y57.053
G1 X49.509 Y56.823
G1 X49.354 Y56.623
G1 X47.552 Y54.821
G1 X53.881 Y48.492
G1 X46.81 Y41.421
G1 X48.294 Y39.936
G1 X55.366 Y47.007
G1 X58.159 Y44.214
G1 X113.442 Y99.498
G1 X120.514 Y92.427
; Layer C00 Pass 2 of 3
G1 X121.998 Y93.912
G1 X114.927 Y100.983
G1 X190.663 Y176.718
G1 X197.735 Y169.648
G1 X199.22 Y171.133
G1 X192.149 Y178.204
G1 X202.95 Y189.005
G1 X203.188 Y189.181
G1 X203.462 Y189.279
G1 X203.752 Y189.294
G1 X204.039 Y189.222
G1 X204.294 Y189.069
G1 X204.488 Y188.854
G1 X204.613 Y188.591
G1 X204.657 Y188.298
G1  Y53.536
G1 X194.656
G1  Y51.436
G1 X204.655
G1  Y12.706
G1 X204.62 Y11.872
G1 X204.517 Y11.047
G1 X204.345 Y10.237
G1 X204.108 Y9.445
G1 X203.807 Y8.675
G1 X203.442 Y7.932
G1 X203.015 Y7.219
G1 X202.528 Y6.54
G1 X195.659 Y13.647
G1 X194.193 Y12.287
G1 X200.985 Y4.965
G1 X200.295 Y4.449
G1 X199.567 Y3.996
G1 X198.806 Y3.608
G1 X198.015 Y3.288
G1 X197.201 Y3.036
G1 X196.366 Y2.854
G1 X195.516 Y2.744
G1 X194.655 Y2.706
G1 X186.646
G1 X185.845 Y2.721
G1 X185.046 Y2.766
G1 X184.252 Y2.84
G1 X183.462 Y2.944
G1 X182.677 Y3.076
G1 X181.899 Y3.237
G1 X181.127 Y3.427
G1 X180.364 Y3.645
G1 X179.609 Y3.891
G1 X178.863 Y4.165
G1 X178.127 Y4.466
G1 X177.403 Y4.795
G1 X176.69 Y5.151
G1 X175.99 Y5.533
G1 X175.302 Y5.943
G1 X174.629 Y6.378
G1 X172.176 Y8.022
G1 X169.705 Y9.637
G1 X167.216 Y11.224
G1 X164.709 Y12.783
G1 X162.184 Y14.314
G1 X159.643 Y15.815
G1 X157.084 Y17.288
G1 X154.508 Y18.732
G1 X152.22 Y19.979
G1 X149.912 Y21.189
G1 X147.585 Y22.362
G1 X145.24 Y23.497
G1 X142.877 Y24.595
G1 X140.497 Y25.655
G1 X138.1 Y26.677
G1 X135.686 Y27.66
G1 X133.781 Y28.397
G1 X131.862 Y29.092
G1 X129.928 Y29.747
G1 X127.982 Y30.361
G1 X126.022 Y30.934
G1 X124.051 Y31.466
G1 X122.069 Y31.955
G1 X120.076 Y32.403
G1 X118.409 Y32.735
G1 X116.733 Y33.02
G1 X115.051 Y33.258
G1 X113.363 Y33.448
G1 X111.67 Y33.591
G1 X109.974 Y33.686
G1 X108.275 Y33.733
G1 X106.574
G1 X105.508 Y33.704
G1 X104.444 Y33.649
G1 X103.383 Y33.569
G1 X102.325 Y33.463
G1 X101.27 Y33.331
G1 X100.22 Y33.174
G1 X99.173 Y32.992
G1 X98.132 Y32.784
G1 X97.096 Y32.55
G1 X96.066 Y32.292
G1 X95.042 Y32.009
G1 X94.025 Y31.701
G1 X93.015 Y31.368
G1 X92.013 Y31.01
G1 X91.019 Y30.628
G1 X90.033 Y30.221
G1 X88.351 Y29.444
G1 X86.702 Y28.604
G1 X85.088 Y27.701
G1 X83.511 Y26.737
G1 X81.973 Y25.712
G1 X80.475 Y24.628
G1 X79.019 Y23.486
G1 X77.607 Y22.286
G1 X78.379 Y22.997
G1 X71.609 Y30.357
G1 X70.064 Y28.935
G1 X76.821 Y21.59
G1 X75.581 Y20.438
G1 X74.357 Y19.234
G1 X73.147 Y17.978
G1 X71.953 Y16.67
G1 X70.775 Y15.31
G1 X69.612 Y13.899
G1 X68.465 Y12.436
G1 X67.334 Y10.921
G1 X66.602 Y9.978
G1 X65.821 Y9.086
G1 X64.992 Y8.246
G1 X64.119 Y7.46
G1 X63.205 Y6.729
G1 X62.251 Y6.054
G1 X61.262 Y5.436
G1 X60.239 Y4.878
G1 X59.185 Y4.38
G1 X58.103 Y3.945
G1 X56.996 Y3.572
G1 X55.866 Y3.264
G1 X54.716 Y3.022
G1 X53.549 Y2.848
G1 X52.368 Y2.742
G1 X51.175 Y2.706
G1 X35.344
G1 X34.83 Y2.719
G1 X34.322 Y2.758
G1 X33.821 Y2.822
G1 X33.329 Y2.91
G1 X32.37 Y3.156
G1 X31.452 Y3.492
G1 X30.578 Y3.913
G1 X29.753 Y4.414
G1 X28.983 Y4.99
G1 X28.273 Y5.635
G1 X27.628 Y6.346
G1 X27.052 Y7.115
G1 X26.551 Y7.94
G1 X26.13 Y8.814
G1 X25.794 Y9.733
G1 X25.547 Y10.691
G1 X25.459 Y11.184
G1 X25.396 Y11.684
G1 X25.357 Y12.192
G1 X25.344 Y12.706
G1  Y24.531
G1 X35.344
G1  Y26.631
G1 X25.344
G1  Y36.355
G1 X25.363 Y37.099
G1 X25.418 Y37.837
G1 X25.509 Y38.57
G1 X25.635 Y39.295
G1 X25.797 Y40.011
G1 X25.992 Y40.717
G1 X26.222 Y41.412
G1 X26.486 Y42.095
G1 X26.782 Y42.764
G1 X27.111 Y43.418
G1 X27.472 Y44.056
G1 X27.864 Y44.677
G1 X28.287 Y45.279
G1 X28.741 Y45.861
G1 X29.225 Y46.422
G1 X29.738 Y46.961
G1 X37.271 Y54.495
G1 X38.481 Y55.37
G1 X39.719 Y56.204
G1 X40.648 Y56.792
G1 X41.605 Y57.329
G1 X42.59 Y57.814
G1 X43.6 Y58.246
G1 X44.256 Y58.471
G1 X44.925 Y58.633
G1 X45.603 Y58.731
G1 X46.286 Y58.766
G1 X46.97 Y58.738
G1 X47.649 Y58.647
G1 X48.32 Y58.492
G1 X48.978 Y58.273
G1 X49.204 Y58.16
G1 X49.393 Y57.996
G1 X49.535 Y57.79
G1 X49.622 Y57.552
G1 X49.646 Y57.3
G1 X49.608 Y57.053
G1 X49.509 Y56.823
G1 X49.354 Y56.623
G1 X47.552 Y54.821
G1 X53.881 Y48.492
G1 X46.81 Y41.421
G1 X48.294 Y39.936
G1 X55.366 Y47.007
G1 X58.159 Y44.214
G1 X113.442 Y99.498
G1 X120.514 Y92.427
; Layer C00 Pass 3 of 3
G1 X121.998 Y93.912
G1 X114.927 Y100.983
G1 X190.663 Y176.718
G1 X197.735 Y169.648
G1 X199.22 Y171.133
G1 X192.149 Y178.204
G1 X202.95 Y189.005
G1 X203.188 Y189.181
G1 X203.462 Y189.279
G1 X203.752 Y189.294
G1 X204.039 Y189.222
G1 X204.294 Y189.069
G1 X204.488 Y188.854
G1 X204.613 Y188.591
G1 X204.657 Y188.298
G1  Y53.536
G1 X194.656
G1  Y51.436
G1 X204.655
G1  Y12.706
G1 X204.62 Y11.872
G1 X204.517 Y11.047
G1 X204.345 Y10.237
G1 X204.108 Y9.445
G1 X203.807 Y8.675
G1 X203.442 Y7.932
G1 X203.015 Y7.219
G1 X202.528 Y6.54
G1 X195.659 Y13.647
G1 X194.193 Y12.287
G1 X200.985 Y4.965
G1 X200.295 Y4.449
G1 X199.567 Y3.996
G1 X198.806 Y3.608
G1 X198.015 Y3.288
G1 X197.201 Y3.036
G1 X196.366 Y2.854
G1 X195.516 Y2.744
G1 X194.655 Y2.706
G1 X186.646
G1 X185.845 Y2.721
G1 X185.046 Y2.766
G1 X184.252 Y2.84
G1 X183.462 Y2.944
G1 X182.677 Y3.076
G1 X181.899 Y3.237
G1 X181.127 Y3.427
G1 X180.364 Y3.645
G1 X179.609 Y3.891
G1 X178.863 Y4.165
G1 X178.127 Y4.466
G1 X177.403 Y4.795
G1 X176.69 Y5.151
G1 X175.99 Y5.533
G1 X175.302 Y5.943
G1 X174.629 Y6.378
G1 X172.176 Y8.022
G1 X169.705 Y9.637
G1 X167.216 Y11.224
G1 X164.709 Y12.783
G1 X162.184 Y14.314
G1 X159.643 Y15.815
G1 X157.084 Y17.288
G1 X154.508 Y18.732
G1 X152.22 Y19.979
G1 X149.912 Y21.189
G1 X147.585 Y22.362
G1 X145.24 Y23.497
G1 X142.877 Y24.595
G1 X140.497 Y25.655
G1 X138.1 Y26.677
G1 X135.686 Y27.66
G1 X133.781 Y28.397
G1 X131.862 Y29.092
G1 X129.928 Y29.747
G1 X127.982 Y30.361
G1 X126.022 Y30.934
G1 X124.051 Y31.466
G1 X122.069 Y31.955
G1 X120.076 Y32.403
G1 X118.409 Y32.735
G1 X116.733 Y33.02
G1 X115.051 Y33.258
G1 X113.363 Y33.448
G1 X111.67 Y33.591
G1 X109.974 Y33.686
G1 X108.275 Y33.733
G1 X106.574
G1 X105.508 Y33.704
G1 X104.444 Y33.649
G1 X103.383 Y33.569
G1 X102.325 Y33.463
G1 X101.27 Y33.331
G1 X100.22 Y33.174
G1 X99.173 Y32.992
G1 X98.132 Y32.784
G1 X97.096 Y32.55
G1 X96.066 Y32.292
G1 X95.042 Y32.009
G1 X94.025 Y31.701
G1 X93.015 Y31.368
G1 X92.013 Y31.01
G1 X91.019 Y30.628
G1 X90.033 Y30.221
G1 X88.351 Y29.444
G1 X86.702 Y28.604
G1 X85.088 Y27.701
G1 X83.511 Y26.737
G1 X81.973 Y25.712
G1 X80.475 Y24.628
G1 X79.019 Y23.486
G1 X77.607 Y22.286
G1 X78.379 Y22.997
G1 X71.609 Y30.357
G1 X70.064 Y28.935
G1 X76.821 Y21.59
G1 X75.581 Y20.438
G1 X74.357 Y19.234
G1 X73.147 Y17.978
G1 X71.953 Y16.67
G1 X70.775 Y15.31
G1 X69.612 Y13.899
G1 X68.465 Y12.436
G1 X67.334 Y10.921
G1 X66.602 Y9.978
G1 X65.821 Y9.086
G1 X64.992 Y8.246
G1 X64.119 Y7.46
G1 X63.205 Y6.729
G1 X62.251 Y6.054
G1 X61.262 Y5.436
G1 X60.239 Y4.878
G1 X59.185 Y4.38
G1 X58.103 Y3.945
G1 X56.996 Y3.572
G1 X55.866 Y3.264
G1 X54.716 Y3.022
G1 X53.549 Y2.848
G1 X52.368 Y2.742
G1 X51.175 Y2.706
G1 X35.344
G1 X34.83 Y2.719
G1 X34.322 Y2.758
G1 X33.821 Y2.822
G1 X33.329 Y2.91
G1 X32.37 Y3.156
G1 X31.452 Y3.492
G1 X30.578 Y3.913
G1 X29.753 Y4.414
G1 X28.983 Y4.99
G1 X28.273 Y5.635
G1 X27.628 Y6.346
G1 X27.052 Y7.115
G1 X26.551 Y7.94
G1 X26.13 Y8.814
G1 X25.794 Y9.733
G1 X25.547 Y10.691
G1 X25.459 Y11.184
G1 X25.396 Y11.684
G1 X25.357 Y12.192
G1 X25.344 Y12.706
G1  Y24.531
G1 X35.344
G1  Y26.631
G1 X25.344
G1  Y36.355
G1 X25.363 Y37.099
G1 X25.418 Y37.837
G1 X25.509 Y38.57
G1 X25.635 Y39.295
G1 X25.797 Y40.011
G1 X25.992 Y40.717
G1 X26.222 Y41.412
G1 X26.486 Y42.095
G1 X26.782 Y42.764
G1 X27.111 Y43.418
G1 X27.472 Y44.056
G1 X27.864 Y44.677
G1 X28.287 Y45.279
G1 X28.741 Y45.861
G1 X29.225 Y46.422
G1 X29.738 Y46.961
G1 X37.271 Y54.495
G1 X38.481 Y55.37
G1 X39.719 Y56.204
G1 X40.648 Y56.792
G1 X41.605 Y57.329
G1 X42.59 Y57.814
G1 X43.6 Y58.246
G1 X44.256 Y58.471
G1 X44.925 Y58.633
G1 X45.603 Y58.731
G1 X46.286 Y58.766
G1 X46.97 Y58.738
G1 X47.649 Y58.647
G1 X48.32 Y58.492
G1 X48.978 Y58.273
G1 X49.204 Y58.16
G1 X49.393 Y57.996
G1 X49.535 Y57.79
G1 X49.622 Y57.552
G1 X49.646 Y57.3
G1 X49.608 Y57.053
G1 X49.509 Y56.823
G1 X49.354 Y56.623
G1 X47.552 Y54.821
G1 X53.881 Y48.492
G1 X46.81 Y41.421
G1 X48.294 Y39.936
G1 X55.366 Y47.007
G1 X58.159 Y44.214
G1 X113.442 Y99.498
G1 X120.514 Y92.427
M05 
G0 X100.283 Y138.382 F0
; Layer C00 Pass 1 of 3
M03 S1000
G1 X99.207 Y138.18 F600
G1 X98.12 Y138.05
G1 X97.025 Y137.995
G1 X95.926 Y138.013
G1 X94.828 Y138.106
G1 X93.665 Y138.269
G1 X92.512 Y138.491
G1 X91.372 Y138.771
G1 X90.247 Y139.109
G1 X89.229 Y139.468
G1 X88.222 Y139.855
G1 X87.226 Y140.27
G1 X86.242 Y140.712
G1 X85.27 Y141.181
G1 X84.312 Y141.677
G1 X83.368 Y142.199
G1 X82.438 Y142.748
G1 X80.979 Y143.66
G1 X79.542 Y144.604
G1 X78.128 Y145.581
G1 X76.737 Y146.591
G1 X75.369 Y147.632
G1 X74.026 Y148.704
G1 X72.707 Y149.808
G1 X71.413 Y150.942
G1 X69.807 Y152.389
G1 X68.235 Y153.873
G1 X66.701 Y155.394
G1 X65.203 Y156.952
G1 X63.743 Y158.544
G1 X62.322 Y160.172
G1 X60.939 Y161.833
G1 X59.596 Y163.528
G1 X58.473 Y165.036
G1 X57.419 Y166.592
G1 X56.434 Y168.192
G1 X55.521 Y169.836
G1 X55.061 Y170.77
G1 X54.666 Y171.732
G1 X54.337 Y172.719
G1 X54.076 Y173.727
G1 X53.97 Y174.366
G1 X53.944 Y175.01
G1 X54 Y175.653
G1 X54.137 Y176.286
G1 X54.276 Y176.627
G1 X54.449 Y176.947
G1 X54.654 Y177.245
G1 X54.89 Y177.518
G1 X55.154 Y177.765
G1 X55.444 Y177.982
G1 X55.757 Y178.168
G1 X56.091 Y178.32
G1 X56.861 Y178.589
G1 X57.651 Y178.79
G1 X58.455 Y178.92
G1 X59.268 Y178.98
G1 X60.463 Y179.01
G1 X61.658 Y178.991
G1 X62.85 Y178.922
G1 X64.04 Y178.804
G1 X66.368 Y178.509
G1 X68.69 Y178.169
G1 X71.004 Y177.784
G1 X73.311 Y177.354
G1 X77.334 Y176.59
G1 X81.357 Y175.821
G1 X83.214 Y175.474
G1 X87.356 Y174.716
G1 X91.511 Y174.038
G1 X95.679 Y173.438
G1 X99.857 Y172.916
G1 X103.021 Y172.595
G1 X106.19 Y172.324
G1 X109.363 Y172.103
G1 X112.54 Y171.934
G1 X115.148 Y171.807
G1 X116.689 Y171.74
G1 X118.228 Y171.638
G1 X119.764 Y171.501
G1 X121.297 Y171.329
G1 X121.962 Y171.226
G1 X122.617 Y171.079
G1 X123.261 Y170.887
G1 X123.89 Y170.651
G1 X124.306 Y170.442
G1 X124.678 Y170.169
G1 X124.998 Y169.836
G1 X125.26 Y169.452
G1 X125.422 Y169.006
G1 X125.512 Y168.542
G1 X125.529 Y168.071
G1 X125.472 Y167.599
G1 X125.303 Y166.847
G1 X125.084 Y166.108
G1 X124.817 Y165.385
G1 X124.501 Y164.681
G1 X123.717 Y163.123
G1 X122.884 Y161.591
G1 X122.002 Y160.086
G1 X121.073 Y158.61
G1 X119.459 Y156.123
G1 X117.785 Y153.676
G1 X116.052 Y151.271
G1 X114.259 Y148.909
G1 X112.98 Y147.325
G1 X111.631 Y145.801
G1 X110.215 Y144.34
G1 X108.733 Y142.943
G1 X108.127 Y142.418
G1 X107.503 Y141.916
G1 X106.861 Y141.437
G1 X106.201 Y140.983
G1 X105.526 Y140.554
G1 X104.834 Y140.151
G1 X104.128 Y139.773
G1 X103.407 Y139.421
G1 X102.387 Y139.003
G1 X101.344 Y138.657
G1 X100.283 Y138.382
; Layer C00 Pass 2 of 3
G1 X99.207 Y138.18
G1 X98.12 Y138.05
G1 X97.025 Y137.995
G1 X95.926 Y138.013
G1 X94.828 Y138.106
G1 X93.665 Y138.269
G1 X92.512 Y138.491
G1 X91.372 Y138.771
G1 X90.247 Y139.109
G1 X89.229 Y139.468
G1 X88.222 Y139.855
G1 X87.226 Y140.27
G1 X86.242 Y140.712
G1 X85.27 Y141.181
G1 X84.312 Y141.677
G1 X83.368 Y142.199
G1 X82.438 Y142.748
G1 X80.979 Y143.66
G1 X79.542 Y144.604
G1 X78.128 Y145.581
G1 X76.737 Y146.591
G1 X75.369 Y147.632
G1 X74.026 Y148.704
G1 X72.707 Y149.808
G1 X71.413 Y150.942
G1 X69.807 Y152.389
G1 X68.235 Y153.873
G1 X66.701 Y155.394
G1 X65.203 Y156.952
G1 X63.743 Y158.544
G1 X62.322 Y160.172
G1 X60.939 Y161.833
G1 X59.596 Y163.528
G1 X58.473 Y165.036
G1 X57.419 Y166.592
G1 X56.434 Y168.192
G1 X55.521 Y169.836
G1 X55.061 Y170.77
G1 X54.666 Y171.732
G1 X54.337 Y172.719
G1 X54.076 Y173.727
G1 X53.97 Y174.366
G1 X53.944 Y175.01
G1 X54 Y175.653
G1 X54.137 Y176.286
G1 X54.276 Y176.627
G1 X54.449 Y176.947
G1 X54.654 Y177.245
G1 X54.89 Y177.518
G1 X55.154 Y177.765
G1 X55.444 Y177.982
G1 X55.757 Y178.168
G1 X56.091 Y178.32
G1 X56.861 Y178.589
G1 X57.651 Y178.79
G1 X58.455 Y178.92
G1 X59.268 Y178.98
G1 X60.463 Y179.01
G1 X61.658 Y178.991
G1 X62.85 Y178.922
G1 X64.04 Y178.804
G1 X66.368 Y178.509
G1 X68.69 Y178.169
G1 X71.004 Y177.784
G1 X73.311 Y177.354
G1 X77.334 Y176.59
G1 X81.357 Y175.821
G1 X83.214 Y175.474
G1 X87.356 Y174.716
G1 X91.511 Y174.038
G1 X95.679 Y173.438
G1 X99.857 Y172.916
G1 X103.021 Y172.595
G1 X106.19 Y172.324
G1 X109.363 Y172.103
G1 X112.54 Y171.934
G1 X115.148 Y171.807
G1 X116.689 Y171.74
G1 X118.228 Y171.638
G1 X119.764 Y171.501
G1 X121.297 Y171.329
G1 X121.962 Y171.226
G1 X122.617 Y171.079
G1 X123.261 Y170.887
G1 X123.89 Y170.651
G1 X124.306 Y170.442
G1 X124.678 Y170.169
G1 X124.998 Y169.836
G1 X125.26 Y169.452
G1 X125.422 Y169.006
G1 X125.512 Y168.542
G1 X125.529 Y168.071
G1 X125.472 Y167.599
G1 X125.303 Y166.847
G1 X125.084 Y166.108
G1 X124.817 Y165.385
G1 X124.501 Y164.681
G1 X123.717 Y163.123
G1 X122.884 Y161.591
G1 X122.002 Y160.086
G1 X121.073 Y158.61
G1 X119.459 Y156.123
G1 X117.785 Y153.676
G1 X116.052 Y151.271
G1 X114.259 Y148.909
G1 X112.98 Y147.325
G1 X111.631 Y145.801
G1 X110.215 Y144.34
G1 X108.733 Y142.943
G1 X108.127 Y142.418
G1 X107.503 Y141.916
G1 X106.861 Y141.437
G1 X106.201 Y140.983
G1 X105.526 Y140.554
G1 X104.834 Y140.151
G1 X104.128 Y139.773
G1 X103.407 Y139.421
G1 X102.387 Y139.003
G1 X101.344 Y138.657
G1 X100.283 Y138.382
; Layer C00 Pass 3 of 3
G1 X99.207 Y138.18
G1 X98.12 Y138.05
G1 X97.025 Y137.995
G1 X95.926 Y138.013
G1 X94.828 Y138.106
G1 X93.665 Y138.269
G1 X92.512 Y138.491
G1 X91.372 Y138.771
G1 X90.247 Y139.109
G1 X89.229 Y139.468
G1 X88.222 Y139.855
G1 X87.226 Y140.27
G1 X86.242 Y140.712
G1 X85.27 Y141.181
G1 X84.312 Y141.677
G1 X83.368 Y142.199
G1 X82.438 Y142.748
G1 X80.979 Y143.66
G1 X79.542 Y144.604
G1 X78.128 Y145.581
G1 X76.737 Y146.591
G1 X75.369 Y147.632
G1 X74.026 Y148.704
G1 X72.707 Y149.808
G1 X71.413 Y150.942
G1 X69.807 Y152.389
G1 X68.235 Y153.873
G1 X66.701 Y155.394
G1 X65.203 Y156.952
G1 X63.743 Y158.544
G1 X62.322 Y160.172
G1 X60.939 Y161.833
G1 X59.596 Y163.528
G1 X58.473 Y165.036
G1 X57.419 Y166.592
G1 X56.434 Y168.192
G1 X55.521 Y169.836
G1 X55.061 Y170.77
G1 X54.666 Y171.732
G1 X54.337 Y172.719
G1 X54.076 Y173.727
G1 X53.97 Y174.366
G1 X53.944 Y175.01
G1 X54 Y175.653
G1 X54.137 Y176.286
G1 X54.276 Y176.627
G1 X54.449 Y176.947
G1 X54.654 Y177.245
G1 X54.89 Y177.518
G1 X55.154 Y177.765
G1 X55.444 Y177.982
G1 X55.757 Y178.168
G1 X56.091 Y178.32
G1 X56.861 Y178.589
G1 X57.651 Y178.79
G1 X58.455 Y178.92
G1 X59.268 Y178.98
G1 X60.463 Y179.01
G1 X61.658 Y178.991
G1 X62.85 Y178.922
G1 X64.04 Y178.804
G1 X66.368 Y178.509
G1 X68.69 Y178.169
G1 X71.004 Y177.784
G1 X73.311 Y177.354
G1 X77.334 Y176.59
G1 X81.357 Y175.821
G1 X83.214 Y175.474
G1 X87.356 Y174.716
G1 X91.511 Y174.038
G1 X95.679 Y173.438
G1 X99.857 Y172.916
G1 X103.021 Y172.595
G1 X106.19 Y172.324
G1 X109.363 Y172.103
G1 X112.54 Y171.934
G1 X115.148 Y171.807
G1 X116.689 Y171.74
G1 X118.228 Y171.638
G1 X119.764 Y171.501
G1 X121.297 Y171.329
G1 X121.962 Y171.226
G1 X122.617 Y171.079
G1 X123.261 Y170.887
G1 X123.89 Y170.651
G1 X124.306 Y170.442
G1 X124.678 Y170.169
G1 X124.998 Y169.836
G1 X125.26 Y169.452
G1 X125.422 Y169.006
G1 X125.512 Y168.542
G1 X125.529 Y168.071
G1 X125.472 Y167.599
G1 X125.303 Y166.847
G1 X125.084 Y166.108
G1 X124.817 Y165.385
G1 X124.501 Y164.681
G1 X123.717 Y163.123
G1 X122.884 Y161.591
G1 X122.002 Y160.086
G1 X121.073 Y158.61
G1 X119.459 Y156.123
G1 X117.785 Y153.676
G1 X116.052 Y151.271
G1 X114.259 Y148.909
G1 X112.98 Y147.325
G1 X111.631 Y145.801
G1 X110.215 Y144.34
G1 X108.733 Y142.943
G1 X108.127 Y142.418
G1 X107.503 Y141.916
G1 X106.861 Y141.437
G1 X106.201 Y140.983
G1 X105.526 Y140.554
G1 X104.834 Y140.151
G1 X104.128 Y139.773
G1 X103.407 Y139.421
G1 X102.387 Y139.003
G1 X101.344 Y138.657
G1 X100.283 Y138.382
M05 
G0 X100.441 Y138.418 F0
; Layer C00 Pass 1 of 3
M03 S1000
G1 X101.45 Y138.686 F600
G1 X102.44 Y139.018
G1 X103.407 Y139.413
G1 X104.349 Y139.871
G1 X105.262 Y140.39
G1 X105.996 Y140.859
G1 X106.714 Y141.352
G1 X107.416 Y141.867
G1 X108.1 Y142.405
G1 X108.767 Y142.964
G1 X109.415 Y143.545
G1 X110.044 Y144.147
G1 X110.654 Y144.77
G1 X111.917 Y146.13
G1 X113.137 Y147.528
G1 X114.311 Y148.965
G1 X115.44 Y150.438
G1 X116.518 Y151.888
G1 X117.571 Y153.354
G1 X118.601 Y154.838
G1 X119.607 Y156.337
G1 X120.589 Y157.852
G1 X121.547 Y159.384
G1 X122.479 Y160.93
G1 X123.388 Y162.491
G1 X123.906 Y163.439
G1 X124.378 Y164.408
G1 X124.805 Y165.399
G1 X125.184 Y166.41
G1 X125.352 Y166.955
G1 X125.461 Y167.514
G1 X125.51 Y168.08
G1 X125.499 Y168.651
G1 X125.445 Y168.943
G1 X125.357 Y169.223
G1 X125.236 Y169.488
G1 X125.084 Y169.735
G1 X124.902 Y169.962
G1 X124.694 Y170.166
G1 X124.46 Y170.343
G1 X124.203 Y170.492
G1 X123.561 Y170.776
G1 X122.899 Y171.005
G1 X122.22 Y171.178
G1 X121.528 Y171.293
G1 X120.335 Y171.447
G1 X119.139 Y171.57
G1 X117.94 Y171.663
G1 X116.739 Y171.726
G1 X110.66 Y172.033
G1 X107.879 Y172.2
G1 X105.101 Y172.41
G1 X102.327 Y172.66
G1 X99.557 Y172.952
G1 X96.791 Y173.284
G1 X94.031 Y173.658
G1 X91.277 Y174.073
G1 X88.528 Y174.528
G1 X81.056 Y175.882
G1 X73.597 Y177.301
G1 X70.487 Y177.876
G1 X68.363 Y178.226
G1 X66.232 Y178.533
G1 X64.096 Y178.798
G1 X62.737 Y178.933
G1 X61.375 Y179
G1 X60.01
G1 X58.647 Y178.931
G1 X57.924 Y178.846
G1 X57.214 Y178.696
G1 X56.521 Y178.482
G1 X55.849 Y178.204
G1 X55.428 Y177.966
G1 X55.052 Y177.673
G1 X54.724 Y177.334
G1 X54.448 Y176.953
G1 X54.229 Y176.537
G1 X54.07 Y176.092
G1 X53.975 Y175.625
G1 X53.948 Y175.142
G1 X53.997 Y174.311
G1 X54.124 Y173.49
G1 X54.326 Y172.685
G1 X54.604 Y171.9
G1 X55.177 Y170.564
G1 X55.82 Y169.262
G1 X56.531 Y167.995
G1 X57.309 Y166.768
G1 X58.66 Y164.802
G1 X60.082 Y162.889
G1 X61.574 Y161.028
G1 X63.133 Y159.224
G1 X64.876 Y157.297
G1 X66.673 Y155.422
G1 X68.521 Y153.599
G1 X70.42 Y151.83
G1 X72.368 Y150.115
G1 X74.364 Y148.456
G1 X76.408 Y146.854
G1 X78.498 Y145.31
G1 X80.343 Y144.044
G1 X82.241 Y142.86
G1 X84.188 Y141.758
G1 X86.181 Y140.741
G1 X87.177 Y140.283
G1 X88.187 Y139.858
G1 X89.211 Y139.466
G1 X90.247 Y139.109
G1 X91.108 Y138.838
G1 X91.977 Y138.604
G1 X92.856 Y138.409
G1 X93.741 Y138.251
G1 X94.633 Y138.132
G1 X95.529 Y138.052
G1 X96.429 Y138.011
G1 X97.331
G1 X98.379 Y138.078
G1 X99.417 Y138.215
G1 X100.441 Y138.418
; Layer C00 Pass 2 of 3
G1 X101.45 Y138.686
G1 X102.44 Y139.018
G1 X103.407 Y139.413
G1 X104.349 Y139.871
G1 X105.262 Y140.39
G1 X105.996 Y140.859
G1 X106.714 Y141.352
G1 X107.416 Y141.867
G1 X108.1 Y142.405
G1 X108.767 Y142.964
G1 X109.415 Y143.545
G1 X110.044 Y144.147
G1 X110.654 Y144.77
G1 X111.917 Y146.13
G1 X113.137 Y147.528
G1 X114.311 Y148.965
G1 X115.44 Y150.438
G1 X116.518 Y151.888
G1 X117.571 Y153.354
G1 X118.601 Y154.838
G1 X119.607 Y156.337
G1 X120.589 Y157.852
G1 X121.547 Y159.384
G1 X122.479 Y160.93
G1 X123.388 Y162.491
G1 X123.906 Y163.439
G1 X124.378 Y164.408
G1 X124.805 Y165.399
G1 X125.184 Y166.41
G1 X125.352 Y166.955
G1 X125.461 Y167.514
G1 X125.51 Y168.08
G1 X125.499 Y168.651
G1 X125.445 Y168.943
G1 X125.357 Y169.223
G1 X125.236 Y169.488
G1 X125.084 Y169.735
G1 X124.902 Y169.962
G1 X124.694 Y170.166
G1 X124.46 Y170.343
G1 X124.203 Y170.492
G1 X123.561 Y170.776
G1 X122.899 Y171.005
G1 X122.22 Y171.178
G1 X121.528 Y171.293
G1 X120.335 Y171.447
G1 X119.139 Y171.57
G1 X117.94 Y171.663
G1 X116.739 Y171.726
G1 X110.66 Y172.033
G1 X107.879 Y172.2
G1 X105.101 Y172.41
G1 X102.327 Y172.66
G1 X99.557 Y172.952
G1 X96.791 Y173.284
G1 X94.031 Y173.658
G1 X91.277 Y174.073
G1 X88.528 Y174.528
G1 X81.056 Y175.882
G1 X73.597 Y177.301
G1 X70.487 Y177.876
G1 X68.363 Y178.226
G1 X66.232 Y178.533
G1 X64.096 Y178.798
G1 X62.737 Y178.933
G1 X61.375 Y179
