;FLAVOR:Marlin
;TIME:5364
;Filament used: 3.59722m
;Layer height: 0.14
;MINX:84
;MINY:87.987
;MINZ:0.2
;MAXX:136
;MAXY:142.987
;MAXZ:37.84
;Generated with Creality Slicer 4.8.2-254
M104 S200
M105
M109 S200
M82 ;absolute extrusion mode

G28 ;Home
M420 S1 ;Use bed leveling data
G92 E0 ;Reset Extruder
G1 Z2.0 F3000 ;Move Z Axis up
G1 X10.1 Y20 Z0.28 F5000.0 ;Move to start position
G1 X10.1 Y200.0 Z0.28 F1500.0 E15 ;Draw the first line
G1 X10.4 Y200.0 Z0.28 F5000.0 ;Move to side a little
G1 X10.4 Y20 Z0.28 F1500.0 E30 ;Draw the second line
G92 E0 ;Reset Extruder
G1 Z2.0 F3000 ;Move Z Axis up
G92 E0
G92 E0
G1 F2400 E-0.8
;LAYER_COUNT:216
;LAYER:0
M107
M204 S2000
G0 F7500 X87.711 Y91.194 Z0.2
M204 S500
;TYPE:SKIRT
G1 F2400 E0
G1 F1500 X88.423 Y90.583 E0.03121
G1 X89.513 Y89.828 E0.07531
G1 X89.864 Y89.615 E0.08896
G1 X90.686 Y89.163 E0.12016
G1 X91.543 Y88.783 E0.15134
G1 X92.43 Y88.477 E0.18255
G1 X93.339 Y88.248 E0.21373
G1 X94.258 Y88.098 E0.2447
G1 X94.441 Y88.076 E0.25083
G1 X95.43 Y88.002 E0.28382
G1 X95.769 Y87.992 E0.2951
G1 X96.093 Y87.987 E0.30587
G1 X123.546 Y87.987 E1.21896
G1 X124.401 Y87.998 E1.2474
G1 X125.7 Y88.094 E1.29073
G1 X125.902 Y88.121 E1.29751
G1 X126.826 Y88.285 E1.32872
G1 X127.732 Y88.527 E1.35991
G1 X128.614 Y88.845 E1.39109
G1 X129.487 Y89.248 E1.42307
G1 X129.582 Y89.297 E1.42663
G1 X130.242 Y89.666 E1.45178
G1 X130.468 Y89.803 E1.46057
G1 X131.249 Y90.323 E1.49177
G1 X131.982 Y90.908 E1.52297
G1 X132.663 Y91.553 E1.55416
G1 X133.429 Y92.431 E1.59292
G1 X133.555 Y92.592 E1.59972
G1 X134.101 Y93.354 E1.6309
G1 X134.58 Y94.16 E1.66208
G1 X134.988 Y95.005 E1.69329
G1 X135.391 Y96.09 E1.73179
G1 X135.421 Y96.186 E1.73513
G1 X135.586 Y96.77 E1.75532
G1 X135.651 Y97.027 E1.76413
G1 X135.842 Y97.945 E1.79532
G1 X135.954 Y98.876 E1.82651
G1 X135.986 Y99.545 E1.84878
G1 X135.999 Y100.344 E1.87536
G1 X136 Y131.251 E2.90333
G1 X135.989 Y132.129 E2.93254
G1 X135.936 Y133.066 E2.96375
G1 X135.804 Y133.994 E2.99493
G1 X135.593 Y134.908 E3.02613
G1 X135.304 Y135.8 E3.05731
G1 X134.941 Y136.665 E3.08852
G1 X134.506 Y137.496 E3.11971
G1 X134.001 Y138.286 E3.1509
G1 X133.431 Y139.031 E3.1821
G1 X132.8 Y139.725 E3.21329
G1 X132.111 Y140.362 E3.2445
G1 X131.371 Y140.938 E3.27569
G1 X130.585 Y141.449 E3.30688
G1 X129.758 Y141.891 E3.33806
G1 X128.896 Y142.261 E3.36926
G1 X128.006 Y142.556 E3.40045
G1 X127.094 Y142.775 E3.43164
G1 X126.167 Y142.915 E3.46283
G1 X125.299 Y142.974 E3.49176
G1 X124.979 Y142.983 E3.50241
G1 X124.67 Y142.987 E3.51269
G1 X95.565 Y142.986 E4.48072
G1 X94.867 Y142.977 E4.50394
G1 X93.931 Y142.925 E4.53512
G1 X93.002 Y142.793 E4.56633
G1 X92.088 Y142.583 E4.59752
G1 X91.195 Y142.296 E4.62872
G1 X90.33 Y141.933 E4.65992
G1 X89.499 Y141.499 E4.6911
G1 X88.708 Y140.995 E4.7223
G1 X87.963 Y140.425 E4.7535
G1 X87.269 Y139.794 E4.78469
G1 X86.632 Y139.107 E4.81585
G1 X86.055 Y138.367 E4.84706
G1 X85.543 Y137.581 E4.87826
G1 X85.1 Y136.754 E4.90947
G1 X84.729 Y135.893 E4.94065
G1 X84.433 Y135.003 E4.97185
G1 X84.214 Y134.091 E5.00304
G1 X84.073 Y133.164 E5.03423
G1 X84.012 Y132.255 E5.06453
G1 X84.003 Y131.898 E5.07641
G1 X84 Y131.621 E5.08562
G1 X84.002 Y100.286 E6.12783
G1 X84.011 Y99.616 E6.15011
G1 X84.064 Y98.68 E6.1813
G1 X84.196 Y97.751 E6.2125
G1 X84.347 Y97.063 E6.23593
G1 X84.444 Y96.68 E6.24907
G1 X84.712 Y95.782 E6.28024
G1 X85.057 Y94.909 E6.31146
G1 X85.474 Y94.07 E6.34263
G1 X85.962 Y93.268 E6.37385
G1 X86.342 Y92.734 E6.39565
G1 X86.455 Y92.585 E6.40187
G1 X87.053 Y91.863 E6.43305
G1 X87.711 Y91.194 E6.46426
M204 S2000
G0 F7500 X88.009 Y91.463
M204 S500
G1 F1500 X88.71 Y90.867 E6.49486
G1 X89.721 Y90.17 E6.53571
G1 X90.072 Y89.957 E6.54936
G1 X90.879 Y89.514 E6.57998
G1 X91.721 Y89.143 E6.61058
G1 X92.593 Y88.846 E6.64122
G1 X93.487 Y88.626 E6.67184
G1 X94.306 Y88.495 E6.69943
G1 X94.489 Y88.473 E6.70556
G1 X95.441 Y88.402 E6.73731
G1 X95.78 Y88.392 E6.74859
G1 X96.093 Y88.387 E6.759
G1 X123.546 Y88.387 E7.67209
G1 X124.395 Y88.398 E7.70033
G1 X125.647 Y88.49 E7.74209
G1 X125.849 Y88.517 E7.74887
G1 X126.756 Y88.679 E7.77951
G1 X127.645 Y88.918 E7.81013
G1 X128.509 Y89.234 E7.84073
G1 X129.304 Y89.603 E7.86988
G1 X129.399 Y89.652 E7.87343
G1 X130.035 Y90.008 E7.89768
G1 X130.261 Y90.145 E7.90647
G1 X131.027 Y90.656 E7.93709
G1 X131.745 Y91.232 E7.96771
G1 X132.411 Y91.868 E7.99834
G1 X133.114 Y92.677 E8.03398
G1 X133.24 Y92.838 E8.04078
G1 X133.775 Y93.587 E8.0714
G1 X134.243 Y94.38 E8.10202
G1 X134.641 Y95.21 E8.13264
G1 X135.009 Y96.209 E8.16805
G1 X135.039 Y96.305 E8.1714
G1 X135.198 Y96.868 E8.19085
G1 X135.263 Y97.125 E8.19967
G1 X135.45 Y98.026 E8.23028
G1 X135.558 Y98.941 E8.26092
G1 X135.586 Y99.552 E8.28126
G1 X135.599 Y100.351 E8.30784
G1 X135.6 Y131.251 E9.33558
G1 X135.589 Y132.124 E9.36462
G1 X135.536 Y133.043 E9.39524
G1 X135.404 Y133.954 E9.42585
G1 X135.193 Y134.85 E9.45647
G1 X134.906 Y135.725 E9.4871
G1 X134.543 Y136.571 E9.51771
G1 X134.109 Y137.383 E9.54834
G1 X133.605 Y138.154 E9.57897
G1 X133.037 Y138.878 E9.60958
G1 X132.408 Y139.55 E9.6402
G1 X131.723 Y140.165 E9.67081
G1 X130.987 Y140.718 E9.70143
G1 X130.206 Y141.206 E9.73206
G1 X129.386 Y141.624 E9.76268
G1 X128.532 Y141.969 E9.79331
G1 X127.652 Y142.238 E9.82392
G1 X126.751 Y142.431 E9.85456
G1 X125.838 Y142.544 E9.88516
G1 X125.288 Y142.574 E9.90348
G1 X124.968 Y142.583 E9.91413
G1 X124.67 Y142.587 E9.92404
G1 X95.57 Y142.586 E10.89191
G1 X94.872 Y142.577 E10.91513
G1 X93.953 Y142.525 E10.94574
G1 X93.042 Y142.394 E10.97636
G1 X92.146 Y142.184 E11.00696
G1 X91.271 Y141.897 E11.03759
G1 X90.424 Y141.535 E11.06823
G1 X89.612 Y141.101 E11.09885
G1 X88.841 Y140.599 E11.12945
G1 X88.116 Y140.031 E11.16008
G1 X87.443 Y139.402 E11.19072
G1 X86.828 Y138.718 E11.22132
G1 X86.274 Y137.983 E11.25193
G1 X85.786 Y137.202 E11.28256
G1 X85.367 Y136.382 E11.31319
G1 X85.021 Y135.529 E11.3438
G1 X84.751 Y134.649 E11.37442
G1 X84.558 Y133.748 E11.40507
G1 X84.444 Y132.835 E11.43567
G1 X84.412 Y132.245 E11.45532
G1 X84.403 Y131.888 E11.4672
G1 X84.4 Y131.621 E11.47608
G1 X84.402 Y100.292 E12.51809
G1 X84.411 Y99.622 E12.54037
G1 X84.463 Y98.702 E12.57102
G1 X84.595 Y97.791 E12.60164
G1 X84.734 Y97.162 E12.62306
G1 X84.831 Y96.779 E12.6362
G1 X85.096 Y95.897 E12.66683
G1 X85.436 Y95.041 E12.69747
G1 X85.849 Y94.218 E12.72809
G1 X86.332 Y93.435 E12.75869
G1 X86.661 Y92.976 E12.77748
G1 X86.774 Y92.827 E12.7837
G1 X87.362 Y92.118 E12.81433
G1 X88.009 Y91.463 E12.84495
M204 S2000
G0 F7500 X88.306 Y91.733
M204 S500
G1 F1500 X88.997 Y91.151 E12.875
G1 X89.928 Y90.512 E12.91256
G1 X90.279 Y90.299 E12.92621
G1 X91.071 Y89.865 E12.95625
G1 X91.899 Y89.503 E12.98631
G1 X92.755 Y89.215 E13.01635
G1 X93.633 Y89.005 E13.04637
G1 X94.354 Y88.892 E13.07065
G1 X94.537 Y88.87 E13.07678
G1 X95.453 Y88.801 E13.10733
G1 X95.792 Y88.791 E13.11861
G1 X96.093 Y88.787 E13.12862
G1 X123.546 Y88.787 E14.04171
G1 X124.389 Y88.798 E14.06975
G1 X125.594 Y88.887 E14.10994
G1 X125.796 Y88.914 E14.11672
G1 X126.685 Y89.073 E14.14676
G1 X127.557 Y89.31 E14.17681
G1 X128.404 Y89.624 E14.20686
G1 X129.121 Y89.959 E14.23318
G1 X129.216 Y90.008 E14.23673
G1 X129.828 Y90.351 E14.26007
G1 X130.054 Y90.488 E14.26886
G1 X130.804 Y90.989 E14.29886
G1 X131.508 Y91.556 E14.32892
G1 X132.158 Y92.182 E14.35894
G1 X132.799 Y92.924 E14.39155
G1 X132.925 Y93.085 E14.39835
G1 X133.449 Y93.82 E14.42837
G1 X133.907 Y94.598 E14.4584
G1 X134.293 Y95.415 E14.48845
G1 X134.628 Y96.329 E14.52083
G1 X134.658 Y96.425 E14.52418
G1 X134.811 Y96.966 E14.54288
G1 X134.876 Y97.223 E14.55169
G1 X135.058 Y98.107 E14.58171
G1 X135.162 Y99.005 E14.61178
G1 X135.186 Y99.558 E14.63019
G1 X135.2 Y100.523 E14.66229
G1 X135.199 Y131.391 E15.68896
G1 X135.189 Y132.118 E15.71314
G1 X135.137 Y133.02 E15.74319
G1 X135.005 Y133.913 E15.77322
G1 X134.794 Y134.792 E15.80328
G1 X134.507 Y135.648 E15.83331
G1 X134.145 Y136.475 E15.86334
G1 X133.711 Y137.267 E15.89338
G1 X133.209 Y138.018 E15.92342
G1 X132.643 Y138.721 E15.95344
G1 X132.016 Y139.372 E15.9835
G1 X131.335 Y139.964 E16.01351
G1 X130.604 Y140.494 E16.04354
G1 X129.828 Y140.957 E16.0736
G1 X129.015 Y141.35 E16.10363
G1 X128.17 Y141.67 E16.13369
G1 X127.301 Y141.913 E16.1637
G1 X126.413 Y142.078 E16.19374
G1 X125.277 Y142.174 E16.23166
G1 X124.957 Y142.183 E16.2423
G1 X124.67 Y142.187 E16.25185
G1 X95.575 Y142.186 E17.21955
G1 X94.877 Y142.177 E17.24277
G1 X93.976 Y142.126 E17.27279
G1 X93.082 Y141.994 E17.30284
G1 X92.204 Y141.785 E17.33286
G1 X91.347 Y141.498 E17.36292
G1 X90.52 Y141.137 E17.39294
G1 X89.727 Y140.704 E17.42299
G1 X88.976 Y140.203 E17.45301
G1 X88.272 Y139.637 E17.48306
G1 X87.621 Y139.011 E17.5131
G1 X87.028 Y138.33 E17.54313
G1 X86.498 Y137.599 E17.57316
G1 X86.034 Y136.824 E17.6032
G1 X85.64 Y136.011 E17.63325
G1 X85.32 Y135.167 E17.66327
G1 X85.076 Y134.297 E17.69333
G1 X84.91 Y133.409 E17.72337
G1 X84.812 Y132.235 E17.76256
G1 X84.803 Y131.878 E17.77443
G1 X84.8 Y131.621 E17.78298
G1 X84.802 Y100.297 E18.82482
G1 X84.811 Y99.627 E18.84711
G1 X84.863 Y98.725 E18.87716
G1 X84.995 Y97.832 E18.90718
G1 X85.122 Y97.26 E18.92667
G1 X85.219 Y96.877 E18.93981
G1 X85.479 Y96.012 E18.96985
G1 X85.815 Y95.174 E18.99988
G1 X86.224 Y94.368 E19.02995
G1 X86.702 Y93.602 E19.05998
G1 X86.98 Y93.217 E19.07577
G1 X87.093 Y93.068 E19.08199
G1 X87.67 Y92.374 E19.11201
G1 X88.306 Y91.733 E19.14204
M204 S2000
G1 F2400 E18.34204
;MESH:DrainingBoardMount Back rightWithLip.stl
G0 F7500 X105.948 Y110.45
G0 X104.209 Y109.79
G0 X104.717 Y113.288
G0 X104.914 Y113.916
G0 X105.523 Y115.077
G0 X105.928 Y115.594
G0 X106.392 Y116.058
G0 X106.91 Y116.463
G0 X107.227 Y116.655
G0 X110 Y117.989
M204 S500
;TYPE:WALL-INNER
G1 F2400 E19.14204
G1 F1500 X110.723 Y117.945 E19.16613
G1 X111.437 Y117.814 E19.19028
G1 X112.128 Y117.599 E19.21435
G1 X112.789 Y117.301 E19.23846
G1 X113.41 Y116.926 E19.26259
G1 X113.981 Y116.479 E19.28671
G1 X114.493 Y115.967 E19.31079
G1 X114.94 Y115.395 E19.33494
G1 X115.314 Y114.775 E19.35902
G1 X115.612 Y114.117 E19.38305
G1 X115.828 Y113.423 E19.40722
G1 X115.959 Y112.709 E19.43136
G1 X116.002 Y111.987 E19.45542
G1 X115.959 Y111.264 E19.47951
G1 X115.828 Y110.55 E19.50365
G1 X115.612 Y109.858 E19.52777
G1 X115.314 Y109.198 E19.55185
G1 X114.94 Y108.578 E19.57593
G1 X114.493 Y108.006 E19.60008
G1 X113.981 Y107.494 E19.62416
G1 X113.41 Y107.047 E19.64828
G1 X112.789 Y106.672 E19.67241
G1 X112.128 Y106.374 E19.69652
G1 X111.437 Y106.159 E19.72059
G1 X110.723 Y106.028 E19.74474
G1 X110 Y105.985 E19.76883
G1 X109.277 Y106.028 E19.79292
G1 X108.563 Y106.159 E19.81706
G1 X107.872 Y106.374 E19.84113
G1 X107.211 Y106.672 E19.86525
G1 X106.59 Y107.047 E19.88938
G1 X106.019 Y107.494 E19.91349
G1 X105.507 Y108.006 E19.93758
G1 X105.06 Y108.578 E19.96172
G1 X104.686 Y109.198 E19.9858
G1 X104.388 Y109.858 E20.00989
G1 X104.172 Y110.55 E20.034
G1 X104.041 Y111.264 E20.05815
G1 X103.998 Y111.987 E20.08223
G1 X104.041 Y112.709 E20.10629
G1 X104.172 Y113.423 E20.13044
G1 X104.388 Y114.117 E20.15461
G1 X104.686 Y114.775 E20.17864
G1 X105.06 Y115.395 E20.20272
G1 X105.507 Y115.967 E20.22686
G1 X106.019 Y116.479 E20.25095
G1 X106.59 Y116.926 E20.27506
G1 X107.211 Y117.301 E20.29919
G1 X107.872 Y117.599 E20.32331
G1 X108.563 Y117.814 E20.34738
G1 X109.277 Y117.945 E20.37152
G1 X110 Y117.989 E20.39561
M204 S2000
G0 F7500 X110 Y117.588
M204 S500
G1 F1500 X110.675 Y117.547 E20.41811
G1 X111.341 Y117.425 E20.44063
G1 X111.986 Y117.224 E20.4631
G1 X112.603 Y116.946 E20.4856
G1 X113.182 Y116.596 E20.50811
G1 X113.715 Y116.179 E20.53062
G1 X114.193 Y115.701 E20.5531
G1 X114.61 Y115.168 E20.57561
G1 X114.959 Y114.589 E20.59809
G1 X115.237 Y113.974 E20.62054
G1 X115.439 Y113.327 E20.64308
G1 X115.561 Y112.661 E20.6656
G1 X115.601 Y111.987 E20.68806
G1 X115.561 Y111.312 E20.71055
G1 X115.439 Y110.646 E20.73307
G1 X115.237 Y110 E20.75558
G1 X114.959 Y109.384 E20.77806
G1 X114.61 Y108.805 E20.80055
G1 X114.193 Y108.272 E20.82305
G1 X113.715 Y107.794 E20.84554
G1 X113.182 Y107.377 E20.86805
G1 X112.603 Y107.027 E20.89055
G1 X111.986 Y106.749 E20.91306
G1 X111.341 Y106.548 E20.93553
G1 X110.675 Y106.426 E20.95805
G1 X110 Y106.386 E20.98054
G1 X109.325 Y106.426 E21.00303
G1 X108.659 Y106.548 E21.02555
G1 X108.014 Y106.749 E21.04802
G1 X107.397 Y107.027 E21.07053
G1 X106.818 Y107.377 E21.09303
G1 X106.285 Y107.794 E21.11554
G1 X105.807 Y108.272 E21.13802
G1 X105.39 Y108.805 E21.16053
G1 X105.041 Y109.384 E21.18302
G1 X104.763 Y110 E21.20549
G1 X104.561 Y110.646 E21.22801
G1 X104.439 Y111.312 E21.25053
G1 X104.399 Y111.987 E21.27302
G1 X104.439 Y112.661 E21.29547
G1 X104.561 Y113.327 E21.31799
G1 X104.763 Y113.974 E21.34054
G1 X105.041 Y114.589 E21.36298
G1 X105.39 Y115.168 E21.38547
G1 X105.807 Y115.701 E21.40798
G1 X106.285 Y116.179 E21.43046
G1 X106.818 Y116.596 E21.45297
G1 X107.397 Y116.946 E21.47547
G1 X108.014 Y117.224 E21.49798
G1 X108.659 Y117.425 E21.52045
G1 X109.325 Y117.547 E21.54297
G1 X110 Y117.588 E21.56546
M204 S2000
G0 F7500 X110 Y117.187
M204 S500
;TYPE:WALL-OUTER
G1 F1500 X110.627 Y117.149 E21.58636
G1 X111.245 Y117.036 E21.60725
G1 X111.844 Y116.849 E21.62812
G1 X112.417 Y116.591 E21.64902
G1 X112.954 Y116.266 E21.6699
G1 X113.449 Y115.879 E21.6908
G1 X113.893 Y115.435 E21.71168
G1 X114.28 Y114.941 E21.73255
G1 X114.604 Y114.403 E21.75344
G1 X114.862 Y113.831 E21.77431
G1 X115.05 Y113.231 E21.79523
G1 X115.163 Y112.613 E21.81612
G1 X115.2 Y111.987 E21.83698
G1 X115.163 Y111.36 E21.85787
G1 X115.05 Y110.742 E21.87876
G1 X114.862 Y110.143 E21.89965
G1 X114.604 Y109.57 E21.92055
G1 X114.28 Y109.032 E21.94143
G1 X113.893 Y108.538 E21.96231
G1 X113.449 Y108.094 E21.98319
G1 X112.954 Y107.707 E22.00409
G1 X112.417 Y107.382 E22.02497
G1 X111.844 Y107.124 E22.04587
G1 X111.245 Y106.937 E22.06674
G1 X110.627 Y106.824 E22.08763
G1 X110 Y106.787 E22.10852
G1 X109.373 Y106.824 E22.12941
G1 X108.755 Y106.937 E22.15031
G1 X108.156 Y107.124 E22.17118
G1 X107.583 Y107.382 E22.19208
G1 X107.046 Y107.707 E22.21296
G1 X106.551 Y108.094 E22.23386
G1 X106.107 Y108.538 E22.25474
G1 X105.72 Y109.032 E22.27561
G1 X105.396 Y109.57 E22.2965
G1 X105.138 Y110.143 E22.3174
G1 X104.95 Y110.742 E22.33828
G1 X104.837 Y111.36 E22.35918
G1 X104.8 Y111.987 E22.38007
G1 X104.837 Y112.613 E22.40093
G1 X104.95 Y113.231 E22.42182
G1 X105.138 Y113.831 E22.44274
G1 X105.396 Y114.403 E22.46361
G1 X105.72 Y114.941 E22.48449
G1 X106.107 Y115.435 E22.50537
G1 X106.551 Y115.879 E22.52625
G1 X107.046 Y116.266 E22.54715
G1 X107.583 Y116.591 E22.56803
G1 X108.156 Y116.849 E22.58893
G1 X108.755 Y117.036 E22.6098
G1 X109.373 Y117.149 E22.63069
G1 X110 Y117.187 E22.65159
M204 S2000
G0 F7500 X110 Y117.627
G1 F2400 E21.85159
G0 F7500 X108.517 Y117.999
G0 X108.959 Y116.194
G0 X94.335 Y117.997
G0 X96.191 Y117.997
G0 X96 Y130.987
M204 S500
;TYPE:WALL-INNER
G1 F2400 E22.65159
G1 F1500 X96 Y130.788 E22.6582
G1 X96.001 Y99.987 E23.68265
G1 X124 Y99.987 E24.6139
G1 X124 Y130.987 E25.64496
G1 X96.199 Y130.987 E26.56963
G1 X96 Y130.987 E26.57391
M204 S2000
G0 F7500 X95.6 Y131.387
M204 S500
G1 F1500 X95.6 Y131.188 E26.58053
G1 X95.601 Y99.806 E27.6243
G1 X95.642 Y99.654 E27.62954
G1 X95.788 Y99.587 E27.63488
G1 X124.213 Y99.587 E28.5803
G1 X124.359 Y99.655 E28.58566
G1 X124.4 Y99.81 E28.59099
G1 X124.4 Y131.387 E29.64124
G1 X95.799 Y131.387 E30.59252
G1 X95.6 Y131.387 E30.5968
M204 S2000
G0 F7500 X95.2 Y131.787
M204 S500
;TYPE:WALL-OUTER
G1 F1500 X95.201 Y99.754 E31.66222
G1 X95.282 Y99.454 E31.67256
G1 X95.361 Y99.355 E31.67677
G1 X95.621 Y99.205 E31.68675
G1 X95.76 Y99.187 E31.69141
G1 X124.239 Y99.187 E32.63863
G1 X124.384 Y99.207 E32.6435
G1 X124.645 Y99.359 E32.65354
G1 X124.72 Y99.46 E32.65773
G1 X124.8 Y99.759 E32.66802
G1 X124.8 Y131.787 E33.73328
G1 X95.2 Y131.787 E34.71778
M204 S2000
G0 F7500 X95.47 Y131.517
G0 X96.111 Y130.596
G0 X96.39 Y130.597
M204 S500
;TYPE:SKIN
G1 F1500 X96.391 Y100.377 E35.7229
G1 X123.61 Y100.377 E36.62821
G1 X123.61 Y130.597 E37.63333
G1 X96.39 Y130.597 E38.53867
M204 S2000
G1 F2400 E37.73867
G0 F7500 X96.111 Y130.596
G0 X96.191 Y117.015
G0 X94.335 Y117.015
G0 X107.127 Y115.233
G0 X105.893 Y116.623
G0 X106.527 Y117.017
G0 X106.368 Y117.248
M204 S500
