;FLAVOR:Marlin
;TIME:751
;Filament used: 0.238505m
;Layer height: 0.2
;MINX:98.7
;MINY:97.985
;MINZ:0.2
;MAXX:121.3
;MAXY:122.081
;MAXZ:26.6
;Generated with Cura_SteamEngine 5.2.2
M82 ;absolute extrusion mode
; Ender 3 S1 Start G-code
G92 E0 ; Reset Extruder
G28 ; Home all axes
G1 Z10.0 F3000 ; Move Z Axis up little to prevent scratching of Heat Bed
G1 X0 Y0

M104 S205.0
M190 S0
M109 S205.0

G1 X0.1 Y20 Z0.3 F5000.0 ; Move to start position
G1 X0.1 Y200.0 Z0.3 F1500.0 E15 ; Draw the first line
G1 X0.4 Y200.0 Z0.3 F5000.0 ; Move to side a little
G1 X0.4 Y20 Z0.3 F1500.0 E30 ; Draw the second line
G92 E0 ; Reset Extruder
G1 Z2.0 F3000 ; Move Z Axis up little to prevent scratching of Heat Bed
G1 X5 Y20 Z0.3 F5000.0 ; Move over to prevent blob squish

G92 E0
G92 E0
G1 F2400 E-1
;LAYER_COUNT:133
;LAYER:0
M107
M204 S2000
G1 F300 Z0.4
G0 F7500 X101.934 Y101.371 Z0.4
M204 S500
;TYPE:SKIRT
G1 F300 Z0.2
G1 F2400 E0
G1 F1500 X102.508 Y100.825 E0.02371
G1 X102.777 Y100.594 E0.03433
G1 X103.42 Y100.098 E0.05864
G1 X103.709 Y99.898 E0.06916
G1 X104.358 Y99.495 E0.09203
G1 X104.671 Y99.321 E0.10274
G1 X105.378 Y98.973 E0.12633
G1 X105.701 Y98.834 E0.13686
G1 X106.476 Y98.548 E0.16159
G1 X106.815 Y98.443 E0.17221
G1 X107.526 Y98.259 E0.19419
G1 X107.875 Y98.186 E0.20487
G1 X108.681 Y98.061 E0.22928
G1 X109.034 Y98.025 E0.2399
G1 X109.825 Y97.985 E0.26361
G1 X110.177 Y97.985 E0.27415
G1 X110.968 Y98.025 E0.29786
G1 X111.321 Y98.061 E0.30848
G1 X112.127 Y98.186 E0.33289
G1 X112.476 Y98.259 E0.34357
G1 X113.187 Y98.443 E0.36555
G1 X113.526 Y98.548 E0.37618
G1 X114.301 Y98.834 E0.4009
G1 X114.624 Y98.973 E0.41143
G1 X115.34 Y99.326 E0.43533
G1 X115.652 Y99.5 E0.44602
G1 X116.288 Y99.896 E0.46845
G1 X116.573 Y100.093 E0.47882
G1 X117.227 Y100.598 E0.50355
G1 X117.5 Y100.833 E0.51433
G1 X118.067 Y101.372 E0.53775
G1 X118.313 Y101.631 E0.54844
G1 X118.825 Y102.228 E0.57199
G1 X119.041 Y102.507 E0.58255
G1 X119.489 Y103.15 E0.60601
G1 X119.677 Y103.451 E0.61663
G1 X120.077 Y104.174 E0.64136
G1 X120.232 Y104.493 E0.65198
G1 X120.535 Y105.207 E0.6752
G1 X120.658 Y105.541 E0.68585
G1 X120.886 Y106.266 E0.7086
G1 X120.975 Y106.607 E0.71915
G1 X121.137 Y107.391 E0.74312
G1 X121.191 Y107.742 E0.75375
G1 X121.272 Y108.53 E0.77746
G1 X121.3 Y109.282 E0.79999
G1 X121.299 Y112.462 E0.89518
G1 X121.259 Y113.251 E0.91883
G1 X121.147 Y113.994 E0.94132
G1 X121.079 Y114.333 E0.95167
G1 X120.831 Y115.266 E0.98057
G1 X120.749 Y115.512 E0.98833
G1 X120.331 Y116.521 E1.02102
G1 X120.214 Y116.756 E1.02888
G1 X119.722 Y117.607 E1.0583
G1 X119.576 Y117.826 E1.06618
G1 X118.951 Y118.642 E1.09695
G1 X118.78 Y118.837 E1.10471
G1 X118.077 Y119.542 E1.13452
G1 X117.881 Y119.715 E1.14234
G1 X117.039 Y120.362 E1.17413
G1 X116.821 Y120.507 E1.18197
G1 X115.977 Y120.994 E1.21113
G1 X115.74 Y121.112 E1.21906
G1 X114.74 Y121.527 E1.25147
G1 X114.495 Y121.609 E1.2592
G1 X113.554 Y121.859 E1.28835
G1 X113.295 Y121.911 E1.29626
G1 X112.269 Y122.047 E1.32724
G1 X112.009 Y122.064 E1.33504
G1 X111.498 Y122.081 E1.35034
G1 X108.319 Y122.08 E1.4455
G1 X107.53 Y122.04 E1.46915
G1 X106.791 Y121.929 E1.49152
G1 X106.451 Y121.861 E1.5019
G1 X105.505 Y121.609 E1.5312
G1 X105.26 Y121.527 E1.53894
G1 X104.26 Y121.112 E1.57135
G1 X104.023 Y120.994 E1.57927
G1 X103.179 Y120.507 E1.60844
G1 X102.961 Y120.362 E1.61628
G1 X102.119 Y119.715 E1.64806
G1 X101.923 Y119.542 E1.65589
G1 X101.22 Y118.837 E1.68569
G1 X101.049 Y118.642 E1.69346
G1 X100.424 Y117.826 E1.72422
G1 X100.278 Y117.607 E1.7321
G1 X99.786 Y116.756 E1.76153
G1 X99.669 Y116.521 E1.76939
G1 X99.251 Y115.512 E1.80208
G1 X99.169 Y115.266 E1.80984
G1 X98.923 Y114.34 E1.83852
G1 X98.871 Y114.082 E1.8464
G1 X98.734 Y113.052 E1.8775
G1 X98.717 Y112.793 E1.88527
G1 X98.7 Y112.282 E1.90058
G1 X98.7 Y109.281 E1.99041
G1 X98.728 Y108.531 E2.01288
G1 X98.808 Y107.749 E2.03641
G1 X98.862 Y107.396 E2.0471
G1 X99.025 Y106.605 E2.07127
G1 X99.114 Y106.264 E2.08182
G1 X99.347 Y105.524 E2.10504
G1 X99.47 Y105.192 E2.11564
G1 X99.768 Y104.493 E2.13839
G1 X99.923 Y104.174 E2.14901
G1 X100.323 Y103.451 E2.17374
G1 X100.511 Y103.15 E2.18436
G1 X100.962 Y102.504 E2.20795
G1 X101.179 Y102.224 E2.21855
G1 X101.688 Y101.63 E2.24197
G1 X101.934 Y101.371 E2.25266
M204 S2000
G0 F7500 X102.224 Y101.647
M204 S500
G1 F1500 X102.769 Y101.129 E2.27517
G1 X103.038 Y100.898 E2.28578
G1 X103.648 Y100.427 E2.30885
G1 X103.937 Y100.227 E2.31937
G1 X104.552 Y99.844 E2.34106
G1 X104.865 Y99.67 E2.35178
G1 X105.536 Y99.341 E2.37415
G1 X105.859 Y99.202 E2.38467
G1 X106.595 Y98.93 E2.40816
G1 X106.934 Y98.825 E2.41878
G1 X107.608 Y98.651 E2.43962
G1 X107.957 Y98.578 E2.45029
G1 X108.721 Y98.459 E2.47344
G1 X109.074 Y98.423 E2.48406
G1 X109.825 Y98.385 E2.50657
G1 X110.177 Y98.385 E2.51711
G1 X110.928 Y98.423 E2.53962
G1 X111.281 Y98.459 E2.55024
G1 X112.045 Y98.578 E2.57338
G1 X112.394 Y98.651 E2.58406
G1 X113.068 Y98.825 E2.60489
G1 X113.407 Y98.93 E2.61552
G1 X114.143 Y99.202 E2.63901
G1 X114.466 Y99.341 E2.64953
G1 X115.145 Y99.675 E2.67218
G1 X115.457 Y99.849 E2.68288
G1 X116.061 Y100.225 E2.70417
G1 X116.346 Y100.422 E2.71454
G1 X116.966 Y100.901 E2.738
G1 X117.239 Y101.136 E2.74878
G1 X117.777 Y101.648 E2.77101
G1 X118.023 Y101.907 E2.7817
G1 X118.508 Y102.473 E2.80402
G1 X118.724 Y102.752 E2.81458
G1 X119.149 Y103.362 E2.83683
G1 X119.337 Y103.663 E2.84746
G1 X119.717 Y104.349 E2.87093
G1 X119.872 Y104.668 E2.88155
G1 X120.16 Y105.345 E2.90357
G1 X120.283 Y105.679 E2.91423
G1 X120.499 Y106.367 E2.93581
G1 X120.588 Y106.708 E2.94636
G1 X120.742 Y107.452 E2.9691
G1 X120.796 Y107.803 E2.97973
G1 X120.872 Y108.55 E3.00221
G1 X120.9 Y109.282 E3.02414
G1 X120.899 Y112.462 E3.11933
G1 X120.859 Y113.23 E3.14235
G1 X120.754 Y113.915 E3.16309
G1 X120.686 Y114.254 E3.17344
G1 X120.451 Y115.139 E3.20085
G1 X120.369 Y115.385 E3.20862
G1 X119.973 Y116.343 E3.23965
G1 X119.856 Y116.578 E3.2475
G1 X119.389 Y117.385 E3.27541
G1 X119.243 Y117.604 E3.28329
G1 X118.65 Y118.378 E3.31248
G1 X118.479 Y118.573 E3.32024
G1 X117.812 Y119.242 E3.34852
G1 X117.616 Y119.415 E3.35635
G1 X116.817 Y120.029 E3.38651
G1 X116.599 Y120.174 E3.39435
G1 X115.799 Y120.636 E3.422
G1 X115.562 Y120.754 E3.42993
G1 X114.613 Y121.147 E3.46067
G1 X114.368 Y121.229 E3.46841
G1 X113.476 Y121.467 E3.49604
G1 X113.217 Y121.519 E3.50395
G1 X112.243 Y121.648 E3.53336
G1 X111.983 Y121.665 E3.54116
G1 X111.498 Y121.681 E3.55569
G1 X108.319 Y121.68 E3.65085
G1 X107.551 Y121.64 E3.67387
G1 X106.87 Y121.536 E3.69449
G1 X106.53 Y121.468 E3.70487
G1 X105.632 Y121.229 E3.73269
G1 X105.387 Y121.147 E3.74042
G1 X104.438 Y120.754 E3.77117
G1 X104.201 Y120.636 E3.77909
G1 X103.401 Y120.174 E3.80674
G1 X103.183 Y120.029 E3.81458
G1 X102.384 Y119.415 E3.84475
G1 X102.188 Y119.242 E3.85257
G1 X101.521 Y118.573 E3.88085
G1 X101.35 Y118.378 E3.88861
G1 X100.757 Y117.604 E3.9178
G1 X100.611 Y117.385 E3.92568
G1 X100.144 Y116.578 E3.95359
G1 X100.027 Y116.343 E3.96145
G1 X99.631 Y115.385 E3.99248
G1 X99.549 Y115.139 E4.00024
G1 X99.315 Y114.261 E4.02744
G1 X99.263 Y114.003 E4.03532
G1 X99.133 Y113.026 E4.06482
G1 X99.116 Y112.767 E4.07259
G1 X99.1 Y112.282 E4.08712
G1 X99.1 Y109.281 E4.17695
G1 X99.128 Y108.551 E4.19882
G1 X99.203 Y107.809 E4.22114
G1 X99.257 Y107.456 E4.23183
G1 X99.412 Y106.706 E4.25476
G1 X99.501 Y106.365 E4.26531
G1 X99.722 Y105.663 E4.28734
G1 X99.845 Y105.331 E4.29793
G1 X100.128 Y104.668 E4.31951
G1 X100.283 Y104.349 E4.33013
G1 X100.663 Y103.663 E4.35361
G1 X100.851 Y103.362 E4.36423
G1 X101.278 Y102.749 E4.38659
G1 X101.495 Y102.469 E4.39719
G1 X101.978 Y101.906 E4.4194
G1 X102.224 Y101.647 E4.43009
M204 S2000
G0 F7500 X102.515 Y101.922
M204 S500
G1 F1500 X103.03 Y101.432 E4.45137
G1 X103.299 Y101.201 E4.46199
G1 X103.876 Y100.756 E4.4838
G1 X104.165 Y100.556 E4.49432
G1 X104.747 Y100.194 E4.51483
G1 X105.06 Y100.02 E4.52555
G1 X105.694 Y99.708 E4.54671
G1 X106.017 Y99.569 E4.55723
G1 X106.713 Y99.312 E4.57944
G1 X107.052 Y99.207 E4.59006
G1 X107.69 Y99.042 E4.60979
G1 X108.039 Y98.969 E4.62046
G1 X108.762 Y98.857 E4.64236
G1 X109.115 Y98.821 E4.65299
G1 X109.825 Y98.785 E4.67427
G1 X110.177 Y98.785 E4.6848
G1 X110.887 Y98.821 E4.70608
G1 X111.24 Y98.857 E4.71671
G1 X111.963 Y98.969 E4.73861
G1 X112.312 Y99.042 E4.74928
G1 X112.95 Y99.207 E4.76901
G1 X113.289 Y99.312 E4.77963
G1 X113.985 Y99.569 E4.80184
G1 X114.308 Y99.708 E4.81236
G1 X114.95 Y100.024 E4.83378
G1 X115.262 Y100.198 E4.84448
G1 X115.833 Y100.554 E4.86462
G1 X116.118 Y100.751 E4.87499
G1 X116.705 Y101.204 E4.89719
G1 X116.978 Y101.439 E4.90797
G1 X117.486 Y101.923 E4.92897
G1 X117.732 Y102.182 E4.93966
G1 X118.192 Y102.718 E4.96081
G1 X118.408 Y102.997 E4.97137
G1 X118.81 Y103.574 E4.99242
G1 X118.998 Y103.875 E5.00304
G1 X119.357 Y104.524 E5.02524
G1 X119.512 Y104.843 E5.03586
G1 X119.785 Y105.483 E5.05669
G1 X119.908 Y105.817 E5.06734
G1 X120.112 Y106.468 E5.08777
G1 X120.201 Y106.809 E5.09831
G1 X120.347 Y107.513 E5.11984
G1 X120.401 Y107.864 E5.13047
G1 X120.473 Y108.571 E5.15174
G1 X120.5 Y109.282 E5.17304
G1 X120.499 Y112.462 E5.26823
G1 X120.459 Y113.209 E5.29062
G1 X120.362 Y113.837 E5.30964
G1 X120.294 Y114.176 E5.31999
G1 X120.072 Y115.013 E5.34591
G1 X119.99 Y115.259 E5.35368
G1 X119.615 Y116.165 E5.38303
G1 X119.498 Y116.4 E5.39089
G1 X119.056 Y117.163 E5.41728
G1 X118.91 Y117.382 E5.42516
G1 X118.349 Y118.114 E5.45277
G1 X118.178 Y118.309 E5.46053
G1 X117.547 Y118.942 E5.48729
G1 X117.351 Y119.115 E5.49511
G1 X116.596 Y119.695 E5.52361
G1 X116.378 Y119.84 E5.53145
G1 X115.621 Y120.278 E5.55763
G1 X115.384 Y120.396 E5.56555
G1 X114.486 Y120.768 E5.59465
G1 X114.241 Y120.85 E5.60238
G1 X113.397 Y121.075 E5.62853
G1 X113.138 Y121.127 E5.63644
G1 X112.217 Y121.249 E5.66425
G1 X111.957 Y121.266 E5.67205
G1 X111.498 Y121.281 E5.68579
G1 X108.319 Y121.28 E5.78095
G1 X107.572 Y121.24 E5.80335
G1 X106.948 Y121.144 E5.82225
G1 X106.608 Y121.076 E5.83262
G1 X105.759 Y120.85 E5.85892
G1 X105.514 Y120.768 E5.86666
G1 X104.616 Y120.396 E5.89575
G1 X104.379 Y120.278 E5.90368
G1 X103.622 Y119.84 E5.92986
G1 X103.404 Y119.695 E5.9377
G1 X102.649 Y119.115 E5.96619
G1 X102.453 Y118.942 E5.97402
G1 X101.822 Y118.309 E6.00078
G1 X101.651 Y118.114 E6.00854
G1 X101.09 Y117.382 E6.03615
G1 X100.944 Y117.163 E6.04402
G1 X100.502 Y116.4 E6.07042
G1 X100.385 Y116.165 E6.07828
G1 X100.01 Y115.259 E6.10763
G1 X99.928 Y115.013 E6.11539
G1 X99.707 Y114.182 E6.14113
G1 X99.655 Y113.924 E6.14901
G1 X99.532 Y112.999 E6.17694
G1 X99.515 Y112.74 E6.18471
G1 X99.5 Y112.282 E6.19843
G1 X99.5 Y109.281 E6.28826
G1 X99.527 Y108.572 E6.3095
G1 X99.598 Y107.869 E6.33065
G1 X99.652 Y107.516 E6.34134
G1 X99.799 Y106.807 E6.36302
G1 X99.888 Y106.466 E6.37356
G1 X100.097 Y105.802 E6.3944
G1 X100.22 Y105.47 E6.405
G1 X100.488 Y104.843 E6.42541
G1 X100.643 Y104.524 E6.43603
G1 X101.002 Y103.875 E6.45823
G1 X101.19 Y103.574 E6.46885
G1 X101.594 Y102.994 E6.49001
G1 X101.811 Y102.714 E6.50062
G1 X102.269 Y102.181 E6.52165
G1 X102.515 Y101.922 E6.53234
M204 S2000
G0 F7500 X102.805 Y102.198
M204 S500
G1 F1500 X103.29 Y101.736 E6.55239
G1 X103.559 Y101.505 E6.56301
G1 X104.103 Y101.085 E6.58358
G1 X104.392 Y100.885 E6.5941
G1 X104.941 Y100.543 E6.61346
G1 X105.254 Y100.369 E6.62418
G1 X105.852 Y100.076 E6.64412
G1 X106.175 Y99.937 E6.65464
G1 X106.831 Y99.694 E6.67558
G1 X107.17 Y99.589 E6.68621
G1 X107.772 Y99.434 E6.70482
G1 X108.121 Y99.361 E6.71549
G1 X108.802 Y99.255 E6.73612
G1 X109.155 Y99.219 E6.74674
G1 X109.825 Y99.185 E6.76682
G1 X110.177 Y99.185 E6.77736
G1 X110.847 Y99.219 E6.79744
G1 X111.2 Y99.255 E6.80806
G1 X111.881 Y99.361 E6.82869
G1 X112.23 Y99.434 E6.83937
G1 X112.832 Y99.589 E6.85797
G1 X113.171 Y99.694 E6.8686
G1 X113.827 Y99.937 E6.88954
G1 X114.15 Y100.076 E6.90006
G1 X114.756 Y100.374 E6.92028
G1 X115.068 Y100.548 E6.93097
G1 X115.606 Y100.883 E6.94994
G1 X115.891 Y101.08 E6.96032
G1 X116.444 Y101.507 E6.98123
G1 X116.717 Y101.742 E6.99201
G1 X117.196 Y102.199 E7.01183
G1 X117.442 Y102.458 E7.02252
G1 X117.876 Y102.963 E7.04245
G1 X118.092 Y103.242 E7.05302
G1 X118.471 Y103.786 E7.07286
G1 X118.659 Y104.087 E7.08349
G1 X118.997 Y104.699 E7.10441
G1 X119.152 Y105.018 E7.11503
G1 X119.409 Y105.621 E7.13465
G1 X119.532 Y105.955 E7.14531
G1 X119.725 Y106.569 E7.16457
G1 X119.814 Y106.91 E7.17512
G1 X119.951 Y107.573 E7.19539
G1 X120.005 Y107.924 E7.20602
G1 X120.073 Y108.591 E7.22609
G1 X120.1 Y109.282 E7.24679
G1 X120.099 Y112.462 E7.34198
G1 X120.059 Y113.187 E7.36371
G1 X119.97 Y113.758 E7.38101
G1 X119.902 Y114.097 E7.39136
G1 X119.692 Y114.886 E7.4158
G1 X119.61 Y115.132 E7.42356
G1 X119.257 Y115.987 E7.45125
G1 X119.14 Y116.222 E7.45911
G1 X118.724 Y116.941 E7.48398
G1 X118.578 Y117.16 E7.49186
G1 X118.048 Y117.851 E7.51792
G1 X117.877 Y118.046 E7.52569
G1 X117.283 Y118.642 E7.55088
G1 X117.087 Y118.815 E7.5587
G1 X116.374 Y119.362 E7.5856
G1 X116.156 Y119.507 E7.59344
G1 X115.443 Y119.92 E7.6181
G1 X115.206 Y120.038 E7.62603
G1 X114.359 Y120.389 E7.65347
G1 X114.114 Y120.471 E7.66121
G1 X113.318 Y120.683 E7.68587
G1 X113.059 Y120.735 E7.69377
G1 X112.191 Y120.85 E7.71998
G1 X111.931 Y120.867 E7.72778
G1 X111.498 Y120.881 E7.74075
G1 X108.319 Y120.88 E7.83591
G1 X107.594 Y120.84 E7.85765
G1 X107.027 Y120.752 E7.87482
G1 X106.687 Y120.684 E7.8852
G1 X105.886 Y120.471 E7.91001
G1 X105.641 Y120.389 E7.91775
G1 X104.794 Y120.038 E7.94519
G1 X104.557 Y119.92 E7.95312
G1 X103.844 Y119.507 E7.97778
G1 X103.626 Y119.362 E7.98562
G1 X102.913 Y118.815 E8.01252
G1 X102.717 Y118.642 E8.02035
G1 X102.123 Y118.046 E8.04553
G1 X101.952 Y117.851 E8.0533
G1 X101.422 Y117.16 E8.07937
G1 X101.276 Y116.941 E8.08724
G1 X100.86 Y116.222 E8.11211
G1 X100.743 Y115.987 E8.11997
G1 X100.39 Y115.132 E8.14766
G1 X100.308 Y114.886 E8.15542
G1 X100.099 Y114.103 E8.17968
G1 X100.047 Y113.845 E8.18756
G1 X99.931 Y112.973 E8.21389
G1 X99.914 Y112.714 E8.22166
G1 X99.9 Y112.282 E8.2346
G1 X99.9 Y109.281 E8.32443
G1 X99.927 Y108.592 E8.34507
G1 X99.994 Y107.93 E8.36499
G1 X100.048 Y107.577 E8.37568
G1 X100.186 Y106.908 E8.39612
G1 X100.275 Y106.567 E8.40667
G1 X100.472 Y105.941 E8.42632
G1 X100.595 Y105.609 E8.43692
G1 X100.848 Y105.018 E8.45616
G1 X101.003 Y104.699 E8.46678
G1 X101.341 Y104.087 E8.48771
G1 X101.529 Y103.786 E8.49833
G1 X101.91 Y103.239 E8.51828
G1 X102.127 Y102.959 E8.52889
G1 X102.559 Y102.457 E8.54871
G1 X102.805 Y102.198 E8.5594
M204 S2000
G0 F7500 X103.095 Y102.473
M204 S500
G1 F1500 X103.551 Y102.039 E8.57825
G1 X103.82 Y101.808 E8.58886
G1 X104.331 Y101.414 E8.60818
G1 X104.62 Y101.214 E8.6187
G1 X105.136 Y100.893 E8.63689
G1 X105.449 Y100.719 E8.64761
G1 X106.01 Y100.443 E8.66632
G1 X106.333 Y100.304 E8.67685
G1 X106.95 Y100.077 E8.69653
G1 X107.289 Y99.972 E8.70715
G1 X107.854 Y99.825 E8.72463
G1 X108.203 Y99.752 E8.7353
G1 X108.843 Y99.653 E8.75469
G1 X109.196 Y99.617 E8.76531
G1 X109.825 Y99.585 E8.78416
G1 X110.177 Y99.585 E8.7947
G1 X110.806 Y99.617 E8.81355
G1 X111.159 Y99.653 E8.82417
G1 X111.799 Y99.752 E8.84356
G1 X112.148 Y99.825 E8.85423
G1 X112.713 Y99.972 E8.87171
G1 X113.052 Y100.077 E8.88233
G1 X113.669 Y100.304 E8.90201
G1 X113.992 Y100.443 E8.91254
G1 X114.561 Y100.723 E8.93152
G1 X114.873 Y100.897 E8.94221
G1 X115.378 Y101.212 E8.96003
G1 X115.663 Y101.409 E8.9704
G1 X116.183 Y101.81 E8.99006
G1 X116.456 Y102.045 E9.00084
G1 X116.906 Y102.474 E9.01945
G1 X117.152 Y102.733 E9.03014
G1 X117.559 Y103.208 E9.04887
G1 X117.775 Y103.487 E9.05943
G1 X118.132 Y103.998 E9.07809
G1 X118.32 Y104.299 E9.08871
G1 X118.638 Y104.873 E9.10836
G1 X118.793 Y105.192 E9.11897
G1 X119.034 Y105.759 E9.13741
G1 X119.157 Y106.093 E9.14807
G1 X119.338 Y106.67 E9.16617
G1 X119.427 Y107.011 E9.17672
G1 X119.556 Y107.634 E9.19576
G1 X119.61 Y107.985 E9.2064
G1 X119.674 Y108.611 E9.22523
G1 X119.7 Y109.282 E9.24533
G1 X119.699 Y112.462 E9.34052
G1 X119.659 Y113.165 E9.3616
G1 X119.578 Y113.679 E9.37718
G1 X119.51 Y114.018 E9.38753
G1 X119.313 Y114.76 E9.41051
G1 X119.231 Y115.006 E9.41827
G1 X118.899 Y115.808 E9.44425
G1 X118.782 Y116.043 E9.45211
G1 X118.391 Y116.719 E9.47549
G1 X118.245 Y116.938 E9.48337
G1 X117.748 Y117.587 E9.50784
