;FLAVOR:Marlin
;TIME:11721
;Filament used: 8.23216m
;Layer height: 0.2
;MINX:12.883
;MINY:7.707
;MINZ:0.2
;MAXX:217.469
;MAXY:212.306
;MAXZ:15.2
;Generated with Cura_SteamEngine 5.2.2
M82 ;absolute extrusion mode
; Ender 3 S1 Start G-code
G92 E0 ; Reset Extruder
G28 ; Home all axes
M420 S1 ;Use bed leveling data
G1 Z10.0 F3000 ; Move Z Axis up little to prevent scratching of Heat Bed
G1 X0 Y0

M104 S210.0
M190 S0
M109 S210.0

G1 X0.1 Y20 Z0.3 F5000.0 ; Move to start position
G1 X0.1 Y200.0 Z0.3 F1500.0 E15 ; Draw the first line
G1 X0.4 Y200.0 Z0.3 F5000.0 ; Move to side a little
G1 X0.4 Y20 Z0.3 F1500.0 E30 ; Draw the second line
G92 E0 ; Reset Extruder
G1 Z2.0 F3000 ; Move Z Axis up little to prevent scratching of Heat Bed
G1 X5 Y20 Z0.3 F5000.0 ; Move over to prevent blob squish
G92 E0
G92 E0
G1 F2400 E-1
;LAYER_COUNT:75
;LAYER:0
M107
M204 S2000
G1 F300 Z0.4
G0 F7500 X19.375 Y27.612 Z0.4
M204 S500
;TYPE:SKIRT
G1 F300 Z0.2
G1 F2400 E0
G1 F1500 X32.768 Y14.221 E0.56693
G1 X33.402 Y13.608 E0.59333
G1 X33.859 Y13.19 E0.61186
G1 X34.386 Y12.735 E0.63271
G1 X35.103 Y12.138 E0.66063
G1 X36.077 Y11.416 E0.69693
G1 X36.745 Y10.987 E0.72069
G1 X37.796 Y10.355 E0.7574
G1 X38.62 Y9.907 E0.78548
G1 X39.138 Y9.669 E0.80254
G1 X40.184 Y9.225 E0.83656
G1 X40.853 Y8.959 E0.85811
G1 X42.067 Y8.557 E0.89639
G1 X42.805 Y8.365 E0.91922
G1 X43.954 Y8.099 E0.95452
G1 X45.288 Y7.876 E0.99501
G1 X46.063 Y7.802 E1.01831
G1 X47.242 Y7.72 E1.05369
G1 X48.561 Y7.707 E1.09317
G1 X49.159 Y7.741 E1.1111
G1 X49.709 Y7.783 E1.12761
G1 X50.604 Y7.866 E1.15452
G1 X51.802 Y8.046 E1.19078
G1 X52.517 Y8.203 E1.2127
G1 X53.73 Y8.504 E1.25011
G1 X54.962 Y8.888 E1.28874
G1 X55.667 Y9.163 E1.31139
G1 X56.829 Y9.655 E1.34916
G1 X57.676 Y10.057 E1.37723
G1 X58.172 Y10.335 E1.39425
G1 X59.126 Y10.908 E1.42756
G1 X59.758 Y11.308 E1.44995
G1 X60.755 Y12.021 E1.48664
G1 X61.242 Y12.417 E1.50543
G1 X61.809 Y12.902 E1.52776
G1 X62.509 Y13.524 E1.55579
G1 X62.979 Y13.967 E1.57513
G1 X76.474 Y27.457 E2.14631
G1 X77.201 Y28.207 E2.17758
G1 X77.621 Y28.666 E2.1962
G1 X78.228 Y29.372 E2.22407
G1 X78.683 Y29.92 E2.24539
G1 X79.403 Y30.891 E2.28158
G1 X79.82 Y31.54 E2.30467
G1 X80.462 Y32.604 E2.34187
G1 X81.1 Y33.828 E2.38318
G1 X81.398 Y34.516 E2.40563
G1 X81.856 Y35.651 E2.44227
G1 X82.092 Y36.292 E2.46271
G1 X82.417 Y37.271 E2.49359
G1 X82.664 Y38.047 E2.51797
G1 X83.495 Y40.428 E2.59346
G1 X84.383 Y42.757 E2.66807
G1 X85.348 Y45.087 E2.74356
G1 X86.39 Y47.416 E2.81994
G1 X87.461 Y49.636 E2.89372
G1 X88.637 Y51.912 E2.97041
G1 X89.844 Y54.09 E3.04495
G1 X91.129 Y56.262 E3.12049
G1 X92.467 Y58.387 E3.19566
G1 X93.878 Y60.491 E3.27149
G1 X95.333 Y62.533 E3.34655
G1 X96.839 Y64.525 E3.4213
G1 X98.434 Y66.519 E3.49773
G1 X100.034 Y68.405 E3.57177
G1 X101.713 Y70.272 E3.64693
G1 X104.259 Y72.921 E3.75691
G1 X152.293 Y120.953 E5.7903
G1 X154.184 Y122.791 E5.86924
G1 X156.006 Y124.466 E5.94333
G1 X157.952 Y126.155 E6.02046
G1 X159.845 Y127.705 E6.0937
G1 X161.864 Y129.266 E6.17009
G1 X163.916 Y130.761 E6.24609
G1 X165.988 Y132.184 E6.32133
G1 X168.084 Y133.537 E6.39601
G1 X170.237 Y134.842 E6.47137
G1 X172.412 Y136.077 E6.54624
G1 X174.66 Y137.272 E6.62245
G1 X176.92 Y138.392 E6.69796
G1 X179.18 Y139.434 E6.77245
G1 X181.514 Y140.43 E6.84841
G1 X183.869 Y141.358 E6.92418
G1 X186.208 Y142.203 E6.99863
G1 X188.879 Y143.084 E7.08282
G1 X189.38 Y143.263 E7.09874
G1 X190.136 Y143.561 E7.12307
G1 X191.198 Y144.013 E7.15762
G1 X192.417 Y144.623 E7.19842
G1 X193.096 Y145.025 E7.22204
G1 X194.061 Y145.629 E7.25612
G1 X195.105 Y146.371 E7.29446
G1 X195.592 Y146.767 E7.31325
G1 X196.159 Y147.252 E7.33559
G1 X196.859 Y147.874 E7.36362
G1 X197.329 Y148.318 E7.38297
G1 X210.942 Y161.928 E7.95919
G1 X211.529 Y162.533 E7.98442
G1 X211.948 Y162.99 E8.00298
G1 X212.402 Y163.514 E8.02374
G1 X213.034 Y164.271 E8.05326
G1 X213.784 Y165.285 E8.09101
G1 X214.099 Y165.774 E8.10842
G1 X214.407 Y166.274 E8.126
G1 X214.866 Y167.049 E8.15296
G1 X215.411 Y168.099 E8.18837
G1 X215.732 Y168.828 E8.21222
G1 X216.187 Y169.95 E8.24846
G1 X216.608 Y171.198 E8.28789
G1 X216.795 Y171.914 E8.31004
G1 X217.075 Y173.119 E8.34707
G1 X217.3 Y174.462 E8.38783
G1 X217.374 Y175.233 E8.41102
G1 X217.456 Y176.406 E8.44622
G1 X217.469 Y177.719 E8.48552
G1 X217.435 Y178.333 E8.50393
G1 X217.377 Y179.072 E8.52612
G1 X217.312 Y179.765 E8.54695
G1 X217.131 Y180.97 E8.58343
G1 X216.974 Y181.689 E8.60546
G1 X216.674 Y182.899 E8.64278
G1 X216.291 Y184.129 E8.68134
G1 X216.013 Y184.841 E8.70422
G1 X215.521 Y186.003 E8.74199
G1 X214.937 Y187.182 E8.78138
G1 X214.558 Y187.829 E8.80382
G1 X213.909 Y188.87 E8.84054
G1 X213.164 Y189.922 E8.87913
G1 X212.755 Y190.423 E8.89849
G1 X212.225 Y191.04 E8.92284
G1 X211.664 Y191.67 E8.94809
G1 X211.229 Y192.132 E8.96709
G1 X197.718 Y205.648 E9.53916
G1 X196.95 Y206.392 E9.57116
G1 X196.493 Y206.81 E9.5897
G1 X195.966 Y207.265 E9.61054
G1 X195.248 Y207.863 E9.63851
G1 X194.26 Y208.593 E9.67529
G1 X193.631 Y208.997 E9.69766
G1 X192.588 Y209.627 E9.73414
G1 X191.4 Y210.249 E9.77428
G1 X190.664 Y210.57 E9.79832
G1 X189.555 Y211.018 E9.83412
G1 X188.307 Y211.437 E9.87353
G1 X187.593 Y211.623 E9.89561
G1 X186.408 Y211.898 E9.93203
G1 X185.121 Y212.117 E9.97111
G1 X184.38 Y212.19 E9.99339
G1 X183.125 Y212.279 E10.03106
G1 X182.188 Y212.306 E10.05912
G1 X181.612 Y212.282 E10.07637
G1 X180.444 Y212.2 E10.11142
G1 X179.747 Y212.134 E10.13238
G1 X178.548 Y211.953 E10.16868
G1 X177.75 Y211.779 E10.19313
G1 X176.606 Y211.493 E10.22843
G1 X175.397 Y211.115 E10.26634
G1 X174.685 Y210.837 E10.28922
G1 X173.523 Y210.345 E10.327
G1 X172.285 Y209.727 E10.36842
G1 X171.609 Y209.327 E10.39193
G1 X170.645 Y208.724 E10.42596
G1 X169.593 Y207.977 E10.46459
G1 X169.11 Y207.583 E10.48325
G1 X168.543 Y207.098 E10.50558
G1 X167.843 Y206.476 E10.53361
G1 X167.373 Y206.032 E10.55297
G1 X153.878 Y192.541 E11.12417
G1 X153.131 Y191.771 E11.15628
G1 X152.708 Y191.308 E11.17505
G1 X152.12 Y190.623 E11.20208
G1 X151.663 Y190.072 E11.22351
G1 X150.947 Y189.105 E11.25952
G1 X150.573 Y188.528 E11.28011
G1 X150.18 Y187.884 E11.30269
G1 X149.825 Y187.282 E11.32361
G1 X149.383 Y186.454 E11.35171
G1 X149.18 Y186.006 E11.36643
G1 X148.834 Y185.194 E11.39285
G1 X148.473 Y184.292 E11.42193
G1 X148.261 Y183.707 E11.44056
G1 X147.927 Y182.7 E11.47232
G1 X147.7 Y181.987 E11.49472
G1 X146.875 Y179.621 E11.56972
G1 X145.972 Y177.251 E11.64564
G1 X145.019 Y174.948 E11.72025
G1 X143.978 Y172.619 E11.79661
G1 X142.9 Y170.38 E11.871
G1 X141.753 Y168.163 E11.94572
G1 X140.505 Y165.905 E12.02295
G1 X139.246 Y163.777 E12.09696
G1 X137.894 Y161.628 E12.17296
G1 X136.506 Y159.555 E12.24764
G1 X135.031 Y157.483 E12.32377
G1 X133.521 Y155.484 E12.39876
G1 X131.968 Y153.543 E12.47317
G1 X130.314 Y151.593 E12.54972
G1 X128.65 Y149.739 E12.62429
G1 X126.113 Y147.099 E12.73389
G1 X78.062 Y99.049 E14.76802
G1 X76.186 Y97.226 E14.84633
G1 X74.317 Y95.509 E14.9223
G1 X72.434 Y93.875 E14.99693
G1 X70.464 Y92.261 E15.07316
G1 X68.503 Y90.745 E15.14736
G1 X66.458 Y89.255 E15.2231
G1 X64.355 Y87.812 E15.29945
G1 X62.261 Y86.459 E15.37407
G1 X60.119 Y85.161 E15.44905
G1 X57.937 Y83.921 E15.52417
G1 X55.69 Y82.727 E15.60034
G1 X53.452 Y81.618 E15.67511
G1 X51.156 Y80.56 E15.75078
G1 X48.812 Y79.56 E15.82707
G1 X46.508 Y78.651 E15.90121
G1 X44.147 Y77.797 E15.97636
G1 X41.502 Y76.926 E16.05972
G1 X40.751 Y76.654 E16.08363
G1 X40.335 Y76.487 E16.09705
G1 X39.173 Y75.995 E16.13482
G1 X37.935 Y75.377 E16.17624
G1 X37.259 Y74.977 E16.19975
G1 X36.295 Y74.374 E16.23379
G1 X35.243 Y73.627 E16.27241
G1 X34.76 Y73.233 E16.29107
G1 X34.193 Y72.748 E16.31341
G1 X33.493 Y72.126 E16.34144
G1 X33.023 Y71.682 E16.36079
G1 X19.528 Y58.191 E16.93199
G1 X18.781 Y57.421 E16.96411
G1 X18.358 Y56.958 E16.98288
G1 X17.77 Y56.273 E17.0099
G1 X17.313 Y55.722 E17.03133
G1 X16.597 Y54.755 E17.06735
G1 X16.223 Y54.178 E17.08793
G1 X15.83 Y53.534 E17.11052
G1 X15.475 Y52.932 E17.13144
G1 X14.899 Y51.814 E17.16908
G1 X14.607 Y51.141 E17.19104
G1 X14.159 Y50.033 E17.22682
G1 X13.731 Y48.753 E17.26722
G1 X13.54 Y48.015 E17.29004
G1 X13.274 Y46.863 E17.32543
G1 X13.053 Y45.544 E17.36546
G1 X12.978 Y44.765 E17.38889
G1 X12.896 Y43.589 E17.42418
G1 X12.883 Y42.273 E17.46357
G1 X12.917 Y41.667 E17.48174
G1 X12.959 Y41.117 E17.49825
G1 X13.04 Y40.237 E17.52471
G1 X13.234 Y38.965 E17.56322
G1 X13.396 Y38.233 E17.58567
G1 X13.681 Y37.089 E17.62096
G1 X14.061 Y35.871 E17.65915
G1 X14.339 Y35.159 E17.68203
G1 X14.831 Y33.997 E17.7198
G1 X15.424 Y32.802 E17.75974
G1 X15.726 Y32.285 E17.77766
G1 X16.112 Y31.655 E17.79978
G1 X16.494 Y31.053 E17.82112
G1 X17.203 Y30.062 E17.85759
G1 X17.595 Y29.582 E17.87614
G1 X18.049 Y29.051 E17.89706
G1 X18.553 Y28.479 E17.91988
G1 X18.876 Y28.128 E17.93416
G1 X19.375 Y27.612 E17.95564
M204 S2000
G0 F7500 X19.511 Y28.044
M204 S500
G1 F1500 X33.046 Y14.509 E18.52862
G1 X33.68 Y13.896 E18.55502
G1 X34.121 Y13.493 E18.57291
G1 X34.807 Y12.903 E18.59999
G1 X35.359 Y12.445 E18.62146
G1 X36.297 Y11.75 E18.65641
G1 X36.951 Y11.33 E18.67967
G1 X38.002 Y10.698 E18.71638
G1 X38.811 Y10.258 E18.74395
G1 X39.295 Y10.036 E18.75989
G1 X40.078 Y9.701 E18.78538
G1 X41.001 Y9.331 E18.81515
G1 X42.17 Y8.943 E18.85202
G1 X42.895 Y8.755 E18.87444
G1 X44.044 Y8.489 E18.90974
G1 X45.33 Y8.274 E18.94877
G1 X46.091 Y8.201 E18.97166
G1 X47.27 Y8.119 E19.00704
G1 X48.541 Y8.107 E19.04508
G1 X49.128 Y8.14 E19.06268
G1 X49.869 Y8.198 E19.08493
G1 X50.567 Y8.264 E19.10592
G1 X51.721 Y8.438 E19.14085
G1 X52.421 Y8.591 E19.1623
G1 X53.634 Y8.892 E19.19971
G1 X54.821 Y9.262 E19.23693
G1 X55.511 Y9.531 E19.2591
G1 X56.673 Y10.023 E19.29687
G1 X57.504 Y10.418 E19.32441
G1 X57.967 Y10.679 E19.34032
G1 X58.912 Y11.246 E19.37331
G1 X59.544 Y11.646 E19.3957
G1 X60.505 Y12.333 E19.43106
G1 X60.983 Y12.722 E19.44951
G1 X61.543 Y13.201 E19.47157
G1 X62.243 Y13.823 E19.4996
G1 X62.696 Y14.25 E19.51824
G1 X76.191 Y27.74 E20.08942
G1 X76.913 Y28.485 E20.12047
G1 X77.318 Y28.927 E20.13842
G1 X77.787 Y29.47 E20.1599
G1 X78.375 Y30.176 E20.1874
G1 X79.069 Y31.112 E20.22228
G1 X79.478 Y31.747 E20.24489
G1 X80.12 Y32.811 E20.28209
G1 X80.734 Y33.99 E20.32188
G1 X81.027 Y34.665 E20.34391
G1 X81.485 Y35.8 E20.38054
G1 X81.712 Y36.419 E20.40028
G1 X82.036 Y37.393 E20.43101
G1 X82.288 Y38.185 E20.45588
G1 X83.115 Y40.554 E20.531
G1 X84.015 Y42.916 E20.60666
G1 X84.977 Y45.238 E20.68189
G1 X86.017 Y47.561 E20.75808
G1 X87.117 Y49.843 E20.83391
G1 X88.283 Y52.098 E20.90991
G1 X89.492 Y54.281 E20.9846
G1 X90.78 Y56.458 E21.06032
G1 X92.14 Y58.617 E21.1367
G1 X93.553 Y60.724 E21.21264
G1 X95.004 Y62.761 E21.28751
G1 X96.523 Y64.771 E21.36292
G1 X98.133 Y66.782 E21.44004
G1 X99.732 Y68.667 E21.51403
G1 X101.438 Y70.565 E21.59042
G1 X103.946 Y73.174 E21.69875
G1 X151.978 Y121.204 E23.73206
G1 X153.918 Y123.091 E23.81307
G1 X155.754 Y124.778 E23.88771
G1 X157.665 Y126.435 E23.96342
G1 X159.632 Y128.046 E24.03953
G1 X161.629 Y129.59 E24.11509
G1 X163.652 Y131.064 E24.19002
G1 X165.775 Y132.522 E24.26711
G1 X167.865 Y133.872 E24.34159
G1 X170.038 Y135.189 E24.41765
G1 X172.248 Y136.444 E24.49373
G1 X174.474 Y137.627 E24.56919
G1 X176.711 Y138.736 E24.64393
G1 X179.035 Y139.807 E24.72053
G1 X181.359 Y140.799 E24.79617
G1 X183.723 Y141.73 E24.87222
G1 X186.084 Y142.584 E24.94738
G1 X188.754 Y143.464 E25.03153
G1 X189.237 Y143.636 E25.04688
G1 X189.979 Y143.929 E25.07076
G1 X191.041 Y144.381 E25.10531
G1 X192.216 Y144.969 E25.14464
G1 X192.884 Y145.364 E25.16787
G1 X193.849 Y145.968 E25.20195
G1 X194.855 Y146.683 E25.23889
G1 X195.333 Y147.072 E25.25734
G1 X195.893 Y147.551 E25.2794
G1 X196.593 Y148.173 E25.30743
G1 X197.046 Y148.601 E25.32608
G1 X210.655 Y162.207 E25.90213
G1 X211.242 Y162.812 E25.92737
G1 X211.645 Y163.252 E25.94523
G1 X212.237 Y163.938 E25.97235
G1 X212.727 Y164.527 E25.99529
G1 X213.449 Y165.504 E26.03165
G1 X213.758 Y165.984 E26.04874
G1 X214.172 Y166.66 E26.07247
G1 X214.521 Y167.252 E26.09304
G1 X215.047 Y168.264 E26.12718
G1 X215.361 Y168.979 E26.15056
G1 X215.816 Y170.101 E26.1868
G1 X216.222 Y171.303 E26.22478
G1 X216.405 Y172.005 E26.24649
G1 X216.685 Y173.21 E26.28352
G1 X216.902 Y174.504 E26.3228
G1 X216.975 Y175.261 E26.34557
G1 X217.057 Y176.434 E26.38076
G1 X217.07 Y177.699 E26.41863
G1 X217.036 Y178.302 E26.43671
G1 X216.979 Y179.035 E26.45872
G1 X216.914 Y179.728 E26.47955
G1 X216.739 Y180.889 E26.5147
G1 X216.585 Y181.593 E26.53627
G1 X216.285 Y182.803 E26.57359
G1 X215.917 Y183.988 E26.61073
G1 X215.645 Y184.685 E26.63313
G1 X215.153 Y185.847 E26.6709
G1 X214.59 Y186.983 E26.70885
G1 X214.218 Y187.617 E26.73086
G1 X213.569 Y188.658 E26.76758
G1 X212.851 Y189.672 E26.80477
G1 X212.451 Y190.163 E26.82373
G1 X212.071 Y190.608 E26.84125
G1 X211.365 Y191.404 E26.8731
G1 X210.946 Y191.849 E26.89139
G1 X197.435 Y205.365 E27.46346
G1 X196.672 Y206.104 E27.49526
G1 X196.231 Y206.507 E27.51314
G1 X195.544 Y207.098 E27.54027
G1 X194.993 Y207.555 E27.5617
G1 X194.04 Y208.259 E27.59716
G1 X193.424 Y208.654 E27.61907
G1 X192.381 Y209.284 E27.65554
G1 X191.236 Y209.884 E27.69424
G1 X190.514 Y210.199 E27.71782
G1 X189.405 Y210.647 E27.75362
G1 X188.203 Y211.051 E27.79158
G1 X187.502 Y211.234 E27.81327
G1 X186.317 Y211.509 E27.84968
G1 X185.077 Y211.72 E27.88733
G1 X184.352 Y211.791 E27.90914
G1 X183.097 Y211.88 E27.9468
G1 X182.177 Y211.906 E27.97435
G1 X181.639 Y211.883 E27.99047
G1 X180.482 Y211.802 E28.02519
G1 X179.785 Y211.736 E28.04615
G1 X178.629 Y211.562 E28.08114
G1 X177.847 Y211.391 E28.1051
G1 X176.703 Y211.105 E28.1404
G1 X175.538 Y210.741 E28.17694
G1 X174.841 Y210.469 E28.19933
G1 X173.679 Y209.977 E28.23711
G1 X172.486 Y209.381 E28.27703
G1 X171.821 Y208.988 E28.30015
G1 X170.857 Y208.385 E28.33419
G1 X169.844 Y207.665 E28.37139
G1 X169.369 Y207.278 E28.38973
G1 X168.809 Y206.799 E28.41179
G1 X168.109 Y206.177 E28.43982
G1 X167.656 Y205.749 E28.45847
G1 X154.035 Y192.131 E29.03503
G1 X153.418 Y191.493 E29.0616
G1 X153.011 Y191.046 E29.07969
G1 X152.428 Y190.368 E29.10646
G1 X151.971 Y189.817 E29.12789
G1 X151.28 Y188.885 E29.16262
G1 X150.914 Y188.319 E29.1828
G1 X150.524 Y187.68 E29.20521
G1 X150.169 Y187.078 E29.22613
G1 X149.548 Y185.849 E29.26734
G1 X149.202 Y185.037 E29.29377
G1 X148.845 Y184.145 E29.32253
G1 X148.64 Y183.581 E29.34049
G1 X148.349 Y182.704 E29.36815
G1 X148.087 Y181.881 E29.394
G1 X147.255 Y179.495 E29.46964
G1 X146.34 Y177.093 E29.54659
G1 X145.383 Y174.781 E29.62149
G1 X144.359 Y172.49 E29.69661
G1 X143.251 Y170.188 E29.77308
G1 X142.086 Y167.936 E29.84898
G1 X140.872 Y165.741 E29.92406
G1 X139.57 Y163.539 E30.00064
G1 X138.248 Y161.438 E30.07494
G1 X136.819 Y159.306 E30.15177
G1 X135.36 Y157.255 E30.22712
G1 X133.837 Y155.238 E30.30277
G1 X132.269 Y153.28 E30.37786
G1 X130.6 Y151.312 E30.45511
G1 X128.967 Y149.492 E30.5283
G1 X126.38 Y146.8 E30.64006
G1 X78.341 Y98.762 E32.67369
G1 X76.453 Y96.927 E32.7525
G1 X74.604 Y95.228 E32.82766
G1 X72.665 Y93.547 E32.90448
G1 X70.734 Y91.963 E32.97924
G1 X68.738 Y90.42 E33.05476
G1 X66.681 Y88.923 E33.13092
G1 X64.594 Y87.489 E33.20672
G1 X62.48 Y86.124 E33.28204
G1 X60.303 Y84.805 E33.35824
G1 X58.143 Y83.578 E33.4326
G1 X55.849 Y82.358 E33.51037
G1 X53.632 Y81.26 E33.58443
G1 X51.331 Y80.2 E33.66027
G1 X48.98 Y79.196 E33.73679
G1 X46.642 Y78.274 E33.81202
G1 X44.271 Y77.417 E33.88749
G1 X41.627 Y76.546 E33.97082
G1 X40.892 Y76.279 E33.99423
G1 X40.491 Y76.119 E34.00715
G1 X39.329 Y75.627 E34.04492
G1 X38.136 Y75.031 E34.08484
G1 X37.471 Y74.638 E34.10797
G1 X36.507 Y74.035 E34.142
G1 X35.494 Y73.315 E34.17921
G1 X35.019 Y72.928 E34.19755
G1 X34.459 Y72.449 E34.21961
G1 X33.759 Y71.827 E34.24764
G1 X33.306 Y71.399 E34.26629
G1 X19.685 Y57.781 E34.84285
G1 X19.068 Y57.143 E34.86942
G1 X18.661 Y56.696 E34.88751
G1 X18.078 Y56.018 E34.91428
G1 X17.621 Y55.467 E34.93571
G1 X16.93 Y54.535 E34.97044
G1 X16.564 Y53.969 E34.99062
G1 X16.174 Y53.33 E35.01302
G1 X15.819 Y52.728 E35.03394
G1 X15.265 Y51.652 E35.07017
G1 X14.978 Y50.991 E35.09174
G1 X14.53 Y49.883 E35.12752
G1 X14.117 Y48.65 E35.16644
G1 X13.93 Y47.925 E35.18886
G1 X13.664 Y46.773 E35.22425
G1 X13.451 Y45.502 E35.26282
G1 X13.377 Y44.737 E35.28583
