;FLAVOR:Marlin
;TIME:714
;Filament used: 0.221228m
;Layer height: 0.12
;MINX:86.768
;MINY:84.812
;MINZ:0.12
;MAXX:142.247
;MAXY:135.183
;MAXZ:5.04
;Generated with Cura_SteamEngine 5.4.0
M82 ;absolute extrusion mode
; Ender 3 S1 Start G-code
G92 E0 ; Reset Extruder
G28 ; Home all axes
M420 S1 ;Use bed leveling data
G1 Z10.0 F3000 ; Move Z Axis up little to prevent scratching of Heat Bed
G1 X0 Y0

M104 S200
M190 S60
M109 S200

G1 X0.1 Y20 Z0.3 F5000.0 ; Move to start position
G1 X0.1 Y200.0 Z0.3 F1500.0 E15 ; Draw the first line
G1 X0.4 Y200.0 Z0.3 F5000.0 ; Move to side a little
G1 X0.4 Y20 Z0.3 F1500.0 E30 ; Draw the second line
G92 E0 ; Reset Extruder
G1 Z2.0 F3000 ; Move Z Axis up little to prevent scratching of Heat Bed
G1 X5 Y20 Z0.3 F5000.0 ; Move over to prevent blob squish
G92 E0
G92 E0
G1 F2400 E-0.8
;LAYER_COUNT:42
;LAYER:0
M107
M204 S2000
G0 F7500 X90.401 Y90.853 Z0.12
M204 S500
;TYPE:SKIRT
G1 F2400 E0
G1 F1500 X91.051 Y90.209 E0.01826
G1 X93.682 Y87.756 E0.09004
G1 X94.369 Y87.17 E0.10806
G1 X95.222 Y86.565 E0.12893
G1 X96.063 Y86.075 E0.14836
G1 X96.88 Y85.69 E0.16638
G1 X97.862 Y85.33 E0.18725
G1 X98.803 Y85.079 E0.20669
G1 X99.77 Y84.912 E0.22627
G1 X100.921 Y84.825 E0.24931
G1 X101.553 Y84.812 E0.26192
G1 X102.456 Y84.833 E0.27995
G1 X102.991 Y84.88 E0.29066
G1 X105.85 Y85.201 E0.34808
G1 X108.402 Y85.416 E0.39919
G1 X110.866 Y85.551 E0.44843
G1 X113.339 Y85.617 E0.4978
G1 X117.451 Y85.581 E0.57986
G1 X118.619 Y85.638 E0.6032
G1 X118.909 Y85.668 E0.60902
G1 X119.872 Y85.813 E0.62845
G1 X120.82 Y86.043 E0.64792
G1 X121.758 Y86.361 E0.66768
G1 X122.042 Y86.472 E0.67377
G1 X122.932 Y86.869 E0.69322
G1 X123.722 Y87.306 E0.71123
G1 X124.854 Y88.095 E0.73877
G1 X125.449 Y88.581 E0.7541
G1 X127.921 Y90.726 E0.81942
G1 X128.472 Y91.221 E0.8342
G1 X129.16 Y91.91 E0.85363
G1 X129.767 Y92.634 E0.87248
G1 X130.464 Y93.658 E0.8972
G1 X131.515 Y95.406 E0.9379
G1 X132.89 Y97.572 E0.9891
G1 X134.299 Y99.655 E1.03929
G1 X135.782 Y101.722 E1.09006
G1 X137.273 Y103.678 E1.13914
G1 X138.792 Y105.57 E1.18756
G1 X139.208 Y106.125 E1.2014
G1 X139.594 Y106.677 E1.21484
G1 X140.333 Y107.897 E1.24331
G1 X140.626 Y108.464 E1.25604
G1 X141.09 Y109.487 E1.27846
G1 X141.291 Y110.002 E1.28949
G1 X141.714 Y111.337 E1.31744
G1 X141.863 Y111.941 E1.32985
G1 X142.036 Y112.798 E1.3473
G1 X142.097 Y113.18 E1.35502
G1 X142.204 Y114.142 E1.37434
G1 X142.242 Y114.76 E1.38669
G1 X142.247 Y115.982 E1.41108
G1 X142.209 Y116.678 E1.42499
G1 X142.081 Y117.815 E1.44782
G1 X142.002 Y118.286 E1.45735
G1 X141.824 Y119.14 E1.47476
G1 X141.74 Y119.472 E1.4816
G1 X141.512 Y120.243 E1.49764
G1 X141.359 Y120.701 E1.50728
G1 X141.058 Y121.492 E1.52417
G1 X140.674 Y122.34 E1.54274
G1 X140.445 Y122.794 E1.55289
G1 X139.93 Y123.705 E1.57378
G1 X139.71 Y124.053 E1.58199
G1 X139.265 Y124.7 E1.59766
G1 X139.048 Y124.992 E1.60492
G1 X138.595 Y125.562 E1.61945
G1 X138.34 Y125.86 E1.62728
G1 X137.712 Y126.532 E1.64563
G1 X137.291 Y126.946 E1.65742
G1 X136.599 Y127.569 E1.676
G1 X136.144 Y127.924 E1.68752
G1 X135.613 Y128.318 E1.70071
G1 X134.701 Y128.921 E1.72253
G1 X134.254 Y129.183 E1.73287
G1 X133.458 Y129.607 E1.75087
G1 X133.141 Y129.759 E1.75788
G1 X132.304 Y130.119 E1.77607
G1 X131.862 Y130.286 E1.78549
G1 X131.193 Y130.515 E1.79961
G1 X130.167 Y130.831 E1.82103
G1 X127.686 Y131.631 E1.87305
G1 X125.297 Y132.474 E1.92361
G1 X122.871 Y133.41 E1.9755
G1 X122.261 Y133.628 E1.98843
G1 X121.34 Y133.902 E2.0076
G1 X120.9 Y134.012 E2.01665
G1 X119.788 Y134.226 E2.03925
G1 X119.218 Y134.303 E2.05073
G1 X117.975 Y134.395 E2.0756
G1 X117.341 Y134.399 E2.08826
G1 X115.038 Y134.355 E2.13422
G1 X112.505 Y134.379 E2.18477
G1 X109.974 Y134.474 E2.23532
G1 X107.478 Y134.638 E2.28524
G1 X104.941 Y134.878 E2.33609
G1 X102.986 Y135.108 E2.37537
G1 X101.527 Y135.183 E2.40453
G1 X100.971 Y135.173 E2.41563
G1 X99.999 Y135.113 E2.43506
G1 X99.036 Y134.966 E2.4545
G1 X98.09 Y134.734 E2.47394
G1 X97.201 Y134.432 E2.49267
G1 X96.278 Y134.024 E2.51281
G1 X95.427 Y133.553 E2.53222
G1 X94.677 Y133.05 E2.55024
G1 X93.706 Y132.25 E2.57535
G1 X92.903 Y131.505 E2.59721
G1 X92.225 Y130.858 E2.61591
G1 X91.063 Y129.778 E2.64757
G1 X90.251 Y128.97 E2.67043
G1 X89.738 Y128.429 E2.68531
G1 X89.127 Y127.716 E2.70405
G1 X88.54 Y126.893 E2.72422
G1 X88.082 Y126.115 E2.74224
G1 X87.635 Y125.17 E2.7631
G1 X87.299 Y124.256 E2.78253
G1 X87.045 Y123.315 E2.80198
G1 X86.886 Y122.426 E2.82001
G1 X86.784 Y121.103 E2.84649
G1 X86.77 Y120.052 E2.86746
G1 X86.78 Y118.4 E2.90043
G1 X86.808 Y117.715 E2.91411
G1 X86.923 Y116.102 E2.94638
G1 X87.059 Y113.566 E2.99706
G1 X87.126 Y110.99 E3.04849
G1 X87.119 Y108.478 E3.09862
G1 X87.041 Y105.969 E3.14871
G1 X86.88 Y103.259 E3.20289
G1 X86.81 Y102.338 E3.22132
G1 X86.783 Y101.722 E3.23363
G1 X86.768 Y100.623 E3.25556
G1 X86.78 Y98.961 E3.28873
G1 X86.832 Y97.989 E3.30815
G1 X86.97 Y97.025 E3.32759
G1 X87.193 Y96.078 E3.347
G1 X87.497 Y95.152 E3.36645
G1 X87.853 Y94.322 E3.38447
G1 X88.349 Y93.401 E3.40535
G1 X88.87 Y92.613 E3.4242
G1 X89.717 Y91.581 E3.45084
G1 X90.401 Y90.853 E3.47078
M204 S2000
G0 F7500 X90.693 Y91.127
M204 S500
G1 F1500 X91.324 Y90.502 E3.4885
G1 X93.942 Y88.06 E3.55995
G1 X94.629 Y87.474 E3.57797
G1 X95.424 Y86.91 E3.59742
G1 X96.234 Y86.437 E3.61614
G1 X97.051 Y86.052 E3.63416
G1 X97.966 Y85.716 E3.65361
G1 X98.872 Y85.473 E3.67233
G1 X99.8 Y85.311 E3.69113
G1 X100.929 Y85.225 E3.71373
G1 X101.544 Y85.212 E3.726
G1 X102.447 Y85.233 E3.74403
G1 X102.946 Y85.277 E3.75403
G1 X105.817 Y85.6 E3.81168
G1 X108.369 Y85.814 E3.86279
G1 X110.855 Y85.951 E3.91247
G1 X113.332 Y86.017 E3.96192
G1 X117.432 Y85.981 E4.04375
G1 X118.578 Y86.036 E4.06664
G1 X118.85 Y86.064 E4.0721
G1 X119.778 Y86.202 E4.09082
G1 X120.692 Y86.422 E4.10958
G1 X121.612 Y86.733 E4.12896
G1 X121.88 Y86.838 E4.13471
G1 X122.738 Y87.219 E4.15344
G1 X123.528 Y87.656 E4.17146
G1 X124.601 Y88.405 E4.19757
G1 X125.186 Y88.883 E4.21265
G1 X127.09 Y90.543 E4.26306
G1 X127.654 Y91.024 E4.27785
G1 X128.189 Y91.504 E4.29219
G1 X128.853 Y92.167 E4.31092
G1 X129.46 Y92.891 E4.32977
G1 X130.121 Y93.864 E4.35325
G1 X131.177 Y95.62 E4.39414
G1 X132.552 Y97.786 E4.44534
G1 X133.974 Y99.888 E4.49598
G1 X135.462 Y101.962 E4.54692
G1 X136.961 Y103.929 E4.59627
G1 X138.472 Y105.81 E4.64442
G1 X138.88 Y106.354 E4.65799
G1 X139.266 Y106.906 E4.67143
G1 X139.978 Y108.081 E4.69885
G1 X140.262 Y108.629 E4.71117
G1 X140.717 Y109.632 E4.73315
G1 X140.918 Y110.147 E4.74418
G1 X141.333 Y111.458 E4.77162
G1 X141.471 Y112.02 E4.78317
G1 X141.641 Y112.861 E4.80029
G1 X141.699 Y113.224 E4.80763
G1 X141.806 Y114.186 E4.82695
G1 X141.842 Y114.762 E4.83846
G1 X141.847 Y115.984 E4.86285
G1 X141.811 Y116.633 E4.87582
G1 X141.686 Y117.749 E4.89823
G1 X141.61 Y118.205 E4.90746
G1 X141.436 Y119.042 E4.92452
G1 X141.356 Y119.359 E4.93104
G1 X141.133 Y120.116 E4.94679
G1 X140.985 Y120.559 E4.95611
G1 X140.684 Y121.35 E4.973
G1 X140.317 Y122.16 E4.99075
G1 X140.097 Y122.597 E5.00051
G1 X139.592 Y123.491 E5.021
G1 X139.38 Y123.826 E5.02891
G1 X138.943 Y124.462 E5.04431
G1 X138.735 Y124.743 E5.05129
G1 X138.291 Y125.302 E5.06553
G1 X138.048 Y125.587 E5.07301
G1 X137.432 Y126.247 E5.09103
G1 X137.023 Y126.649 E5.10247
G1 X136.352 Y127.254 E5.1205
G1 X135.906 Y127.603 E5.1318
G1 X135.392 Y127.984 E5.14457
G1 X134.48 Y128.587 E5.16639
G1 X134.066 Y128.83 E5.17597
G1 X133.285 Y129.246 E5.19363
G1 X132.968 Y129.398 E5.20064
G1 X132.162 Y129.745 E5.21815
G1 X131.732 Y129.908 E5.22733
G1 X131.075 Y130.133 E5.24119
G1 X130.044 Y130.45 E5.26271
G1 X127.563 Y131.25 E5.31474
G1 X125.153 Y132.101 E5.36574
G1 X122.736 Y133.033 E5.41744
G1 X122.126 Y133.251 E5.43036
G1 X121.243 Y133.514 E5.44875
G1 X120.824 Y133.619 E5.45737
G1 X119.712 Y133.833 E5.47997
G1 X119.188 Y133.904 E5.49052
G1 X117.945 Y133.996 E5.51539
G1 X117.349 Y133.999 E5.52729
G1 X115.042 Y133.955 E5.57333
G1 X112.49 Y133.979 E5.62426
G1 X109.959 Y134.074 E5.67481
G1 X107.447 Y134.239 E5.72505
G1 X104.903 Y134.48 E5.77604
G1 X102.939 Y134.711 E5.81551
G1 X101.534 Y134.783 E5.84358
G1 X100.995 Y134.774 E5.85434
G1 X100.059 Y134.717 E5.87305
G1 X99.131 Y134.577 E5.89178
G1 X98.219 Y134.355 E5.91051
G1 X97.33 Y134.053 E5.92925
G1 X96.471 Y133.674 E5.94799
G1 X95.65 Y133.221 E5.9667
G1 X94.9 Y132.718 E5.98472
G1 X93.978 Y131.957 E6.00858
G1 X93.179 Y131.216 E6.03032
G1 X92.501 Y130.569 E6.04903
G1 X91.345 Y129.494 E6.08053
G1 X90.541 Y128.694 E6.10316
G1 X90.041 Y128.168 E6.11765
G1 X89.452 Y127.483 E6.13567
G1 X88.885 Y126.69 E6.15513
G1 X88.427 Y125.912 E6.17314
G1 X88.01 Y125.032 E6.19258
G1 X87.685 Y124.151 E6.21132
G1 X87.439 Y123.245 E6.23005
G1 X87.28 Y122.356 E6.24807
G1 X87.184 Y121.098 E6.27325
G1 X87.17 Y120.054 E6.29409
G1 X87.18 Y118.416 E6.32678
G1 X87.207 Y117.743 E6.34022
G1 X87.322 Y116.13 E6.37249
G1 X87.459 Y113.576 E6.42353
G1 X87.526 Y111 E6.47495
G1 X87.519 Y108.477 E6.5253
G1 X87.441 Y105.957 E6.57562
G1 X87.279 Y103.235 E6.63003
G1 X87.21 Y102.32 E6.64835
G1 X87.183 Y101.717 E6.66039
G1 X87.168 Y100.626 E6.68217
G1 X87.179 Y98.982 E6.71497
G1 X87.228 Y98.045 E6.7337
G1 X87.359 Y97.116 E6.75242
G1 X87.573 Y96.202 E6.77115
G1 X87.865 Y95.31 E6.78988
G1 X88.221 Y94.48 E6.80791
G1 X88.683 Y93.622 E6.82735
G1 X89.204 Y92.834 E6.84621
G1 X90.009 Y91.855 E6.8715
G1 X90.693 Y91.127 E6.89143
M204 S2000
G0 F7500 X90.975 Y91.411
M204 S500
G1 F1500 X91.597 Y90.794 E6.90892
G1 X94.202 Y88.364 E6.98001
G1 X94.889 Y87.778 E6.99803
G1 X95.626 Y87.255 E7.01606
G1 X96.405 Y86.799 E7.03408
G1 X97.222 Y86.414 E7.0521
G1 X98.07 Y86.102 E7.07013
G1 X98.942 Y85.867 E7.08816
G1 X99.831 Y85.71 E7.10617
G1 X100.938 Y85.625 E7.12833
G1 X101.535 Y85.612 E7.14024
G1 X102.438 Y85.633 E7.15827
G1 X102.901 Y85.674 E7.16755
G1 X105.784 Y85.999 E7.22544
G1 X108.336 Y86.212 E7.27655
G1 X110.844 Y86.351 E7.32667
G1 X113.325 Y86.417 E7.3762
G1 X117.413 Y86.381 E7.45779
G1 X118.537 Y86.434 E7.48024
G1 X118.792 Y86.46 E7.48536
G1 X119.685 Y86.591 E7.50337
G1 X120.564 Y86.801 E7.5214
G1 X121.467 Y87.106 E7.54042
G1 X121.718 Y87.204 E7.5458
G1 X122.544 Y87.569 E7.56382
G1 X123.334 Y88.006 E7.58184
G1 X124.348 Y88.715 E7.60653
G1 X124.923 Y89.185 E7.62135
G1 X126.827 Y90.845 E7.67176
G1 X127.387 Y91.322 E7.68644
G1 X127.907 Y91.788 E7.70038
G1 X128.547 Y92.425 E7.7184
G1 X129.129 Y93.116 E7.73642
G1 X129.778 Y94.07 E7.75945
G1 X130.839 Y95.834 E7.80053
G1 X132.214 Y98 E7.85173
G1 X133.649 Y100.121 E7.90283
G1 X135.137 Y102.195 E7.95377
G1 X136.649 Y104.18 E8.00357
G1 X138.152 Y106.05 E8.05145
G1 X138.553 Y106.584 E8.06477
G1 X138.924 Y107.113 E8.07767
G1 X139.623 Y108.265 E8.10456
G1 X139.898 Y108.794 E8.11646
G1 X140.345 Y109.778 E8.13802
G1 X140.537 Y110.268 E8.14853
G1 X140.945 Y111.554 E8.17545
G1 X141.079 Y112.099 E8.18665
G1 X141.246 Y112.924 E8.20345
G1 X141.301 Y113.268 E8.2104
G1 X141.408 Y114.23 E8.22972
G1 X141.442 Y114.764 E8.24039
G1 X141.447 Y115.986 E8.26478
G1 X141.413 Y116.589 E8.27683
G1 X141.291 Y117.684 E8.29882
G1 X141.218 Y118.124 E8.30772
G1 X141.048 Y118.944 E8.32443
G1 X140.972 Y119.246 E8.33065
G1 X140.754 Y119.989 E8.3461
G1 X140.611 Y120.417 E8.35511
G1 X140.31 Y121.208 E8.37199
G1 X139.959 Y121.981 E8.38894
G1 X139.749 Y122.4 E8.39829
G1 X139.254 Y123.277 E8.41839
G1 X139.05 Y123.6 E8.42601
G1 X138.622 Y124.224 E8.44111
G1 X138.422 Y124.494 E8.44782
G1 X137.987 Y125.042 E8.46178
G1 X137.755 Y125.314 E8.46891
G1 X137.151 Y125.962 E8.48659
G1 X136.755 Y126.352 E8.49768
G1 X136.084 Y126.957 E8.51571
G1 X135.668 Y127.282 E8.52625
G1 X135.171 Y127.65 E8.53859
G1 X134.277 Y128.242 E8.55999
G1 X133.878 Y128.477 E8.56923
G1 X133.112 Y128.885 E8.58655
G1 X132.795 Y129.037 E8.59356
G1 X132.019 Y129.371 E8.61042
G1 X131.602 Y129.53 E8.61933
G1 X130.958 Y129.751 E8.63291
G1 X129.921 Y130.069 E8.65456
G1 X127.44 Y130.869 E8.70658
G1 X125.009 Y131.728 E8.75803
G1 X122.601 Y132.656 E8.80953
G1 X121.991 Y132.874 E8.82246
G1 X121.146 Y133.126 E8.84006
G1 X120.748 Y133.226 E8.84825
G1 X119.636 Y133.44 E8.87085
G1 X119.158 Y133.505 E8.88047
G1 X117.915 Y133.597 E8.90535
G1 X117.357 Y133.599 E8.91648
G1 X115.046 Y133.555 E8.96261
G1 X112.475 Y133.579 E9.01392
G1 X109.944 Y133.674 E9.06446
G1 X107.416 Y133.84 E9.11502
G1 X104.862 Y134.082 E9.16622
G1 X102.892 Y134.314 E9.2058
G1 X101.54 Y134.383 E9.23282
G1 X101.019 Y134.375 E9.24321
G1 X100.118 Y134.321 E9.26123
G1 X99.225 Y134.188 E9.27924
G1 X98.347 Y133.976 E9.29727
G1 X97.491 Y133.687 E9.3153
G1 X96.664 Y133.324 E9.33332
G1 X95.873 Y132.889 E9.35134
G1 X95.123 Y132.386 E9.36936
G1 X94.25 Y131.664 E9.39197
G1 X93.455 Y130.927 E9.4136
G1 X92.777 Y130.28 E9.4323
G1 X91.627 Y129.21 E9.46365
G1 X90.831 Y128.418 E9.48606
G1 X90.344 Y127.907 E9.50015
G1 X89.755 Y127.222 E9.51817
G1 X89.23 Y126.487 E9.5362
G1 X88.772 Y125.709 E9.55422
G1 X88.385 Y124.893 E9.57224
G1 X88.071 Y124.046 E9.59027
G1 X87.833 Y123.175 E9.60828
G1 X87.674 Y122.286 E9.62631
G1 X87.584 Y121.093 E9.65018
G1 X87.57 Y120.056 E9.67088
G1 X87.58 Y118.432 E9.70329
G1 X87.606 Y117.771 E9.71649
G1 X87.721 Y116.158 E9.74876
G1 X87.859 Y113.586 E9.80016
G1 X87.926 Y111.01 E9.85158
G1 X87.919 Y108.476 E9.90215
G1 X87.841 Y105.945 E9.95269
G1 X87.678 Y103.211 E10.00734
G1 X87.61 Y102.302 E10.02553
G1 X87.583 Y101.711 E10.03734
G1 X87.568 Y100.628 E10.05895
G1 X87.578 Y99.002 E10.0914
G1 X87.624 Y98.1 E10.10943
G1 X87.749 Y97.206 E10.12744
G1 X87.953 Y96.326 E10.14547
G1 X88.233 Y95.468 E10.16348
G1 X88.589 Y94.638 E10.1815
G1 X89.017 Y93.842 E10.19954
G1 X89.513 Y93.088 E10.21755
G1 X90.318 Y92.109 E10.24284
G1 X90.975 Y91.411 E10.26197
M204 S2000
G1 F2400 E9.46197
;MESH:Crank_Piston_x3.stl(2)
G0 F7500 X100.503 Y96.214
G0 X101.768 Y96.65
M204 S500
;TYPE:WALL-INNER
G1 F2400 E10.26197
G1 F1481.5 X101.772 Y98.024 E10.28973
M204 S2000
G0 F7500 X101.557 Y99.94
G0 X98.769 Y99.483
G0 X98.768 Y101.072
G0 X101.496 Y100.73
G0 X101.786 Y102.428
M204 S500
G1 F1435.4 X101.768 Y102.637 E10.29411
G1 F1500 X101.768 Y103.905 E10.31941
M204 S2000
G0 F7500 X101.929 Y102.561
G0 X102.091 Y102.108
G0 X102.26 Y101.854
G0 X102.657 Y101.496
G0 X102.967 Y101.023
G0 X114.863 Y101.364
M204 S500
G1 F1500 X114.721 Y100.844 E10.33017
G1 X114.671 Y100.406 E10.33897
G1 X114.685 Y99.958 E10.34791
G1 X114.757 Y99.557 E10.35604
G1 X114.892 Y99.164 E10.36434
G1 X114.474 Y99.432 E10.37424
G1 X114.09 Y99.605 E10.38265
G1 X113.58 Y99.741 E10.39318
G1 X113.141 Y99.777 E10.40197
G1 X103.248 Y99.773 E10.5994
G1 X102.761 Y99.696 E10.60924
G1 X102.163 Y99.383 E10.62271
G1 X102.061 Y99.282 E10.62557
G1 X101.926 Y99.498 E10.63066
G1 X101.746 Y99.662 E10.63551
G1 X101.502 Y99.788 E10.64099
G1 X101.168 Y99.845 E10.64776
G1 X99.378 Y99.84 E10.68348
G1 X98.77 Y99.496 E10.69742
G1 X98.769 Y101.096 E10.72935
G1 X98.85 Y101.013 E10.73166
G1 X99.383 Y100.714 E10.74386
G1 X101.168 Y100.711 E10.77948
G1 X101.502 Y100.768 E10.78624
G1 X101.746 Y100.894 E10.79172
G1 X101.975 Y101.118 E10.79812
G1 X102.053 Y101.284 E10.80178
G1 X102.419 Y100.984 E10.81122
G1 X103.084 Y100.777 E10.82512
G1 X113.142 Y100.779 E11.02584
G1 X113.46 Y100.801 E11.0322
G1 X113.913 Y100.898 E11.04144
G1 X114.393 Y101.072 E11.05163
G1 X114.863 Y101.364 E11.06267
M204 S2000
G0 F7500 X103.17 Y101.339
G0 X102.657 Y101.496
G0 X101.786 Y102.428
M204 S500
G1 F1405.2 X101.951 Y102.026 E11.07193
G1 F1452.8 X102.137 Y101.746 E11.07886
G1 F1485.1 X102.572 Y101.356 E11.09063
G1 F1500 X103.163 Y101.177 E11.10296
G1 X113.117 Y101.179 E11.3016
G1 X113.413 Y101.199 E11.30752
G1 X113.8 Y101.282 E11.31542
G1 X114.181 Y101.42 E11.3235
G1 X114.565 Y101.65 E11.33244
G1 X114.678 Y101.738 E11.3353
G1 F1321.6 X115.011 Y101.96 E11.34436
G1 F1188.1 X115.321 Y102.343 E11.35677
G1 F1195.2 X115.656 Y102.657 E11.36827
G1 F1192.8 X116.061 Y102.932 E11.38056
G1 F1195.2 X116.435 Y103.107 E11.3909
G1 F1200 X116.801 Y103.228 E11.40052
G1 X117.114 Y103.296 E11.40851
G1 F1197.6 X117.533 Y103.326 E11.41901
G1 F1202.4 X117.843 Y103.315 E11.42673
G1 X118.159 Y103.269 E11.43468
G1 F1200 X118.452 Y103.196 E11.44221
G1 F1197.6 X118.83 Y103.056 E11.45229
G1 X119.188 Y102.86 E11.46249
G1 F1204.8 X119.454 Y102.675 E11.47054
G1 X119.748 Y102.414 E11.4803
