;FLAVOR:Marlin
;TIME:707
;Filament used: 0.137939m
;Layer height: 0.12
;MINX:91.931
;MINY:95.319
;MINZ:0.12
;MAXX:128.054
;MAXY:124.685
;MAXZ:7.8
;Generated with Cura_SteamEngine 5.4.0
M82 ;absolute extrusion mode
; Ender 3 S1 Start G-code
G92 E0 ; Reset Extruder
G28 ; Home all axes
M420 S1 ;Use bed leveling data
G1 Z10.0 F3000 ; Move Z Axis up little to prevent scratching of Heat Bed
G1 X0 Y0

M104 S200
M190 S60
M109 S200

G1 X0.1 Y20 Z0.3 F5000.0 ; Move to start position
G1 X0.1 Y200.0 Z0.3 F1500.0 E15 ; Draw the first line
G1 X0.4 Y200.0 Z0.3 F5000.0 ; Move to side a little
G1 X0.4 Y20 Z0.3 F1500.0 E30 ; Draw the second line
G92 E0 ; Reset Extruder
G1 Z2.0 F3000 ; Move Z Axis up little to prevent scratching of Heat Bed
G1 X5 Y20 Z0.3 F5000.0 ; Move over to prevent blob squish
G92 E0
G92 E0
G1 F2400 E-0.8
;LAYER_COUNT:65
;LAYER:0
M107
M204 S2000
G0 F7500 X96.056 Y99.573 Z0.12
M204 S500
;TYPE:SKIRT
G1 F2400 E0
G1 F1500 X96.667 Y99.075 E0.01573
G1 X96.91 Y98.892 E0.0218
G1 X97.712 Y98.343 E0.0412
G1 X98.56 Y97.866 E0.06061
G1 X99.393 Y97.487 E0.07888
G1 X99.851 Y97.303 E0.08873
G1 X100.77 Y96.981 E0.10816
G1 X101.683 Y96.748 E0.12696
G1 X102.876 Y96.564 E0.15105
G1 X104.615 Y96.394 E0.18592
G1 X107.137 Y96.095 E0.2366
G1 X109.694 Y95.718 E0.28818
G1 X111.271 Y95.463 E0.32006
G1 X112.546 Y95.334 E0.34563
G1 X112.914 Y95.319 E0.35298
G1 X113.793 Y95.319 E0.37053
G1 X114.158 Y95.334 E0.37782
G1 X115.094 Y95.413 E0.39656
G1 X115.534 Y95.471 E0.40542
G1 X116.45 Y95.631 E0.42397
G1 X117.01 Y95.768 E0.43548
G1 X117.441 Y95.888 E0.44441
G1 X118.228 Y96.14 E0.4609
G1 X118.623 Y96.283 E0.46928
G1 X119.515 Y96.653 E0.48855
G1 X120.305 Y97.053 E0.50622
G1 X121.159 Y97.547 E0.52591
G1 X121.492 Y97.76 E0.5338
G1 X122.604 Y98.577 E0.56134
G1 X122.966 Y98.88 E0.57076
G1 X123.619 Y99.479 E0.58844
G1 X123.851 Y99.71 E0.59498
G1 X124.437 Y100.346 E0.61223
G1 X124.679 Y100.63 E0.61968
G1 X125.315 Y101.446 E0.64033
G1 X125.879 Y102.309 E0.6609
G1 X126.137 Y102.744 E0.67099
G1 X126.667 Y103.762 E0.6939
G1 X126.788 Y104.028 E0.69973
G1 X127.085 Y104.751 E0.71533
G1 X127.246 Y105.187 E0.7246
G1 X127.521 Y106.047 E0.74262
G1 X127.751 Y107.016 E0.76249
G1 X127.909 Y107.911 E0.78063
G1 X127.949 Y108.212 E0.78669
G1 X128.032 Y109.132 E0.80513
G1 X128.047 Y109.473 E0.81194
G1 X128.054 Y110.331 E0.82906
G1 X128.042 Y110.67 E0.83583
G1 X127.977 Y111.528 E0.853
G1 X127.942 Y111.837 E0.85921
G1 X127.791 Y112.772 E0.87811
G1 X127.689 Y113.256 E0.88798
G1 X127.426 Y114.257 E0.90863
G1 X127.33 Y114.562 E0.91501
G1 X127.055 Y115.329 E0.93127
G1 X126.936 Y115.625 E0.93764
G1 X126.525 Y116.525 E0.95738
G1 X126.29 Y116.981 E0.96762
G1 X125.799 Y117.836 E0.9873
G1 X125.269 Y118.607 E1.00597
G1 X124.817 Y119.201 E1.02086
G1 X124.594 Y119.472 E1.02787
G1 X123.958 Y120.177 E1.04682
G1 X123.718 Y120.421 E1.05365
G1 X123.055 Y121.041 E1.07176
G1 X122.781 Y121.274 E1.07894
G1 X122.01 Y121.876 E1.09846
G1 X121.635 Y122.141 E1.10762
G1 X120.476 Y122.856 E1.1348
G1 X120.138 Y123.036 E1.14244
G1 X119.291 Y123.44 E1.16117
G1 X118.837 Y123.633 E1.17101
G1 X117.937 Y123.967 E1.19017
G1 X117.396 Y124.127 E1.20143
G1 X116.87 Y124.266 E1.21229
G1 X115.988 Y124.459 E1.2303
G1 X115.055 Y124.589 E1.2491
G1 X114.299 Y124.656 E1.26425
G1 X113.968 Y124.674 E1.27086
G1 X113.108 Y124.685 E1.28803
G1 X112.784 Y124.675 E1.2945
G1 X111.856 Y124.609 E1.31306
G1 X111.032 Y124.503 E1.32964
G1 X108.236 Y124.053 E1.38616
G1 X105.745 Y123.726 E1.43629
G1 X102.87 Y123.424 E1.49398
G1 X101.501 Y123.191 E1.5217
G1 X101.16 Y123.111 E1.52869
G1 X100.225 Y122.843 E1.5481
G1 X99.32 Y122.496 E1.56744
G1 X98.518 Y122.111 E1.58519
G1 X97.647 Y121.619 E1.60515
G1 X96.846 Y121.067 E1.62457
G1 X96.128 Y120.476 E1.64313
G1 X95.828 Y120.204 E1.65121
G1 X95.135 Y119.521 E1.67062
G1 X94.522 Y118.798 E1.68954
G1 X93.709 Y117.599 E1.71845
G1 X93.484 Y117.213 E1.72737
G1 X93.033 Y116.351 E1.74678
G1 X92.659 Y115.45 E1.76625
G1 X92.375 Y114.547 E1.78514
G1 X92.105 Y113.219 E1.81218
G1 X92.034 Y112.698 E1.82268
G1 X91.941 Y111.413 E1.84839
G1 X91.931 Y110.555 E1.86551
G1 X91.934 Y109.095 E1.89465
G1 X91.947 Y108.394 E1.90864
G1 X92.01 Y107.411 E1.92829
G1 X92.205 Y106.234 E1.9521
G1 X92.321 Y105.719 E1.96264
G1 X92.58 Y104.78 E1.98208
G1 X92.922 Y103.868 E2.00151
G1 X93.343 Y102.991 E2.02093
G1 X93.841 Y102.15 E2.04043
G1 X94.43 Y101.334 E2.06052
G1 X94.716 Y100.976 E2.06966
G1 X95.358 Y100.243 E2.0891
G1 X96.056 Y99.573 E2.10841
M204 S2000
G0 F7500 X96.309 Y99.883
M204 S500
G1 F1500 X96.908 Y99.394 E2.12384
G1 X97.136 Y99.222 E2.12954
G1 X97.909 Y98.691 E2.14826
G1 X98.726 Y98.23 E2.16698
G1 X99.542 Y97.858 E2.18488
G1 X99.984 Y97.68 E2.19438
G1 X100.869 Y97.369 E2.2131
G1 X101.782 Y97.136 E2.23191
G1 X102.915 Y96.962 E2.25478
G1 X104.654 Y96.792 E2.28965
G1 X107.195 Y96.491 E2.34072
G1 X109.752 Y96.114 E2.39229
G1 X111.311 Y95.861 E2.42381
G1 X112.562 Y95.734 E2.44891
G1 X112.93 Y95.719 E2.45626
G1 X113.777 Y95.719 E2.47316
G1 X114.125 Y95.733 E2.48011
G1 X115.042 Y95.81 E2.49847
G1 X115.465 Y95.865 E2.50699
G1 X116.355 Y96.02 E2.52501
G1 X116.915 Y96.157 E2.53652
G1 X117.319 Y96.269 E2.54489
G1 X118.092 Y96.516 E2.56108
G1 X118.47 Y96.653 E2.5691
G1 X119.334 Y97.01 E2.58776
G1 X120.124 Y97.41 E2.60543
G1 X120.943 Y97.884 E2.62431
G1 X121.276 Y98.097 E2.6322
G1 X122.367 Y98.899 E2.65923
G1 X122.696 Y99.175 E2.6678
G1 X123.337 Y99.762 E2.68514
G1 X123.557 Y99.981 E2.69134
G1 X124.133 Y100.605 E2.70828
G1 X124.364 Y100.876 E2.71539
G1 X124.98 Y101.665 E2.73536
G1 X125.535 Y102.513 E2.75559
G1 X125.782 Y102.929 E2.76524
G1 X126.303 Y103.928 E2.78773
G1 X126.418 Y104.18 E2.79326
G1 X126.71 Y104.889 E2.80856
G1 X126.865 Y105.309 E2.81749
G1 X127.14 Y106.169 E2.83551
G1 X127.357 Y107.086 E2.85432
G1 X127.512 Y107.964 E2.87211
G1 X127.552 Y108.265 E2.87817
G1 X127.632 Y109.15 E2.8959
G1 X127.647 Y109.476 E2.90241
G1 X127.654 Y110.317 E2.9192
G1 X127.643 Y110.64 E2.92565
G1 X127.58 Y111.483 E2.94252
G1 X127.547 Y111.773 E2.94834
G1 X127.396 Y112.708 E2.96724
G1 X127.302 Y113.155 E2.97636
G1 X127.045 Y114.136 E2.99659
G1 X126.953 Y114.427 E3.00269
G1 X126.684 Y115.18 E3.01864
G1 X126.572 Y115.459 E3.02464
G1 X126.169 Y116.342 E3.04401
G1 X125.943 Y116.782 E3.05388
G1 X125.469 Y117.61 E3.07292
G1 X124.951 Y118.365 E3.09119
G1 X124.508 Y118.947 E3.10579
G1 X124.297 Y119.204 E3.11243
G1 X123.673 Y119.897 E3.13104
G1 X123.445 Y120.129 E3.13753
G1 X122.795 Y120.737 E3.15529
G1 X122.535 Y120.959 E3.16211
G1 X121.779 Y121.549 E3.18125
G1 X121.404 Y121.814 E3.19041
G1 X120.288 Y122.503 E3.21659
G1 X119.966 Y122.675 E3.22387
G1 X119.135 Y123.072 E3.24225
G1 X118.697 Y123.258 E3.25175
G1 X117.824 Y123.583 E3.27034
G1 X117.293 Y123.74 E3.28139
G1 X116.784 Y123.875 E3.2919
G1 X115.902 Y124.068 E3.30991
G1 X115.02 Y124.191 E3.32768
G1 X114.277 Y124.257 E3.34257
G1 X113.963 Y124.274 E3.34885
G1 X113.12 Y124.285 E3.36567
G1 X112.812 Y124.276 E3.37182
G1 X111.907 Y124.212 E3.38992
G1 X111.096 Y124.108 E3.40624
G1 X108.288 Y123.656 E3.463
G1 X105.797 Y123.329 E3.51314
G1 X102.912 Y123.026 E3.57103
G1 X101.593 Y122.802 E3.59773
G1 X101.27 Y122.726 E3.60435
G1 X100.368 Y122.469 E3.62306
G1 X99.493 Y122.135 E3.64175
G1 X98.691 Y121.75 E3.65951
G1 X97.873 Y121.289 E3.67825
G1 X97.1 Y120.758 E3.69696
G1 X96.396 Y120.179 E3.71515
G1 X96.108 Y119.919 E3.72289
G1 X95.44 Y119.262 E3.74159
G1 X94.827 Y118.539 E3.76051
G1 X94.054 Y117.397 E3.78803
G1 X93.838 Y117.027 E3.79658
G1 X93.402 Y116.197 E3.81529
G1 X93.041 Y115.33 E3.83403
G1 X92.757 Y114.427 E3.85292
G1 X92.497 Y113.14 E3.87912
G1 X92.433 Y112.669 E3.88861
G1 X92.341 Y111.408 E3.91384
G1 X92.331 Y110.556 E3.93084
G1 X92.334 Y109.102 E3.95986
G1 X92.346 Y108.419 E3.97349
G1 X92.405 Y107.476 E3.99235
G1 X92.6 Y106.299 E4.01616
G1 X92.707 Y105.825 E4.02585
G1 X92.955 Y104.92 E4.04458
G1 X93.283 Y104.04 E4.06332
G1 X93.687 Y103.194 E4.08203
G1 X94.165 Y102.384 E4.1008
G1 X94.743 Y101.583 E4.12051
G1 X95.017 Y101.239 E4.12929
G1 X95.635 Y100.531 E4.14804
G1 X96.309 Y99.883 E4.1667
M204 S2000
G0 F7500 X96.562 Y100.193
M204 S500
G1 F1500 X97.149 Y99.713 E4.18183
G1 X97.363 Y99.551 E4.18719
G1 X98.106 Y99.039 E4.20519
G1 X98.892 Y98.594 E4.22322
G1 X99.692 Y98.229 E4.24077
G1 X100.117 Y98.057 E4.24992
G1 X100.969 Y97.756 E4.26795
G1 X101.843 Y97.531 E4.28596
G1 X102.954 Y97.36 E4.30839
G1 X104.693 Y97.19 E4.34326
G1 X107.253 Y96.887 E4.39471
G1 X109.81 Y96.51 E4.44628
G1 X111.352 Y96.259 E4.47746
G1 X112.578 Y96.134 E4.50206
G1 X112.946 Y96.119 E4.50941
G1 X113.761 Y96.119 E4.52567
G1 X114.092 Y96.132 E4.53228
G1 X114.991 Y96.207 E4.55028
G1 X115.396 Y96.259 E4.55843
G1 X116.286 Y96.414 E4.57646
G1 X116.809 Y96.543 E4.58721
G1 X117.197 Y96.65 E4.59524
G1 X117.956 Y96.892 E4.61114
G1 X118.318 Y97.023 E4.61882
G1 X119.153 Y97.367 E4.63684
G1 X119.943 Y97.767 E4.65451
G1 X120.727 Y98.221 E4.67259
G1 X121.06 Y98.434 E4.68048
G1 X122.13 Y99.221 E4.70699
G1 X122.426 Y99.47 E4.71471
G1 X123.055 Y100.046 E4.73173
G1 X123.263 Y100.253 E4.73759
G1 X123.829 Y100.865 E4.75422
G1 X124.049 Y101.123 E4.76099
G1 X124.645 Y101.884 E4.78028
G1 X125.191 Y102.717 E4.80015
G1 X125.427 Y103.114 E4.80937
G1 X125.939 Y104.094 E4.83143
G1 X126.048 Y104.333 E4.83668
G1 X126.335 Y105.028 E4.85168
G1 X126.484 Y105.431 E4.86026
G1 X126.759 Y106.291 E4.87828
G1 X126.963 Y107.156 E4.89601
G1 X127.115 Y108.017 E4.91346
G1 X127.155 Y108.318 E4.91952
G1 X127.232 Y109.169 E4.93657
G1 X127.247 Y109.479 E4.94276
G1 X127.254 Y110.304 E4.95923
G1 X127.244 Y110.611 E4.96536
G1 X127.183 Y111.438 E4.98191
G1 X127.152 Y111.709 E4.98735
G1 X127.001 Y112.644 E5.00625
G1 X126.915 Y113.054 E5.01461
G1 X126.663 Y114.016 E5.03446
G1 X126.576 Y114.293 E5.04025
G1 X126.313 Y115.031 E5.05589
G1 X126.208 Y115.293 E5.06152
G1 X125.813 Y116.159 E5.08051
G1 X125.587 Y116.599 E5.09038
G1 X125.139 Y117.384 E5.10842
G1 X124.633 Y118.123 E5.12629
G1 X124.199 Y118.693 E5.14059
G1 X123.999 Y118.937 E5.14689
G1 X123.388 Y119.617 E5.16513
G1 X123.172 Y119.837 E5.17128
G1 X122.535 Y120.433 E5.18869
G1 X122.289 Y120.644 E5.19516
G1 X121.548 Y121.223 E5.21393
G1 X121.194 Y121.474 E5.22259
G1 X120.1 Y122.15 E5.24825
G1 X119.793 Y122.314 E5.2552
G1 X118.978 Y122.704 E5.27323
G1 X118.557 Y122.883 E5.28236
G1 X117.711 Y123.199 E5.30038
G1 X117.19 Y123.353 E5.31122
G1 X116.698 Y123.484 E5.32138
G1 X115.816 Y123.677 E5.3394
G1 X114.984 Y123.793 E5.35616
G1 X114.256 Y123.858 E5.37075
G1 X113.958 Y123.874 E5.3767
G1 X113.131 Y123.885 E5.39321
G1 X112.84 Y123.877 E5.39902
G1 X111.958 Y123.815 E5.41666
G1 X111.16 Y123.713 E5.43272
G1 X108.34 Y123.259 E5.48972
G1 X105.849 Y122.932 E5.53985
G1 X102.954 Y122.628 E5.59794
G1 X101.685 Y122.413 E5.62363
G1 X101.379 Y122.341 E5.6299
G1 X100.51 Y122.095 E5.64793
G1 X99.666 Y121.774 E5.66595
G1 X98.887 Y121.401 E5.68318
G1 X98.099 Y120.959 E5.70121
G1 X97.354 Y120.449 E5.71923
G1 X96.663 Y119.881 E5.73708
G1 X96.388 Y119.634 E5.74446
G1 X95.744 Y119.002 E5.76246
G1 X95.158 Y118.315 E5.78048
G1 X94.399 Y117.195 E5.80748
G1 X94.192 Y116.841 E5.81567
G1 X93.771 Y116.042 E5.83369
G1 X93.422 Y115.209 E5.85171
G1 X93.149 Y114.348 E5.86974
G1 X92.889 Y113.061 E5.89594
G1 X92.832 Y112.64 E5.90442
G1 X92.741 Y111.403 E5.92917
G1 X92.731 Y110.557 E5.94606
G1 X92.734 Y109.109 E5.97495
G1 X92.745 Y108.443 E5.98824
G1 X92.8 Y107.541 E6.00628
G1 X92.995 Y106.364 E6.03009
G1 X93.093 Y105.93 E6.03897
G1 X93.33 Y105.059 E6.05698
G1 X93.644 Y104.212 E6.07501
G1 X94.032 Y103.397 E6.09302
G1 X94.49 Y102.618 E6.11105
G1 X95.056 Y101.832 E6.13038
G1 X95.319 Y101.501 E6.13882
G1 X95.912 Y100.819 E6.15685
G1 X96.562 Y100.193 E6.17486
M204 S2000
G1 F2400 E5.37486
;MESH:Crank_Lego.stl
G0 F7500 X103.619 Y106.913
G0 X108.609 Y108.099
M204 S500
;TYPE:WALL-INNER
G1 F2400 E6.17486
G1 F1492.5 X104.049 Y108.104 E6.26632
G1 F1507.5 X103.821 Y108.189 E6.27115
G1 F1519 X103.603 Y108.416 E6.27735
G1 F1511.3 X103.531 Y108.67 E6.28258
G1 F1503.8 X103.53 Y111.428 E6.33748
G1 F1515.2 X103.663 Y111.671 E6.34295
G1 F1526.7 X103.801 Y111.799 E6.34665
G1 F1519 X104.099 Y111.898 E6.35283
G1 F1485.1 X108.712 Y111.898 E6.44581
G1 F1463.4 X109.317 Y111.898 E6.45819
G1 F1129.9 X109.753 Y111.775 E6.47019
G1 F1013.5 X109.365 Y111.471 E6.48475
G1 F1276.6 X109.213 Y111.154 E6.49299
G1 F1467 X109.19 Y111.471 E6.49948
G1 X109.138 Y111.594 E6.5022
G1 F1463.4 X108.712 Y111.898 E6.51291
M204 S2000
G0 F7500 X109.213 Y111.154
M204 S500
G1 F1481.5 X109.209 Y108.95 E6.55744
G1 F1492.5 X109.257 Y108.709 E6.56237
G1 F1474.2 X109.441 Y108.469 E6.56851
G1 F1621.6 X109.711 Y108.391 E6.57369
G1 F1657.5 X110.554 Y108.353 E6.58894
G1 F1276.6 X111.37 Y108.273 E6.60816
G1 F1094.9 X111.643 Y108.273 E6.61562
G1 X111.645 Y107.686 E6.63167
G1 F1145 X111.745 Y107.423 E6.63903
G1 F1318.7 X111.947 Y107.254 E6.64501
G1 F1252.6 X111.509 Y107.606 E6.65844
G1 F1094.9 X111.235 Y107.762 E6.66706
G1 F1183.4 X110.906 Y107.869 E6.67581
G1 F1398.6 X110.492 Y107.972 E6.68494
G1 F1630.4 X110.071 Y108.035 E6.69275
G1 F1775.1 X109.683 Y108.063 E6.69931
G1 F1621.6 X109.317 Y108.102 E6.70611
G1 F1481.5 X108.609 Y108.099 E6.72041
G1 X109.138 Y108.406 E6.73277
G1 F1477.8 X109.212 Y108.583 E6.73666
G1 F1492.5 X109.209 Y108.95 E6.74402
M204 S2000
G0 F7500 X109.381 Y111.477
G0 X110.706 Y111.867
G0 X110.192 Y111.947
M204 S500
G1 F1530.6 X110.249 Y111.99 E6.74541
G1 F1570.7 X110.575 Y112.047 E6.75172
G1 F1382.5 X110.894 Y112.127 E6.75884
G1 F1188.1 X111.227 Y112.236 E6.76767
G1 F1096.9 X111.495 Y112.387 E6.77607
G1 F1227 X111.888 Y112.71 E6.78848
G1 X111.645 Y112.301 E6.80008
G1 F1092.9 X111.644 Y111.726 E6.81583
G1 X111.37 Y111.727 E6.82334
G1 F1260.5 X110.64 Y111.654 E6.84076
G1 F1570.7 X110.29 Y111.633 E6.84744
G1 F1174.2 X109.891 Y111.782 E6.8583
G1 F1107 X110.192 Y111.947 E6.86758
M204 S2000
G0 F7500 X110.706 Y111.867
G0 X111.47 Y112.17
G0 X111.888 Y112.71
M204 S500
G1 F1449.3 X112.068 Y112.814 E6.87187
G1 F1507.5 X112.35 Y112.927 E6.87791
G1 X112.669 Y113.019 E6.8845
G1 F1519 X113.039 Y113.084 E6.8919
G1 F1522.8 X113.464 Y113.098 E6.90026
G1 F1526.7 X113.876 Y113.065 E6.90836
G1 F1534.5 X114.297 Y112.967 E6.9168
G1 F1526.7 X114.698 Y112.802 E6.9253
M204 S2000
G0 F7500 X114.989 Y112.577
M204 S500
G1 F1165 X115.231 Y112.407 E6.9329
G1 X115.437 Y112.231 E6.93986
G1 X115.617 Y112.049 E6.94644
G1 X115.788 Y111.845 E6.95327
G1 X115.904 Y111.679 E6.95848
G1 X115.762 Y111.709 E6.96221
G1 X115.079 Y111.709 E6.97976
G1 X115.076 Y112.327 E6.99563
G1 X114.989 Y112.577 E7.00244
M204 S2000
G0 F7500 X115.262 Y112.139
G0 X116.075 Y111.481
G0 X116.39 Y110.388
G0 X116.393 Y109.683
G0 X116.331 Y109.292
G0 X116.075 Y108.519
G0 X115.261 Y107.861
G0 X114.79 Y107.252
M204 S500
G1 F1408.5 X114.911 Y107.342 E7.00564
G1 F1250 X115.078 Y107.635 E7.01372
G1 F1165 X115.08 Y108.29 E7.03055
G1 X115.902 Y108.292 E7.05167
G1 X115.522 Y107.839 E7.06686
G1 X115.18 Y107.551 E7.07835
G1 F1304.3 X114.79 Y107.252 E7.08962
G1 F1488.8 X114.644 Y107.173 E7.09296
G1 F1526.7 X114.148 Y106.987 E7.10335
G1 F1550.4 X113.701 Y106.916 E7.11209
G1 F1526.7 X113.377 Y106.901 E7.11845
G1 F1500 X113.053 Y106.916 E7.12492
G1 F1496.3 X112.705 Y106.973 E7.13197
G1 F1515.2 X112.443 Y107.038 E7.13731
G1 F1519 X112.066 Y107.189 E7.14531
G1 F1485.1 X111.947 Y107.254 E7.14804
M204 S2000
G1 F2400 E6.34804
G0 F7500 X111.47 Y107.831
G0 X109.381 Y108.523
G0 X109.381 Y111.477
G0 X111.47 Y112.17
G0 X112.186 Y112.432
M204 S500
;TYPE:WALL-OUTER
G1 F2400 E7.14804
G1 F1500 X112.119 Y112.28 E7.15136
G1 X112.117 Y111.626 E7.16441
G1 X112.036 Y111.414 E7.16894
G1 X111.919 Y111.308 E7.17209
G1 X111.752 Y111.254 E7.17559
G1 X109.793 Y111.25 E7.21469
G1 X109.687 Y111.209 E7.21695
G1 X109.611 Y111.085 E7.21986
G1 F1503.8 X109.609 Y108.892 E7.26351
G1 X109.687 Y108.791 E7.26605
G1 F1500 X109.774 Y108.752 E7.26795
G1 X111.751 Y108.747 E7.30741
G1 X111.956 Y108.681 E7.3117
G1 X112.084 Y108.506 E7.31603
G1 X112.117 Y108.388 E7.31848
G1 X112.119 Y107.718 E7.33185
G1 X112.206 Y107.561 E7.33543
G1 X112.616 Y107.396 E7.34425
G1 X113.038 Y107.319 E7.35281
G1 X113.298 Y107.3 E7.35801
G1 X113.661 Y107.31 E7.36526
G1 X114.114 Y107.393 E7.37445
G1 X114.515 Y107.554 E7.38307
