;FLAVOR:Marlin
;TIME:4150
;Filament used: 1.33139m
;Layer height: 0.12
;MINX:77.86
;MINY:81.742
;MINZ:0.12
;MAXX:130.936
;MAXY:138.254
;MAXZ:30.24
;Generated with Cura_SteamEngine 5.4.0
M82 ;absolute extrusion mode
; Ender 3 S1 Start G-code
G92 E0 ; Reset Extruder
G28 ; Home all axes
M420 S1 ;Use bed leveling data
G1 Z10.0 F3000 ; Move Z Axis up little to prevent scratching of Heat Bed
G1 X0 Y0

M104 S200
M190 S60
M109 S200

G1 X0.1 Y20 Z0.3 F5000.0 ; Move to start position
G1 X0.1 Y200.0 Z0.3 F1500.0 E15 ; Draw the first line
G1 X0.4 Y200.0 Z0.3 F5000.0 ; Move to side a little
G1 X0.4 Y20 Z0.3 F1500.0 E30 ; Draw the second line
G92 E0 ; Reset Extruder
G1 Z2.0 F3000 ; Move Z Axis up little to prevent scratching of Heat Bed
G1 X5 Y20 Z0.3 F5000.0 ; Move over to prevent blob squish
G92 E0
G92 E0
G1 F2400 E-0.8
;LAYER_COUNT:252
;LAYER:0
M107
M204 S2000
G0 F7500 X82.037 Y94.787 Z0.12
M204 S500
;TYPE:SKIRT
G1 F2400 E0
G1 F1500 X82.826 Y94.216 E0.01944
G1 X83.627 Y93.737 E0.03806
G1 X84.32 Y93.392 E0.05351
G1 X85.028 Y93.07 E0.06903
G1 X87.407 Y91.952 E0.12149
G1 X89.645 Y90.822 E0.17152
G1 X91.85 Y89.629 E0.22155
G1 X94.03 Y88.369 E0.2718
G1 X96.152 Y87.06 E0.32155
G1 X98.286 Y85.659 E0.3725
G1 X100.381 Y84.197 E0.42348
G1 X100.957 Y83.785 E0.43761
G1 X101.774 Y83.256 E0.45704
G1 X102.635 Y82.801 E0.47647
G1 X103.533 Y82.422 E0.49592
G1 X104.461 Y82.127 E0.51535
G1 X105.41 Y81.914 E0.53476
G1 X106.376 Y81.784 E0.55421
G1 X107.349 Y81.742 E0.57365
G1 X108.321 Y81.786 E0.59307
G1 X109.217 Y81.903 E0.6111
G1 X110.236 Y82.131 E0.63194
G1 X111.165 Y82.428 E0.6514
G1 X111.998 Y82.777 E0.66942
G1 X112.653 Y83.11 E0.68409
G1 X113.418 Y83.538 E0.70158
G1 X114.263 Y84.048 E0.72128
G1 X115.24 Y84.667 E0.74436
G1 X117.453 Y86.031 E0.79624
G1 X119.612 Y87.276 E0.84597
G1 X121.9 Y88.513 E0.89788
G1 X122.816 Y88.986 E0.91845
G1 X123.651 Y89.446 E0.93747
G1 X124.397 Y89.888 E0.95478
G1 X125.182 Y90.404 E0.97353
G1 X125.974 Y91.03 E0.99367
G1 X126.681 Y91.701 E1.01312
G1 X127.324 Y92.43 E1.03252
G1 X127.902 Y93.215 E1.05198
G1 X128.407 Y94.048 E1.07142
G1 X128.837 Y94.92 E1.09082
G1 X129.166 Y95.761 E1.10884
G1 X129.457 Y96.765 E1.1297
G1 X129.643 Y97.723 E1.14917
G1 X129.743 Y98.692 E1.16861
G1 X129.887 Y101.126 E1.21727
G1 X130.101 Y103.656 E1.26794
G1 X130.392 Y106.184 E1.31872
G1 X130.507 Y107.096 E1.33707
G1 X130.612 Y108.199 E1.35918
G1 X130.659 Y109.01 E1.37539
G1 X130.673 Y110.17 E1.39854
G1 X130.65 Y111.178 E1.41866
G1 X130.595 Y112.05 E1.4361
G1 X130.407 Y113.823 E1.47168
G1 X130.255 Y114.994 E1.49524
G1 X130.003 Y117.478 E1.54507
G1 X129.801 Y120.292 E1.60137
G1 X129.742 Y121.323 E1.62198
G1 X129.641 Y122.293 E1.64144
G1 X129.462 Y123.214 E1.66016
G1 X129.184 Y124.182 E1.68026
G1 X128.861 Y125.025 E1.69828
G1 X128.399 Y125.964 E1.71916
G1 X127.893 Y126.796 E1.73859
G1 X127.314 Y127.58 E1.75804
G1 X126.669 Y128.31 E1.77748
G1 X125.962 Y128.979 E1.79691
G1 X125.204 Y129.58 E1.81621
G1 X124.536 Y130.027 E1.83225
G1 X123.841 Y130.445 E1.84844
G1 X122.832 Y131.006 E1.87148
G1 X121.822 Y131.533 E1.89421
G1 X119.554 Y132.757 E1.94564
G1 X117.365 Y134.021 E1.99609
G1 X115.199 Y135.353 E2.04683
G1 X114.289 Y135.937 E2.06841
G1 X113.477 Y136.427 E2.08733
G1 X112.684 Y136.87 E2.10546
G1 X111.814 Y137.306 E2.12488
G1 X110.974 Y137.64 E2.14292
G1 X109.972 Y137.937 E2.16378
G1 X109.017 Y138.128 E2.18321
G1 X108.049 Y138.234 E2.20264
G1 X107.074 Y138.254 E2.22211
G1 X106.103 Y138.187 E2.24153
G1 X105.142 Y138.035 E2.26095
G1 X104.196 Y137.799 E2.2804
G1 X103.277 Y137.479 E2.29982
G1 X102.39 Y137.082 E2.31922
G1 X101.601 Y136.643 E2.33723
G1 X100.933 Y136.201 E2.35322
G1 X100.265 Y135.723 E2.36961
G1 X98.103 Y134.221 E2.42215
G1 X95.997 Y132.844 E2.47236
G1 X93.88 Y131.545 E2.52193
G1 X91.693 Y130.286 E2.57229
G1 X89.468 Y129.086 E2.62273
G1 X87.252 Y127.973 E2.67222
G1 X84.198 Y126.552 E2.73944
G1 X83.397 Y126.135 E2.75746
G1 X82.516 Y125.573 E2.77832
G1 X81.746 Y124.976 E2.79776
G1 X81.083 Y124.363 E2.81578
G1 X80.382 Y123.591 E2.83659
G1 X79.836 Y122.871 E2.85462
G1 X79.282 Y121.984 E2.87549
G1 X78.843 Y121.116 E2.8949
G1 X78.481 Y120.21 E2.91437
G1 X78.202 Y119.279 E2.93377
G1 X78.017 Y118.395 E2.95179
G1 X77.874 Y116.923 E2.98131
G1 X77.86 Y116.143 E2.99687
G1 X77.878 Y114.915 E3.02138
G1 X77.926 Y113.785 E3.04395
G1 X78.001 Y111.193 E3.0957
G1 X78.001 Y108.682 E3.14581
G1 X77.929 Y106.124 E3.19688
G1 X77.877 Y105.054 E3.21826
G1 X77.86 Y104.135 E3.2366
G1 X77.872 Y103.243 E3.2544
G1 X77.928 Y102.27 E3.27385
G1 X78.072 Y101.307 E3.29328
G1 X78.3 Y100.361 E3.3127
G1 X78.61 Y99.437 E3.33215
G1 X78.987 Y98.577 E3.35089
G1 X79.471 Y97.693 E3.371
G1 X80.013 Y96.883 E3.39045
G1 X80.624 Y96.126 E3.40987
G1 X81.249 Y95.474 E3.42789
G1 X82.037 Y94.787 E3.44875
M204 S2000
G0 F7500 X82.272 Y95.111
M204 S500
G1 F1500 X83.032 Y94.559 E3.4675
G1 X83.806 Y94.095 E3.48551
G1 X84.485 Y93.756 E3.50065
G1 X85.198 Y93.432 E3.51628
G1 X87.577 Y92.314 E3.56874
G1 X89.835 Y91.174 E3.61921
G1 X92.04 Y89.981 E3.66924
G1 X94.23 Y88.715 E3.71973
G1 X96.372 Y87.394 E3.76995
G1 X98.506 Y85.993 E3.82089
G1 X100.61 Y84.525 E3.87209
G1 X101.175 Y84.12 E3.88596
G1 X101.962 Y83.609 E3.90469
G1 X102.791 Y83.169 E3.92342
G1 X103.655 Y82.803 E3.94214
G1 X104.549 Y82.517 E3.96087
G1 X105.464 Y82.31 E3.97959
G1 X106.394 Y82.184 E3.99832
G1 X107.332 Y82.142 E4.01706
G1 X108.269 Y82.183 E4.03578
G1 X109.165 Y82.3 E4.05381
G1 X110.115 Y82.512 E4.07323
G1 X111.01 Y82.797 E4.09198
G1 X111.843 Y83.146 E4.11
G1 X112.458 Y83.459 E4.12377
G1 X113.211 Y83.88 E4.14099
G1 X114.049 Y84.386 E4.16052
G1 X115.03 Y85.008 E4.1837
G1 X117.253 Y86.378 E4.23581
G1 X119.412 Y87.623 E4.28555
G1 X121.717 Y88.869 E4.33784
G1 X122.623 Y89.336 E4.35818
G1 X123.447 Y89.79 E4.37696
G1 X124.178 Y90.223 E4.39391
G1 X124.934 Y90.718 E4.41194
G1 X125.699 Y91.321 E4.43138
G1 X126.381 Y91.966 E4.45011
G1 X127.002 Y92.668 E4.46882
G1 X127.56 Y93.423 E4.48755
G1 X128.048 Y94.225 E4.50629
G1 X128.464 Y95.066 E4.52501
G1 X128.793 Y95.907 E4.54303
G1 X129.064 Y96.842 E4.56246
G1 X129.245 Y97.764 E4.58121
G1 X129.344 Y98.716 E4.60031
G1 X129.488 Y101.16 E4.64917
G1 X129.703 Y103.69 E4.69984
G1 X129.995 Y106.234 E4.75094
G1 X130.109 Y107.134 E4.76905
G1 X130.213 Y108.222 E4.79086
G1 X130.259 Y109.015 E4.80671
G1 X130.273 Y110.161 E4.82958
G1 X130.251 Y111.153 E4.84938
G1 X130.197 Y112.008 E4.86648
G1 X130.01 Y113.772 E4.90188
G1 X129.858 Y114.943 E4.92544
G1 X129.605 Y117.438 E4.97549
G1 X129.402 Y120.263 E5.03201
G1 X129.344 Y121.282 E5.05238
G1 X129.248 Y122.217 E5.07113
G1 X129.069 Y123.138 E5.08986
G1 X128.81 Y124.039 E5.10857
G1 X128.487 Y124.882 E5.12658
G1 X128.057 Y125.757 E5.14604
G1 X127.571 Y126.559 E5.16475
G1 X127.014 Y127.316 E5.18351
G1 X126.394 Y128.02 E5.20223
G1 X125.713 Y128.666 E5.22096
G1 X124.981 Y129.248 E5.23962
G1 X124.33 Y129.684 E5.25526
G1 X123.647 Y130.095 E5.27117
G1 X122.647 Y130.651 E5.294
G1 X121.637 Y131.178 E5.31673
G1 X119.364 Y132.405 E5.36828
G1 X117.156 Y133.68 E5.41916
G1 X114.983 Y135.016 E5.47007
G1 X114.082 Y135.595 E5.49144
G1 X113.282 Y136.078 E5.51009
G1 X112.504 Y136.513 E5.52788
G1 X111.666 Y136.934 E5.54659
G1 X110.826 Y137.268 E5.56463
G1 X109.893 Y137.545 E5.58405
G1 X108.973 Y137.73 E5.60278
G1 X108.04 Y137.834 E5.62152
G1 X107.101 Y137.855 E5.64026
G1 X106.165 Y137.792 E5.65898
G1 X105.238 Y137.647 E5.67771
G1 X104.327 Y137.421 E5.69644
G1 X103.44 Y137.114 E5.71517
G1 X102.584 Y136.732 E5.73387
G1 X101.795 Y136.293 E5.75189
G1 X101.166 Y135.876 E5.76695
G1 X100.493 Y135.394 E5.78347
G1 X98.331 Y133.892 E5.83601
G1 X96.216 Y132.509 E5.88644
G1 X94.08 Y131.198 E5.93645
G1 X91.893 Y129.939 E5.98681
G1 X89.658 Y128.734 E6.03748
G1 X87.421 Y127.61 E6.08744
G1 X84.383 Y126.197 E6.15431
G1 X83.582 Y125.78 E6.17233
G1 X82.761 Y125.256 E6.19176
G1 X82.018 Y124.682 E6.2105
G1 X81.355 Y124.069 E6.22852
G1 X80.701 Y123.349 E6.24793
G1 X80.155 Y122.629 E6.26596
G1 X79.639 Y121.803 E6.2854
G1 X79.214 Y120.967 E6.30411
G1 X78.864 Y120.095 E6.32287
G1 X78.594 Y119.197 E6.34158
G1 X78.409 Y118.313 E6.3596
G1 X78.274 Y116.916 E6.38761
G1 X78.26 Y116.149 E6.40292
G1 X78.278 Y114.932 E6.42721
G1 X78.326 Y113.802 E6.44978
G1 X78.401 Y111.205 E6.50163
G1 X78.401 Y108.682 E6.55198
G1 X78.329 Y106.113 E6.60326
G1 X78.277 Y105.046 E6.62458
G1 X78.26 Y104.14 E6.64267
G1 X78.271 Y103.266 E6.66011
G1 X78.324 Y102.328 E6.67886
G1 X78.461 Y101.4 E6.69758
G1 X78.679 Y100.488 E6.71629
G1 X78.977 Y99.597 E6.73504
G1 X79.338 Y98.769 E6.75306
G1 X79.804 Y97.915 E6.77248
G1 X80.325 Y97.134 E6.79121
G1 X80.913 Y96.403 E6.80994
G1 X81.538 Y95.751 E6.82796
G1 X82.272 Y95.111 E6.84739
M204 S2000
G0 F7500 X82.507 Y95.434
M204 S500
G1 F1500 X83.238 Y94.902 E6.86544
G1 X84.012 Y94.438 E6.88344
G1 X84.65 Y94.12 E6.89767
G1 X85.368 Y93.794 E6.91341
G1 X87.747 Y92.676 E6.96586
G1 X90.025 Y91.526 E7.01679
G1 X92.23 Y90.333 E7.06682
G1 X94.43 Y89.061 E7.11753
G1 X96.592 Y87.728 E7.16822
G1 X98.726 Y86.327 E7.21916
G1 X100.839 Y84.853 E7.27058
G1 X101.393 Y84.455 E7.28419
G1 X102.15 Y83.962 E7.30222
G1 X102.947 Y83.537 E7.32024
G1 X103.778 Y83.184 E7.33826
G1 X104.638 Y82.907 E7.35629
G1 X105.518 Y82.706 E7.3743
G1 X106.413 Y82.584 E7.39233
G1 X107.315 Y82.542 E7.41035
G1 X108.217 Y82.58 E7.42837
G1 X109.113 Y82.697 E7.4464
G1 X109.994 Y82.893 E7.46441
G1 X110.855 Y83.166 E7.48243
G1 X111.688 Y83.515 E7.50046
G1 X112.263 Y83.808 E7.51334
G1 X113.004 Y84.223 E7.53029
G1 X113.835 Y84.724 E7.54965
G1 X114.82 Y85.349 E7.57293
G1 X117.043 Y86.718 E7.62503
G1 X119.222 Y87.975 E7.67523
G1 X121.527 Y89.221 E7.72752
G1 X122.43 Y89.687 E7.7478
G1 X123.243 Y90.134 E7.76631
G1 X123.959 Y90.558 E7.78292
G1 X124.715 Y91.053 E7.80095
G1 X125.425 Y91.612 E7.81898
G1 X126.082 Y92.231 E7.837
G1 X126.681 Y92.906 E7.85501
G1 X127.219 Y93.632 E7.87304
G1 X127.69 Y94.403 E7.89107
G1 X128.091 Y95.212 E7.90909
G1 X128.42 Y96.053 E7.92711
G1 X128.672 Y96.92 E7.94513
G1 X128.847 Y97.806 E7.96315
G1 X128.945 Y98.739 E7.98187
G1 X129.089 Y101.194 E8.03095
G1 X129.305 Y103.724 E8.08162
G1 X129.598 Y106.285 E8.13306
G1 X129.711 Y107.172 E8.15091
G1 X129.814 Y108.245 E8.17242
G1 X129.859 Y109.02 E8.18791
G1 X129.873 Y110.152 E8.2105
G1 X129.852 Y111.128 E8.22998
G1 X129.799 Y111.966 E8.24674
G1 X129.613 Y113.721 E8.28196
G1 X129.461 Y114.892 E8.30552
G1 X129.207 Y117.398 E8.35579
G1 X129.003 Y120.234 E8.41253
G1 X128.946 Y121.242 E8.43268
G1 X128.855 Y122.141 E8.45071
G1 X128.684 Y123.028 E8.46874
G1 X128.436 Y123.896 E8.48675
G1 X128.113 Y124.739 E8.50477
G1 X127.715 Y125.55 E8.5228
G1 X127.248 Y126.323 E8.54082
G1 X126.714 Y127.052 E8.55885
G1 X126.118 Y127.73 E8.57687
G1 X125.464 Y128.353 E8.59489
G1 X124.758 Y128.916 E8.61291
G1 X124.124 Y129.341 E8.62815
G1 X123.452 Y129.745 E8.64379
G1 X122.462 Y130.296 E8.6664
G1 X121.452 Y130.823 E8.68914
G1 X119.174 Y132.053 E8.7408
G1 X116.947 Y133.339 E8.79212
G1 X114.774 Y134.675 E8.84303
G1 X113.875 Y135.253 E8.86436
G1 X113.086 Y135.729 E8.88274
G1 X112.324 Y136.156 E8.90018
G1 X111.518 Y136.562 E8.91819
G1 X110.678 Y136.896 E8.93623
G1 X109.813 Y137.153 E8.95423
G1 X108.928 Y137.333 E8.97226
G1 X108.03 Y137.434 E8.99029
G1 X107.127 Y137.456 E9.00831
G1 X106.226 Y137.397 E9.02633
G1 X105.334 Y137.259 E9.04435
G1 X104.457 Y137.043 E9.06237
G1 X103.603 Y136.749 E9.08039
G1 X102.778 Y136.382 E9.09841
G1 X101.989 Y135.943 E9.11643
G1 X101.399 Y135.551 E9.13057
G1 X100.721 Y135.065 E9.14722
G1 X98.559 Y133.563 E9.19975
G1 X96.435 Y132.174 E9.2504
G1 X94.28 Y130.851 E9.30086
G1 X92.093 Y129.592 E9.35122
G1 X89.848 Y128.382 E9.40211
G1 X87.59 Y127.247 E9.45255
G1 X84.568 Y125.842 E9.51905
G1 X83.767 Y125.425 E9.53707
G1 X83.005 Y124.939 E9.55511
G1 X82.29 Y124.388 E9.57312
G1 X81.627 Y123.775 E9.59114
G1 X81.02 Y123.107 E9.60916
G1 X80.474 Y122.387 E9.62719
G1 X79.995 Y121.621 E9.64522
G1 X79.585 Y120.817 E9.66323
G1 X79.247 Y119.979 E9.68126
G1 X78.986 Y119.115 E9.69927
G1 X78.801 Y118.231 E9.7173
G1 X78.674 Y116.909 E9.7438
G1 X78.66 Y116.155 E9.75885
G1 X78.678 Y114.949 E9.78292
G1 X78.726 Y113.819 E9.80549
G1 X78.801 Y111.217 E9.85744
G1 X78.801 Y108.682 E9.90802
G1 X78.729 Y106.102 E9.95953
G1 X78.677 Y105.038 E9.98079
G1 X78.66 Y104.145 E9.99861
G1 X78.67 Y103.288 E10.01572
G1 X78.72 Y102.386 E10.03375
G1 X78.85 Y101.493 E10.05175
G1 X79.059 Y100.614 E10.06978
G1 X79.344 Y99.757 E10.08781
G1 X79.705 Y98.929 E10.10583
G1 X80.137 Y98.136 E10.12385
G1 X80.637 Y97.384 E10.14188
G1 X81.202 Y96.68 E10.15989
G1 X81.827 Y96.028 E10.17791
G1 X82.507 Y95.434 E10.19593
M204 S2000
G1 F2400 E9.39593
;MESH:Valve_Lid_45.stl
G0 F7500 X89.273 Y102.735
G0 X89.459 Y104
M204 S500
;TYPE:WALL-INNER
G1 F2400 E10.19593
G1 F1500 X90.059 Y104 E10.20791
M204 S2000
G0 F7500 X90.487 Y104.172
G0 X90.929 Y115.73
G0 X90.163 Y115.996
M204 S500
G1 F1481.5 X89.459 Y116 E10.22213
M204 S2000
G0 F7500 X95.086 Y115.712
G0 X95.09 Y115.752
M204 S500
G1 F1500 X94.728 Y115.06 E10.23772
G1 X94.509 Y114.586 E10.24814
G1 X94.297 Y114.068 E10.25931
G1 X94.094 Y113.491 E10.27151
G1 X93.926 Y112.924 E10.28331
G1 X93.805 Y112.402 E10.29401
G1 X93.703 Y111.865 E10.30491
G1 X93.622 Y111.289 E10.31652
G1 X93.576 Y110.779 E10.32674
G1 X93.552 Y110.217 E10.33797
G1 X93.556 Y109.607 E10.35014
G1 X93.587 Y109.061 E10.36105
G1 X93.641 Y108.549 E10.37133
G1 X93.73 Y107.975 E10.38292
G1 X93.853 Y107.376 E10.39512
G1 X93.978 Y106.895 E10.40504
G1 X94.16 Y106.313 E10.41721
G1 X94.355 Y105.78 E10.42854
G1 X94.58 Y105.254 E10.43995
G1 X94.821 Y104.755 E10.45101
G1 X95.083 Y104.283 E10.46178
G1 X94.611 Y104.4 E10.47149
G1 X90.993 Y104.4 E10.54369
G1 X91.059 Y104.6 E10.54789
G1 X91.059 Y115.4 E10.76342
G1 X90.993 Y115.6 E10.76762
G1 X94.611 Y115.6 E10.83982
G1 X94.952 Y115.652 E10.84671
G1 X95.09 Y115.752 E10.85011
M204 S2000
G0 F7500 X95.086 Y115.712
G0 X98.255 Y118.544
G0 X102.933 Y121.681
G0 X104.724 Y121.871
G0 X107.261 Y125.932
M204 S500
G1 F1503.8 X107.227 Y125.397 E10.86078
G1 F1500 X107.479 Y125.112 E10.86837
G1 X116.831 Y119.712 E11.08388
G1 X117.204 Y119.636 E11.09147
G1 F1474.2 X117.597 Y119.843 E11.10049
G1 X116.036 Y117.129 E11.16407
G1 F1500 X115.831 Y116.616 E11.17509
G1 X115.717 Y116.138 E11.1849
G1 X115.711 Y115.934 E11.18897
G1 X115.82 Y115.426 E11.19934
G1 X116.052 Y115.012 E11.20881
G1 X116.399 Y114.682 E11.21837
G1 X116.756 Y114.505 E11.22632
G1 X117.135 Y114.4 E11.23417
G1 X118.383 Y114.399 E11.25907
G1 X118.598 Y113.697 E11.27372
G1 X118.738 Y113.126 E11.28546
G1 X118.85 Y112.582 E11.29654
G1 X118.944 Y112.015 E11.30801
G1 X119.014 Y111.448 E11.31941
G1 X119.064 Y110.852 E11.33135
G1 X119.088 Y110.263 E11.34311
G1 X119.088 Y109.753 E11.35329
G1 X119.059 Y109.086 E11.36661
G1 X119.013 Y108.528 E11.37778
G1 X118.945 Y107.983 E11.38874
G1 X118.848 Y107.406 E11.40042
G1 X118.729 Y106.839 E11.41198
G1 X118.599 Y106.309 E11.42287
G1 X118.383 Y105.6 E11.43766
G1 X117.145 Y105.6 E11.46237
G1 X116.774 Y105.503 E11.47002
G1 X116.419 Y105.328 E11.47792
G1 X116.057 Y104.983 E11.4879
G1 X115.814 Y104.563 E11.49758
G1 X115.715 Y104.096 E11.50711
G1 X115.756 Y103.639 E11.51627
G1 X115.907 Y103.178 E11.52595
G1 X116.074 Y102.803 E11.53414
G1 X117.651 Y100.069 E11.59712
G1 X117.204 Y100.365 E11.60782
G1 X116.831 Y100.288 E11.61542
G1 X107.479 Y94.888 E11.83093
G1 X107.227 Y94.602 E11.83854
G1 F1477.8 X107.211 Y94.159 E11.84752
G1 F1467 X104.943 Y98.083 E11.94
G1 F1373 X104.635 Y98.364 E11.94909
G1 F1200 X103.974 Y98.411 E11.96562
G1 F1129.9 X103.471 Y98.466 E11.97902
G1 X102.979 Y98.541 E11.99221
G1 F1132.1 X102.44 Y98.65 E12.00675
G1 X101.972 Y98.764 E12.01948
G1 X101.498 Y98.902 E12.03254
G1 F1129.9 X101.017 Y99.066 E12.046
G1 X100.53 Y99.256 E12.05985
G1 X100.067 Y99.46 E12.07325
G1 F1132.1 X99.62 Y99.681 E12.08644
G1 X99.161 Y99.931 E12.10026
G1 F1129.9 X98.729 Y100.195 E12.11367
G1 F1132.1 X98.307 Y100.478 E12.12711
G1 X97.906 Y100.772 E12.14025
G1 F1129.9 X97.5 Y101.098 E12.15405
G1 X97.131 Y101.423 E12.16707
G1 F1132.1 X96.751 Y101.787 E12.18099
G1 F1129.9 X96.404 Y102.15 E12.19429
G1 F1127.8 X96.071 Y102.531 E12.20772
G1 X95.748 Y102.934 E12.22143
G1 F1132.1 X95.447 Y103.345 E12.2349
G1 F1127.8 X95.117 Y103.841 E12.25071
