;FLAVOR:Marlin
;TIME:996
;Filament used: 0.378579m
;Layer height: 0.12
;MINX:84.157
;MINY:78.4
;MINZ:0.12
;MAXX:135.844
;MAXY:141.6
;MAXZ:3.6
;Generated with Cura_SteamEngine 5.4.0
M82 ;absolute extrusion mode
; Ender 3 S1 Start G-code
G92 E0 ; Reset Extruder
G28 ; Home all axes
M420 S1 ;Use bed leveling data
G1 Z10.0 F3000 ; Move Z Axis up little to prevent scratching of Heat Bed
G1 X0 Y0

M104 S200
M190 S60
M109 S200

G1 X0.1 Y20 Z0.3 F5000.0 ; Move to start position
G1 X0.1 Y200.0 Z0.3 F1500.0 E15 ; Draw the first line
G1 X0.4 Y200.0 Z0.3 F5000.0 ; Move to side a little
G1 X0.4 Y20 Z0.3 F1500.0 E30 ; Draw the second line
G92 E0 ; Reset Extruder
G1 Z2.0 F3000 ; Move Z Axis up little to prevent scratching of Heat Bed
G1 X5 Y20 Z0.3 F5000.0 ; Move over to prevent blob squish
G92 E0
G92 E0
G1 F2400 E-0.8
;LAYER_COUNT:30
;LAYER:0
M107
M204 S2000
G0 F7500 X93.29 Y82.718 Z0.12
M204 S500
;TYPE:SKIRT
G1 F2400 E0
G1 F1500 X93.72 Y82.25 E0.01268
G1 X94.007 Y81.955 E0.0209
G1 X94.692 Y81.314 E0.03962
G1 X95.489 Y80.691 E0.05981
G1 X96.347 Y80.138 E0.08018
G1 X96.719 Y79.923 E0.08875
G1 X97.583 Y79.476 E0.10816
G1 X98.484 Y79.106 E0.1276
G1 X99.345 Y78.836 E0.14561
G1 X100.774 Y78.551 E0.17469
G1 X101.189 Y78.498 E0.18304
G1 X102.31 Y78.413 E0.20547
G1 X102.968 Y78.4 E0.2186
G1 X116.717 Y78.4 E0.49298
G1 X117.609 Y78.413 E0.51078
G1 X118.82 Y78.502 E0.53502
G1 X119.166 Y78.548 E0.54198
G1 X120.127 Y78.721 E0.56147
G1 X121.056 Y78.975 E0.58069
G1 X121.705 Y79.206 E0.59443
G1 X122.035 Y79.335 E0.60151
G1 X122.942 Y79.74 E0.62133
G1 X123.763 Y80.197 E0.64008
G1 X124.627 Y80.785 E0.66094
G1 X124.884 Y80.981 E0.66739
G1 X125.635 Y81.603 E0.68685
G1 X126.323 Y82.287 E0.70621
G1 X126.87 Y82.928 E0.72302
G1 X127.116 Y83.241 E0.73097
G1 X127.827 Y84.26 E0.75576
G1 X128.174 Y84.842 E0.76928
G1 X128.4 Y85.248 E0.77856
G1 X128.85 Y86.155 E0.79876
G1 X129.209 Y87.077 E0.81851
G1 X130.024 Y89.487 E0.86928
G1 X130.887 Y91.831 E0.91912
G1 X131.839 Y94.203 E0.97013
G1 X132.847 Y96.521 E1.02057
G1 X133.609 Y98.186 E1.05711
G1 X133.924 Y98.925 E1.07315
G1 X134.205 Y99.637 E1.08842
G1 X134.572 Y100.694 E1.11075
G1 X134.819 Y101.495 E1.12748
G1 X135.109 Y102.582 E1.14993
G1 X135.251 Y103.186 E1.16231
G1 X135.486 Y104.414 E1.18726
G1 X135.593 Y105.096 E1.20104
G1 X135.735 Y106.318 E1.22559
G1 X135.793 Y107.027 E1.23978
G1 X135.839 Y108.205 E1.26331
G1 X135.844 Y109.057 E1.28031
G1 X135.811 Y110.044 E1.30002
G1 X135.749 Y110.933 E1.31781
G1 X135.637 Y111.974 E1.3387
G1 X135.513 Y112.842 E1.3562
G1 X135.336 Y113.811 E1.37585
G1 X135.246 Y114.242 E1.38464
G1 X135.049 Y115.07 E1.40163
G1 X134.793 Y116.002 E1.42091
G1 X134.486 Y116.976 E1.44129
G1 X134.306 Y117.491 E1.45218
G1 X133.981 Y118.336 E1.47025
G1 X133.61 Y119.213 E1.48925
G1 X133.434 Y119.598 E1.4977
G1 X133.021 Y120.444 E1.51649
G1 X132.712 Y121.036 E1.52981
G1 X132.324 Y121.726 E1.54561
G1 X131.488 Y123.086 E1.57747
G1 X130.159 Y125.302 E1.62903
G1 X128.928 Y127.491 E1.67915
G1 X127.767 Y129.699 E1.72893
G1 X126.472 Y132.351 E1.78783
G1 X125.939 Y133.486 E1.81285
G1 X125.673 Y134.016 E1.82469
G1 X125.325 Y134.648 E1.83909
G1 X124.43 Y136.176 E1.87442
G1 X123.899 Y136.991 E1.89384
G1 X123.298 Y137.758 E1.91328
G1 X122.632 Y138.466 E1.93268
G1 X121.905 Y139.116 E1.95214
G1 X121.152 Y139.677 E1.97088
G1 X120.294 Y140.206 E1.99099
G1 X119.454 Y140.627 E2.00975
G1 X118.515 Y140.996 E2.02988
G1 X117.581 Y141.27 E2.0493
G1 X116.625 Y141.462 E2.06876
G1 X115.701 Y141.564 E2.08731
G1 X115.118 Y141.588 E2.09896
G1 X114.357 Y141.599 E2.11415
G1 X105.735 Y141.6 E2.28621
G1 X104.853 Y141.587 E2.30381
G1 X103.882 Y141.528 E2.32322
G1 X102.918 Y141.382 E2.34268
G1 X101.971 Y141.151 E2.36213
G1 X101.115 Y140.863 E2.38016
G1 X100.159 Y140.444 E2.40099
G1 X99.306 Y139.973 E2.42043
G1 X98.499 Y139.428 E2.43987
G1 X97.744 Y138.815 E2.45927
G1 X97.043 Y138.137 E2.47873
G1 X96.429 Y137.427 E2.49747
G1 X95.849 Y136.623 E2.51725
G1 X95.565 Y136.17 E2.52792
G1 X94.869 Y134.986 E2.55533
G1 X94.381 Y134.114 E2.57527
G1 X94.043 Y133.453 E2.59009
G1 X92.954 Y131.131 E2.64127
G1 X91.807 Y128.857 E2.69209
G1 X90.624 Y126.667 E2.74177
G1 X89.361 Y124.479 E2.79218
G1 X88.407 Y122.913 E2.82877
G1 X87.856 Y122.028 E2.84958
G1 X87.492 Y121.408 E2.86393
G1 X87.01 Y120.509 E2.88428
G1 X86.567 Y119.603 E2.90441
G1 X86.401 Y119.238 E2.91241
G1 X86.033 Y118.373 E2.93117
G1 X85.813 Y117.81 E2.94323
G1 X85.547 Y117.068 E2.95896
G1 X85.198 Y115.963 E2.98209
G1 X85.079 Y115.549 E2.99068
G1 X84.863 Y114.716 E3.00786
G1 X84.679 Y113.88 E3.02494
G1 X84.558 Y113.249 E3.03776
G1 X84.432 Y112.471 E3.05349
G1 X84.279 Y111.21 E3.07884
G1 X84.211 Y110.41 E3.09486
G1 X84.166 Y109.445 E3.11414
G1 X84.157 Y109.026 E3.1225
G1 X84.162 Y108.116 E3.14066
G1 X84.204 Y107.094 E3.16108
G1 X84.268 Y106.303 E3.17691
G1 X84.389 Y105.233 E3.1984
G1 X84.519 Y104.384 E3.21554
G1 X84.645 Y103.695 E3.22952
G1 X84.822 Y102.86 E3.24655
G1 X84.913 Y102.486 E3.25424
G1 X85.18 Y101.491 E3.27479
G1 X85.451 Y100.616 E3.29307
G1 X85.75 Y99.764 E3.31109
G1 X86.137 Y98.776 E3.33227
G1 X86.466 Y98.016 E3.3488
G1 X87.622 Y95.461 E3.40476
G1 X88.607 Y93.102 E3.45577
G1 X89.503 Y90.781 E3.50542
G1 X90.375 Y88.309 E3.55773
G1 X90.795 Y87.064 E3.58396
G1 X91.134 Y86.192 E3.60263
G1 X91.492 Y85.452 E3.61903
G1 X91.884 Y84.741 E3.63523
G1 X92.172 Y84.26 E3.64642
G1 X92.71 Y83.448 E3.66586
G1 X93.29 Y82.718 E3.68447
M204 S2000
G0 F7500 X93.603 Y82.967
M204 S500
G1 F1500 X94.006 Y82.529 E3.69634
G1 X94.281 Y82.247 E3.7042
G1 X94.939 Y81.629 E3.72222
G1 X95.706 Y81.027 E3.74168
G1 X96.547 Y80.484 E3.76165
G1 X96.903 Y80.278 E3.76986
G1 X97.736 Y79.846 E3.78859
G1 X98.604 Y79.488 E3.80733
G1 X99.465 Y79.218 E3.82533
G1 X100.825 Y78.948 E3.853
G1 X101.22 Y78.897 E3.86095
G1 X102.318 Y78.813 E3.88293
G1 X102.976 Y78.8 E3.89606
G1 X116.711 Y78.8 E4.17016
G1 X117.58 Y78.812 E4.1875
G1 X118.791 Y78.901 E4.21173
G1 X119.096 Y78.942 E4.21787
G1 X120.022 Y79.107 E4.23664
G1 X120.922 Y79.352 E4.25526
G1 X121.559 Y79.579 E4.26875
G1 X121.889 Y79.708 E4.27582
G1 X122.747 Y80.09 E4.29457
G1 X123.568 Y80.547 E4.31332
G1 X124.385 Y81.104 E4.33305
G1 X124.629 Y81.289 E4.33916
G1 X125.353 Y81.887 E4.3579
G1 X126.019 Y82.547 E4.37661
G1 X126.556 Y83.175 E4.3931
G1 X126.788 Y83.47 E4.40059
G1 X127.483 Y84.465 E4.42481
G1 X127.824 Y85.037 E4.4381
G1 X128.05 Y85.443 E4.44737
G1 X128.477 Y86.3 E4.46648
G1 X128.83 Y87.205 E4.48587
G1 X129.645 Y89.615 E4.53664
G1 X130.516 Y91.98 E4.58693
G1 X131.472 Y94.363 E4.63817
G1 X132.483 Y96.687 E4.68875
G1 X133.241 Y98.343 E4.72509
G1 X133.552 Y99.072 E4.74091
G1 X133.827 Y99.768 E4.75584
G1 X134.19 Y100.812 E4.7779
G1 X134.433 Y101.598 E4.79432
G1 X134.72 Y102.674 E4.81654
G1 X134.858 Y103.261 E4.82858
G1 X135.091 Y104.476 E4.85326
G1 X135.196 Y105.142 E4.86672
G1 X135.336 Y106.351 E4.89101
G1 X135.393 Y107.043 E4.90486
G1 X135.439 Y108.207 E4.92811
G1 X135.444 Y109.044 E4.94481
G1 X135.412 Y110.016 E4.96422
G1 X135.351 Y110.89 E4.98171
G1 X135.239 Y111.931 E5.0026
G1 X135.119 Y112.771 E5.01953
G1 X134.945 Y113.729 E5.03896
G1 X134.857 Y114.149 E5.04753
G1 X134.663 Y114.964 E5.06425
G1 X134.407 Y115.896 E5.08353
G1 X134.108 Y116.844 E5.10337
G1 X133.928 Y117.359 E5.11426
G1 X133.613 Y118.18 E5.13181
G1 X133.246 Y119.047 E5.15059
G1 X133.075 Y119.423 E5.15884
G1 X132.667 Y120.259 E5.1774
G1 X132.363 Y120.84 E5.19049
G1 X131.983 Y121.517 E5.20598
G1 X131.147 Y122.877 E5.23784
G1 X129.816 Y125.096 E5.28948
G1 X128.579 Y127.295 E5.33983
G1 X127.413 Y129.513 E5.38983
G1 X126.113 Y132.175 E5.44895
G1 X125.582 Y133.307 E5.4739
G1 X125.323 Y133.823 E5.48543
G1 X124.98 Y134.446 E5.49962
G1 X124.095 Y135.958 E5.53458
G1 X123.584 Y136.745 E5.55331
G1 X123.006 Y137.484 E5.57203
G1 X122.365 Y138.168 E5.59074
G1 X121.666 Y138.795 E5.60947
G1 X120.913 Y139.356 E5.62821
G1 X120.115 Y139.848 E5.64692
G1 X119.275 Y140.269 E5.66567
G1 X118.402 Y140.612 E5.68439
G1 X117.502 Y140.878 E5.70312
G1 X116.581 Y141.064 E5.72187
G1 X115.684 Y141.164 E5.73988
G1 X115.112 Y141.188 E5.75131
G1 X114.357 Y141.199 E5.76637
G1 X105.741 Y141.2 E5.93832
G1 X104.877 Y141.188 E5.95556
G1 X103.941 Y141.132 E5.97427
G1 X103.012 Y140.993 E5.99302
G1 X102.099 Y140.772 E6.01176
G1 X101.243 Y140.484 E6.02979
G1 X100.352 Y140.094 E6.0492
G1 X99.529 Y139.641 E6.06794
G1 X98.751 Y139.117 E6.08666
G1 X98.022 Y138.527 E6.10538
G1 X97.346 Y137.875 E6.12412
G1 X96.732 Y137.165 E6.14285
G1 X96.188 Y136.411 E6.16141
G1 X95.91 Y135.967 E6.17186
G1 X95.218 Y134.791 E6.19909
G1 X94.737 Y133.932 E6.21874
G1 X94.405 Y133.283 E6.23329
G1 X93.316 Y130.961 E6.28447
G1 X92.164 Y128.677 E6.33552
G1 X90.976 Y126.477 E6.38541
G1 X89.703 Y124.271 E6.43624
G1 X88.749 Y122.705 E6.47283
G1 X88.201 Y121.825 E6.49352
G1 X87.837 Y121.205 E6.50787
G1 X87.369 Y120.333 E6.52762
G1 X86.931 Y119.437 E6.54752
G1 X86.769 Y119.082 E6.55531
G1 X86.406 Y118.227 E6.57384
G1 X86.186 Y117.664 E6.58591
G1 X85.928 Y116.947 E6.60111
G1 X85.582 Y115.853 E6.62401
G1 X85.466 Y115.449 E6.6324
G1 X85.254 Y114.63 E6.64928
G1 X85.072 Y113.804 E6.66616
G1 X84.953 Y113.185 E6.67874
G1 X84.829 Y112.423 E6.69415
G1 X84.678 Y111.176 E6.71921
G1 X84.611 Y110.391 E6.73494
G1 X84.566 Y109.436 E6.75402
G1 X84.557 Y109.028 E6.76216
G1 X84.562 Y108.132 E6.78004
G1 X84.603 Y107.126 E6.80013
G1 X84.665 Y106.348 E6.81571
G1 X84.784 Y105.293 E6.8369
G1 X84.912 Y104.456 E6.85379
G1 X85.036 Y103.778 E6.86755
G1 X85.211 Y102.955 E6.88434
G1 X85.302 Y102.581 E6.89202
G1 X85.562 Y101.609 E6.9121
G1 X85.828 Y100.748 E6.93008
G1 X86.122 Y99.91 E6.94781
G1 X86.504 Y98.935 E6.9687
G1 X86.83 Y98.181 E6.9851
G1 X87.986 Y95.626 E7.04106
G1 X88.976 Y93.256 E7.09232
G1 X89.876 Y90.925 E7.14218
G1 X90.752 Y88.442 E7.19472
G1 X91.168 Y87.209 E7.22069
G1 X91.507 Y86.337 E7.23936
G1 X91.842 Y85.645 E7.25471
G1 X92.227 Y84.946 E7.27063
G1 X92.506 Y84.48 E7.28147
G1 X93.023 Y83.697 E7.30019
G1 X93.603 Y82.967 E7.3188
M204 S2000
G0 F7500 X93.898 Y83.238
M204 S500
G1 F1500 X94.293 Y82.808 E7.33045
G1 X94.555 Y82.539 E7.33795
G1 X95.213 Y81.921 E7.35596
G1 X95.923 Y81.363 E7.37398
G1 X96.748 Y80.83 E7.39358
G1 X97.088 Y80.633 E7.40143
G1 X97.889 Y80.216 E7.41945
G1 X98.724 Y79.87 E7.43748
G1 X99.585 Y79.6 E7.45549
G1 X100.877 Y79.345 E7.48177
G1 X101.251 Y79.296 E7.4893
G1 X102.326 Y79.213 E7.51082
G1 X102.984 Y79.2 E7.52395
G1 X116.706 Y79.2 E7.79779
G1 X117.551 Y79.211 E7.81465
G1 X118.739 Y79.298 E7.83842
G1 X119.027 Y79.336 E7.84422
G1 X119.917 Y79.493 E7.86225
G1 X120.788 Y79.729 E7.88026
G1 X121.413 Y79.951 E7.8935
G1 X121.727 Y80.074 E7.90023
G1 X122.553 Y80.44 E7.91826
G1 X123.343 Y80.878 E7.93628
G1 X124.144 Y81.424 E7.95563
G1 X124.375 Y81.598 E7.9614
G1 X125.072 Y82.172 E7.97942
G1 X125.715 Y82.807 E7.99745
G1 X126.242 Y83.423 E8.01363
G1 X126.46 Y83.699 E8.02065
G1 X127.139 Y84.67 E8.0443
G1 X127.474 Y85.232 E8.05735
G1 X127.7 Y85.638 E8.06663
G1 X128.104 Y86.446 E8.08465
G1 X128.451 Y87.333 E8.10366
G1 X129.266 Y89.743 E8.15443
G1 X130.145 Y92.129 E8.20517
G1 X131.105 Y94.523 E8.25665
G1 X132.119 Y96.854 E8.30738
G1 X132.873 Y98.5 E8.34351
G1 X133.18 Y99.219 E8.35911
G1 X133.449 Y99.9 E8.37372
G1 X133.808 Y100.93 E8.39549
G1 X134.047 Y101.701 E8.41159
G1 X134.331 Y102.765 E8.43357
G1 X134.465 Y103.336 E8.44528
G1 X134.696 Y104.539 E8.46972
G1 X134.799 Y105.188 E8.48284
G1 X134.937 Y106.384 E8.50686
G1 X134.993 Y107.059 E8.52038
G1 X135.039 Y108.209 E8.54335
G1 X135.044 Y109.031 E8.55975
G1 X135.013 Y109.988 E8.57886
G1 X134.953 Y110.847 E8.59604
G1 X134.841 Y111.888 E8.61694
G1 X134.725 Y112.7 E8.6333
G1 X134.554 Y113.647 E8.65251
G1 X134.468 Y114.056 E8.66085
G1 X134.277 Y114.858 E8.6773
G1 X134.021 Y115.79 E8.69659
G1 X133.73 Y116.712 E8.71588
G1 X133.554 Y117.216 E8.72654
G1 X133.245 Y118.024 E8.7438
G1 X132.882 Y118.881 E8.76237
G1 X132.715 Y119.248 E8.77042
G1 X132.313 Y120.073 E8.78873
G1 X132.014 Y120.644 E8.8016
G1 X131.642 Y121.308 E8.81679
G1 X130.806 Y122.668 E8.84864
G1 X129.473 Y124.89 E8.90035
G1 X128.23 Y127.099 E8.95094
G1 X127.059 Y129.327 E9.00117
G1 X125.754 Y131.999 E9.06051
G1 X125.225 Y133.128 E9.08539
G1 X124.973 Y133.63 E9.0966
G1 X124.635 Y134.244 E9.11059
G1 X123.759 Y135.741 E9.1452
G1 X123.269 Y136.499 E9.16321
G1 X122.714 Y137.211 E9.18123
G1 X122.098 Y137.871 E9.19924
G1 X121.426 Y138.475 E9.21727
G1 X120.703 Y139.016 E9.23529
G1 X119.935 Y139.491 E9.25331
G1 X119.128 Y139.897 E9.27134
G1 X118.288 Y140.229 E9.28937
G1 X117.422 Y140.486 E9.30739
G1 X116.537 Y140.666 E9.32542
G1 X115.64 Y140.766 E9.34343
G1 X115.106 Y140.788 E9.35409
G1 X114.357 Y140.799 E9.36904
G1 X105.746 Y140.8 E9.54088
G1 X104.9 Y140.789 E9.55777
G1 X103.999 Y140.736 E9.57578
G1 X103.105 Y140.604 E9.59381
G1 X102.227 Y140.393 E9.61184
G1 X101.371 Y140.105 E9.62986
G1 X100.544 Y139.743 E9.64787
G1 X99.752 Y139.309 E9.6659
G1 X99.002 Y138.806 E9.68392
G1 X98.299 Y138.239 E9.70194
G1 X97.648 Y137.613 E9.71996
G1 X97.056 Y136.931 E9.73799
G1 X96.527 Y136.199 E9.75601
G1 X96.255 Y135.764 E9.76625
G1 X95.567 Y134.595 E9.79332
G1 X95.093 Y133.75 E9.81265
G1 X94.767 Y133.113 E9.82693
G1 X93.678 Y130.791 E9.87811
G1 X92.521 Y128.497 E9.92939
G1 X91.328 Y126.287 E9.9795
G1 X90.045 Y124.063 E10.03074
G1 X89.091 Y122.497 E10.06734
G1 X88.546 Y121.622 E10.08791
G1 X88.182 Y121.002 E10.10226
G1 X87.728 Y120.157 E10.1214
G1 X87.295 Y119.271 E10.14108
G1 X87.137 Y118.925 E10.14867
G1 X86.778 Y118.081 E10.16697
G1 X86.562 Y117.529 E10.1788
G1 X86.309 Y116.826 E10.19371
G1 X85.966 Y115.742 E10.2164
G1 X85.853 Y115.349 E10.22456
G1 X85.645 Y114.544 E10.24115
G1 X85.465 Y113.728 E10.25783
G1 X85.348 Y113.12 E10.27018
G1 X85.226 Y112.375 E10.28525
G1 X85.077 Y111.142 E10.31003
G1 X85.011 Y110.372 E10.32546
G1 X84.966 Y109.427 E10.34434
G1 X84.957 Y109.03 E10.35226
G1 X84.962 Y108.148 E10.36986
G1 X85.002 Y107.157 E10.38966
G1 X85.062 Y106.393 E10.40495
G1 X85.179 Y105.353 E10.42583
G1 X85.305 Y104.528 E10.44249
G1 X85.427 Y103.861 E10.45602
G1 X85.6 Y103.049 E10.47259
G1 X85.688 Y102.684 E10.48008
G1 X85.944 Y101.727 E10.49985
G1 X86.205 Y100.88 E10.51754
G1 X86.494 Y100.056 E10.53496
G1 X86.871 Y99.094 E10.55558
G1 X87.194 Y98.346 E10.57184
G1 X88.35 Y95.791 E10.62781
G1 X89.345 Y93.41 E10.6793
G1 X90.249 Y91.069 E10.72938
G1 X91.129 Y88.575 E10.78216
G1 X91.541 Y87.353 E10.8079
G1 X91.867 Y86.511 E10.82591
G1 X92.192 Y85.838 E10.84083
G1 X92.571 Y85.151 E10.85649
G1 X92.84 Y84.7 E10.86697
G1 X93.336 Y83.946 E10.88498
G1 X93.898 Y83.238 E10.90302
M204 S2000
G1 F2400 E10.10302
;MESH:Cylinder_Front_Lid_x3.stl
G0 F7500 X100.797 Y89.969
G0 X102.214 Y90.786
G0 X103.946 Y95.132
G0 X104.503 Y95.998
G0 X104.61 Y95.719
M204 S500
;TYPE:WALL-INNER
G1 F2400 E10.90302
G1 F1500 X104.215 Y95.567 E10.91146
G1 X103.9 Y95.314 E10.91952
G1 X103.762 Y95.107 E10.92449
G1 X103.6 Y94.707 E10.9331
G1 X103.601 Y91.727 E10.99257
G1 X103.634 Y91.53 E10.99656
G1 X103.769 Y91.183 E11.00399
G1 X103.953 Y90.954 E11.00985
G1 X104.169 Y90.792 E11.01524
G1 F1324.5 X104.618 Y90.556 E11.0267
G1 F1171.9 X115.456 Y90.55 E11.30355
G1 F1239.7 X115.709 Y90.69 E11.31053
G1 F1411.8 X115.92 Y90.851 E11.31615
G1 F1500 X116.216 Y91.143 E11.32445
G1 X116.366 Y91.527 E11.33268
G1 X116.4 Y91.726 E11.33671
G1 X116.4 Y94.674 E11.39554
G1 X116.27 Y95.092 E11.40427
G1 X115.994 Y95.424 E11.41289
G1 X115.729 Y95.6 E11.41924
G1 X115.38 Y95.718 E11.42659
G1 X114.972 Y95.708 E11.43474
G1 X114.296 Y95.482 E11.44896
G1 X113.909 Y95.363 E11.45704
G1 X113.316 Y95.201 E11.46931
G1 X112.79 Y95.084 E11.48006
G1 X112.292 Y94.992 E11.49017
G1 X111.719 Y94.907 E11.50173
G1 X111.277 Y94.861 E11.5106
G1 X110.748 Y94.821 E11.52118
G1 X110.234 Y94.803 E11.53145
G1 X109.749 Y94.802 E11.54112
G1 X109.236 Y94.821 E11.55137
G1 X108.695 Y94.862 E11.5622
G1 X108.181 Y94.92 E11.57252
G1 X107.611 Y95.008 E11.58403
G1 X107.179 Y95.09 E11.5928
G1 X106.664 Y95.206 E11.60334
G1 X106.065 Y95.371 E11.61574
G1 X105.027 Y95.704 E11.63749
G1 X104.61 Y95.719 E11.64582
M204 S2000
G1 F2400 E10.84582
G0 F7500 X104.503 Y95.998
G0 X105.113 Y96.313
G0 X105.098 Y97.856
G0 X103.74 Y98.532
G0 X102.499 Y99.411
G0 X101.381 Y100.439
G0 X100.4 Y101.601
G0 X99.577 Y102.878
