;FLAVOR:Marlin
;TIME:1034
;Filament used: 0.325629m
;Layer height: 0.12
;MINX:79.512
;MINY:81.278
;MINZ:0.12
;MAXX:140.489
;MAXY:146.764
;MAXZ:3.36
;Generated with Cura_SteamEngine 5.4.0
M82 ;absolute extrusion mode
; Ender 3 S1 Start G-code
G92 E0 ; Reset Extruder
G28 ; Home all axes
M420 S1 ;Use bed leveling data
G1 Z10.0 F3000 ; Move Z Axis up little to prevent scratching of Heat Bed
G1 X0 Y0

M104 S200
M190 S60
M109 S200

G1 X0.1 Y20 Z0.3 F5000.0 ; Move to start position
G1 X0.1 Y200.0 Z0.3 F1500.0 E15 ; Draw the first line
G1 X0.4 Y200.0 Z0.3 F5000.0 ; Move to side a little
G1 X0.4 Y20 Z0.3 F1500.0 E30 ; Draw the second line
G92 E0 ; Reset Extruder
G1 Z2.0 F3000 ; Move Z Axis up little to prevent scratching of Heat Bed
G1 X5 Y20 Z0.3 F5000.0 ; Move over to prevent blob squish
G92 E0
G92 E0
G1 F2400 E-0.8
;LAYER_COUNT:28
;LAYER:0
M107
M204 S2000
G0 F7500 X90.839 Y86.626 Z0.12
M204 S500
;TYPE:SKIRT
G1 F2400 E0
G1 F1500 X91.36 Y86.102 E0.01475
G1 X91.779 Y85.707 E0.02624
G1 X92.354 Y85.204 E0.04148
G1 X92.799 Y84.842 E0.05293
G1 X93.56 Y84.279 E0.07182
G1 X94.43 Y83.73 E0.09235
G1 X95.059 Y83.371 E0.1068
G1 X95.983 Y82.9 E0.1275
G1 X96.519 Y82.66 E0.13922
G1 X97.237 Y82.37 E0.15467
G1 X97.524 Y82.266 E0.16077
G1 X98.156 Y82.059 E0.17404
G1 X98.616 Y81.925 E0.1836
G1 X99.31 Y81.745 E0.19791
G1 X99.806 Y81.635 E0.20805
G1 X100.522 Y81.503 E0.22257
G1 X100.824 Y81.457 E0.22867
G1 X101.519 Y81.374 E0.24264
G1 X102.224 Y81.315 E0.25676
G1 X103.126 Y81.278 E0.27477
G1 X103.656 Y81.29 E0.28535
G1 X105.47 Y81.378 E0.32159
G1 X108.105 Y81.478 E0.37422
G1 X110.63 Y81.502 E0.42461
G1 X113.104 Y81.454 E0.47399
G1 X116.11 Y81.314 E0.53404
G1 X117.063 Y81.312 E0.55306
G1 X117.674 Y81.339 E0.56527
G1 X118.386 Y81.394 E0.57952
G1 X118.886 Y81.451 E0.58956
G1 X119.948 Y81.625 E0.61103
G1 X120.582 Y81.763 E0.62398
G1 X121.389 Y81.97 E0.64061
G1 X121.741 Y82.075 E0.64794
G1 X122.589 Y82.369 E0.66585
G1 X123.412 Y82.694 E0.68351
G1 X124.267 Y83.077 E0.7022
G1 X125.045 Y83.505 E0.71992
G1 X125.878 Y84.011 E0.73937
G1 X126.921 Y84.732 E0.76468
G1 X127.496 Y85.183 E0.77926
G1 X128.224 Y85.809 E0.79842
G1 X128.662 Y86.245 E0.81076
G1 X129.124 Y86.731 E0.82414
G1 X129.649 Y87.327 E0.83999
G1 X130.092 Y87.869 E0.85396
G1 X130.914 Y89.018 E0.88215
G1 X131.344 Y89.711 E0.89843
G1 X131.805 Y90.535 E0.91727
G1 X133.227 Y93.274 E0.97885
G1 X134.464 Y95.488 E1.02947
G1 X135.735 Y97.616 E1.07893
G1 X137.654 Y100.606 E1.14983
G1 X138.203 Y101.501 E1.17078
G1 X138.819 Y102.666 E1.19708
G1 X139.107 Y103.307 E1.21111
G1 X139.412 Y104.065 E1.22741
G1 X139.619 Y104.643 E1.23966
G1 X139.961 Y105.798 E1.2637
G1 X140.101 Y106.387 E1.27578
G1 X140.269 Y107.261 E1.29355
G1 X140.388 Y108.192 E1.31228
G1 X140.457 Y109.019 E1.32884
G1 X140.489 Y110.255 E1.35351
G1 X140.474 Y110.707 E1.36254
G1 X140.406 Y111.607 E1.38055
G1 X140.302 Y112.5 E1.39849
G1 X140.151 Y113.424 E1.41717
G1 X139.934 Y114.292 E1.43503
G1 X139.713 Y115.04 E1.45059
G1 X139.497 Y115.698 E1.46441
G1 X139.354 Y116.088 E1.4727
G1 X139.056 Y116.814 E1.48836
G1 X138.933 Y117.086 E1.49432
G1 X138.63 Y117.703 E1.50804
G1 X138.364 Y118.206 E1.51939
G1 X138.01 Y118.822 E1.53357
G1 X137.647 Y119.404 E1.54726
G1 X136.098 Y121.797 E1.60415
G1 X134.791 Y123.954 E1.65448
G1 X133.546 Y126.144 E1.70475
G1 X131.558 Y129.898 E1.78952
G1 X131.211 Y130.503 E1.80344
G1 X131.006 Y130.836 E1.81124
G1 X130.59 Y131.459 E1.82619
G1 X130.361 Y131.778 E1.83403
G1 X129.934 Y132.333 E1.848
G1 X129.691 Y132.629 E1.85565
G1 X129.248 Y133.132 E1.86902
G1 X128.944 Y133.457 E1.8779
G1 X128.416 Y133.983 E1.89278
G1 X127.899 Y134.464 E1.90687
G1 X127.021 Y135.193 E1.92964
G1 X126.224 Y135.759 E1.94915
G1 X125.782 Y136.047 E1.95968
G1 X125.211 Y136.393 E1.973
G1 X124.695 Y136.684 E1.98482
G1 X123.908 Y137.087 E2.00247
G1 X123.286 Y137.371 E2.01611
G1 X121.145 Y138.311 E2.06278
G1 X118.89 Y139.379 E2.11257
G1 X116.618 Y140.535 E2.16344
G1 X114.46 Y141.708 E2.21246
G1 X111.735 Y143.319 E2.27563
G1 X111.595 Y143.394 E2.2788
G1 X110.805 Y143.868 E2.29718
G1 X109.832 Y144.414 E2.31945
G1 X109.162 Y144.756 E2.33446
G1 X108.688 Y144.978 E2.34491
G1 X108.018 Y145.263 E2.35944
G1 X107.358 Y145.518 E2.37356
G1 X106.677 Y145.754 E2.38794
G1 X106.048 Y145.949 E2.40108
G1 X105.346 Y146.14 E2.4156
G1 X104.451 Y146.351 E2.43395
G1 X103.5 Y146.529 E2.45326
G1 X102.999 Y146.599 E2.46335
G1 X102.417 Y146.667 E2.47505
G1 X101.846 Y146.716 E2.48648
G1 X101.203 Y146.751 E2.49933
G1 X100.693 Y146.764 E2.50951
G1 X99.912 Y146.757 E2.5251
G1 X99.091 Y146.718 E2.5415
G1 X98.338 Y146.654 E2.55658
G1 X97.662 Y146.573 E2.57017
G1 X96.962 Y146.467 E2.5843
G1 X96.344 Y146.351 E2.59685
G1 X95.594 Y146.182 E2.61219
G1 X94.977 Y146.018 E2.62493
G1 X94.307 Y145.818 E2.63888
G1 X93.641 Y145.595 E2.6529
G1 X92.934 Y145.329 E2.66797
G1 X92.355 Y145.088 E2.68049
G1 X91.722 Y144.799 E2.69438
G1 X91.148 Y144.515 E2.70716
G1 X90.493 Y144.159 E2.72203
G1 X89.891 Y143.806 E2.73596
G1 X89.264 Y143.408 E2.75078
G1 X88.747 Y143.053 E2.7633
G1 X88.172 Y142.63 E2.77754
G1 X87.56 Y142.146 E2.79311
G1 X87.09 Y141.753 E2.80534
G1 X86.498 Y141.212 E2.82134
G1 X86.106 Y140.829 E2.83228
G1 X85.654 Y140.36 E2.84528
G1 X85.277 Y139.943 E2.8565
G1 X84.754 Y139.318 E2.87276
G1 X84.166 Y138.559 E2.89192
G1 X83.687 Y137.886 E2.90841
G1 X83.455 Y137.533 E2.91683
G1 X83.143 Y137.024 E2.92875
G1 X82.813 Y136.454 E2.94189
G1 X82.46 Y135.791 E2.95688
G1 X82.15 Y135.154 E2.97102
G1 X81.868 Y134.523 E2.98481
G1 X81.611 Y133.893 E2.99839
G1 X81.346 Y133.172 E3.01372
G1 X81.155 Y132.587 E3.026
G1 X80.946 Y131.863 E3.04104
G1 X80.719 Y130.953 E3.05976
G1 X80.533 Y130.034 E3.07847
G1 X80.45 Y129.515 E3.08896
G1 X80.382 Y128.999 E3.09934
G1 X80.329 Y128.499 E3.10938
G1 X80.264 Y127.601 E3.12734
G1 X80.246 Y127.06 E3.13815
G1 X80.244 Y126.121 E3.15688
G1 X80.287 Y124.293 E3.19337
G1 X80.291 Y121.724 E3.24464
G1 X80.222 Y119.207 E3.29489
G1 X80.085 Y116.739 E3.34422
G1 X79.869 Y114.168 E3.3957
G1 X79.611 Y111.794 E3.44336
G1 X79.545 Y111.022 E3.45882
G1 X79.512 Y109.721 E3.48479
G1 X79.528 Y109.264 E3.49392
G1 X79.596 Y108.377 E3.51167
G1 X79.7 Y107.491 E3.52947
G1 X79.859 Y106.532 E3.54887
G1 X80.069 Y105.699 E3.56602
G1 X80.292 Y104.946 E3.58169
G1 X80.506 Y104.295 E3.59536
G1 X80.646 Y103.913 E3.60348
G1 X80.944 Y103.186 E3.61916
G1 X81.067 Y102.914 E3.62512
G1 X81.37 Y102.297 E3.63884
G1 X81.636 Y101.794 E3.65019
G1 X81.987 Y101.183 E3.66425
G1 X82.641 Y100.13 E3.68899
G1 X83.366 Y99.008 E3.71565
G1 X84.671 Y96.859 E3.76582
G1 X85.936 Y94.635 E3.81688
G1 X87.093 Y92.463 E3.86599
G1 X88.284 Y90.151 E3.91789
G1 X88.791 Y89.272 E3.93814
G1 X89.178 Y88.687 E3.95214
G1 X89.433 Y88.328 E3.96093
G1 X89.84 Y87.792 E3.97436
G1 X90.184 Y87.368 E3.98526
G1 X90.643 Y86.837 E3.99926
G1 X90.839 Y86.626 E4.00501
M204 S2000
G0 F7500 X91.123 Y86.908
M204 S500
G1 F1500 X91.634 Y86.393 E4.01949
G1 X92.043 Y86.008 E4.0307
G1 X92.607 Y85.514 E4.04566
G1 X93.037 Y85.164 E4.05672
G1 X93.798 Y84.601 E4.07562
G1 X94.628 Y84.077 E4.0952
G1 X95.241 Y83.727 E4.10929
G1 X96.147 Y83.265 E4.12959
G1 X96.669 Y83.031 E4.141
G1 X97.373 Y82.746 E4.15616
G1 X97.649 Y82.646 E4.16202
G1 X98.268 Y82.443 E4.17502
G1 X98.716 Y82.312 E4.18433
G1 X99.397 Y82.136 E4.19837
G1 X99.893 Y82.026 E4.20851
G1 X100.582 Y81.898 E4.22249
G1 X100.871 Y81.854 E4.22832
G1 X101.553 Y81.773 E4.24203
G1 X102.24 Y81.715 E4.25579
G1 X103.142 Y81.678 E4.2738
G1 X103.637 Y81.69 E4.28369
G1 X105.451 Y81.778 E4.31993
G1 X108.09 Y81.878 E4.37263
G1 X110.634 Y81.902 E4.4234
G1 X113.123 Y81.854 E4.47308
G1 X116.111 Y81.714 E4.53278
G1 X117.046 Y81.712 E4.55143
G1 X117.643 Y81.738 E4.56336
G1 X118.341 Y81.792 E4.57733
G1 X118.822 Y81.846 E4.58699
G1 X119.863 Y82.016 E4.60804
G1 X120.483 Y82.15 E4.6207
G1 X121.275 Y82.353 E4.63701
G1 X121.61 Y82.453 E4.64399
G1 X122.442 Y82.741 E4.66156
G1 X123.248 Y83.059 E4.67885
G1 X124.103 Y83.442 E4.69755
G1 X124.838 Y83.847 E4.71429
G1 X125.651 Y84.34 E4.73327
G1 X126.674 Y85.047 E4.75809
G1 X127.235 Y85.486 E4.7723
G1 X127.942 Y86.093 E4.7909
G1 X128.372 Y86.52 E4.80299
G1 X128.824 Y86.996 E4.81609
G1 X129.339 Y87.58 E4.83163
G1 X129.782 Y88.122 E4.8456
G1 X130.574 Y89.229 E4.87276
G1 X130.995 Y89.906 E4.88867
G1 X131.45 Y90.719 E4.90726
G1 X132.878 Y93.469 E4.9691
G1 X134.121 Y95.693 E5.01994
G1 X135.398 Y97.832 E5.06966
G1 X137.313 Y100.815 E5.1404
G1 X137.849 Y101.688 E5.16084
G1 X138.465 Y102.853 E5.18714
G1 X138.736 Y103.456 E5.20033
G1 X139.035 Y104.2 E5.21633
G1 X139.242 Y104.778 E5.22859
G1 X139.572 Y105.891 E5.25175
G1 X139.708 Y106.463 E5.26349
G1 X139.872 Y107.312 E5.28074
G1 X139.989 Y108.226 E5.29913
G1 X140.057 Y109.03 E5.31523
G1 X140.089 Y110.242 E5.33943
G1 X140.075 Y110.677 E5.34811
G1 X140.009 Y111.561 E5.3658
G1 X139.907 Y112.435 E5.38336
G1 X139.756 Y113.359 E5.40205
G1 X139.55 Y114.179 E5.41892
G1 X139.333 Y114.915 E5.43423
G1 X139.121 Y115.56 E5.44778
G1 X138.978 Y115.95 E5.45607
G1 X138.692 Y116.649 E5.47114
G1 X138.574 Y116.91 E5.47686
G1 X138.277 Y117.516 E5.49033
G1 X138.017 Y118.007 E5.50141
G1 X137.671 Y118.61 E5.51529
G1 X137.311 Y119.187 E5.52886
G1 X135.762 Y121.58 E5.58575
G1 X134.443 Y123.756 E5.63653
G1 X133.198 Y125.946 E5.6868
G1 X131.211 Y129.699 E5.77154
G1 X130.87 Y130.293 E5.78521
G1 X130.665 Y130.626 E5.79301
G1 X130.265 Y131.226 E5.80741
G1 X130.044 Y131.534 E5.81497
G1 X129.625 Y132.079 E5.82869
G1 X129.39 Y132.365 E5.83608
G1 X128.956 Y132.859 E5.8492
G1 X128.662 Y133.174 E5.8578
G1 X128.144 Y133.69 E5.87239
G1 X127.643 Y134.156 E5.88604
G1 X126.765 Y134.885 E5.90882
G1 X126.006 Y135.424 E5.92739
G1 X125.575 Y135.705 E5.93766
G1 X125.014 Y136.045 E5.95075
G1 X124.513 Y136.328 E5.96224
G1 X123.742 Y136.723 E5.97952
G1 X123.125 Y137.005 E5.99306
G1 X120.974 Y137.949 E6.03994
G1 X118.719 Y139.017 E6.08973
G1 X116.437 Y140.178 E6.14083
G1 X114.256 Y141.364 E6.19037
G1 X111.546 Y142.966 E6.25319
G1 X111.406 Y143.041 E6.25636
G1 X110.609 Y143.519 E6.27491
G1 X109.65 Y144.058 E6.29686
G1 X108.992 Y144.394 E6.31161
G1 X108.531 Y144.61 E6.32177
G1 X107.874 Y144.89 E6.33602
G1 X107.227 Y145.14 E6.34986
G1 X106.558 Y145.372 E6.36399
G1 X105.943 Y145.563 E6.37684
G1 X105.254 Y145.751 E6.39109
G1 X104.377 Y145.958 E6.40908
G1 X103.444 Y146.133 E6.42802
G1 X102.953 Y146.202 E6.43791
G1 X102.383 Y146.268 E6.44937
G1 X101.812 Y146.317 E6.4608
G1 X101.193 Y146.351 E6.47317
G1 X100.697 Y146.364 E6.48308
G1 X99.931 Y146.357 E6.49836
G1 X99.124 Y146.319 E6.51449
G1 X98.385 Y146.257 E6.52928
G1 X97.722 Y146.178 E6.54261
G1 X97.036 Y146.074 E6.55646
G1 X96.432 Y145.961 E6.56872
G1 X95.696 Y145.795 E6.58377
G1 X95.091 Y145.635 E6.59626
G1 X94.434 Y145.439 E6.60995
G1 X93.782 Y145.221 E6.62366
G1 X93.088 Y144.96 E6.63846
G1 X92.521 Y144.724 E6.65072
G1 X91.9 Y144.441 E6.66434
G1 X91.339 Y144.163 E6.67683
G1 X90.695 Y143.814 E6.69145
G1 X90.105 Y143.468 E6.7051
G1 X89.49 Y143.078 E6.71963
G1 X88.984 Y142.731 E6.73187
G1 X88.42 Y142.316 E6.74585
G1 X87.816 Y141.839 E6.76121
G1 X87.36 Y141.458 E6.77307
G1 X86.777 Y140.925 E6.78883
G1 X86.394 Y140.552 E6.7995
G1 X85.951 Y140.092 E6.81224
G1 X85.584 Y139.686 E6.82316
G1 X85.07 Y139.073 E6.83913
G1 X84.492 Y138.327 E6.85796
G1 X84.021 Y137.666 E6.87416
G1 X83.796 Y137.324 E6.88233
G1 X83.489 Y136.824 E6.89404
G1 X83.166 Y136.266 E6.9069
G1 X82.82 Y135.616 E6.9216
G1 X82.515 Y134.99 E6.93549
G1 X82.238 Y134.372 E6.94901
G1 X81.986 Y133.755 E6.96231
G1 X81.726 Y133.048 E6.97734
G1 X81.539 Y132.476 E6.98935
G1 X81.334 Y131.766 E7.0041
G1 X81.111 Y130.874 E7.02245
G1 X80.928 Y129.971 E7.04084
G1 X80.847 Y129.462 E7.05112
G1 X80.78 Y128.956 E7.06131
G1 X80.728 Y128.47 E7.07106
G1 X80.664 Y127.587 E7.08873
G1 X80.646 Y127.059 E7.09927
G1 X80.644 Y126.13 E7.11781
G1 X80.687 Y124.302 E7.1543
G1 X80.691 Y121.725 E7.20573
G1 X80.622 Y119.196 E7.25621
G1 X80.484 Y116.706 E7.30598
G1 X80.268 Y114.135 E7.35747
G1 X80.01 Y111.76 E7.40514
G1 X79.944 Y110.988 E7.42061
G1 X79.912 Y109.735 E7.44562
G1 X79.927 Y109.294 E7.45443
G1 X79.993 Y108.424 E7.47184
G1 X80.095 Y107.556 E7.48928
G1 X80.247 Y106.63 E7.508
G1 X80.453 Y105.812 E7.52484
G1 X80.672 Y105.071 E7.54026
G1 X80.882 Y104.433 E7.55366
G1 X81.022 Y104.051 E7.56178
G1 X81.308 Y103.351 E7.57687
G1 X81.426 Y103.09 E7.58259
G1 X81.723 Y102.484 E7.59606
G1 X81.983 Y101.993 E7.60714
G1 X82.327 Y101.394 E7.62093
G1 X82.977 Y100.347 E7.64552
G1 X83.708 Y99.216 E7.67239
G1 X85.013 Y97.067 E7.72257
G1 X86.284 Y94.833 E7.77386
G1 X87.446 Y92.651 E7.82319
G1 X88.631 Y90.351 E7.87483
G1 X89.125 Y89.493 E7.89458
G1 X89.505 Y88.918 E7.90834
G1 X89.751 Y88.57 E7.91684
G1 X90.151 Y88.044 E7.93003
G1 X90.486 Y87.63 E7.94066
G1 X90.937 Y87.109 E7.95441
G1 X91.123 Y86.908 E7.95987
M204 S2000
G0 F7500 X91.417 Y87.18
M204 S500
G1 F1500 X91.908 Y86.684 E7.9738
G1 X92.306 Y86.309 E7.98472
G1 X92.86 Y85.824 E7.99941
G1 X93.275 Y85.486 E8.01009
G1 X94.036 Y84.923 E8.02898
G1 X94.827 Y84.424 E8.04764
G1 X95.423 Y84.083 E8.06135
G1 X96.311 Y83.63 E8.08124
G1 X96.819 Y83.402 E8.09235
G1 X97.51 Y83.122 E8.10723
G1 X97.774 Y83.026 E8.11284
G1 X98.381 Y82.827 E8.12559
G1 X98.816 Y82.699 E8.13463
G1 X99.484 Y82.526 E8.14841
G1 X99.966 Y82.419 E8.15826
G1 X100.642 Y82.293 E8.17198
G1 X100.918 Y82.251 E8.17755
G1 X101.587 Y82.172 E8.191
G1 X102.256 Y82.115 E8.20439
G1 X103.158 Y82.078 E8.22241
G1 X103.618 Y82.09 E8.23159
G1 X105.432 Y82.178 E8.26784
G1 X108.075 Y82.278 E8.32062
G1 X110.638 Y82.302 E8.37177
G1 X113.142 Y82.254 E8.42175
G1 X116.112 Y82.114 E8.48108
G1 X117.029 Y82.112 E8.49938
G1 X117.612 Y82.137 E8.51103
G1 X118.297 Y82.19 E8.52474
G1 X118.758 Y82.241 E8.53399
G1 X119.779 Y82.407 E8.55464
G1 X120.384 Y82.537 E8.56698
G1 X121.161 Y82.736 E8.58299
G1 X121.479 Y82.831 E8.58961
G1 X122.295 Y83.113 E8.60684
G1 X123.085 Y83.424 E8.62379
G1 X123.91 Y83.792 E8.64181
G1 X124.631 Y84.189 E8.65824
G1 X125.424 Y84.669 E8.67674
G1 X126.428 Y85.362 E8.70108
G1 X126.975 Y85.79 E8.71494
G1 X127.66 Y86.377 E8.73295
G1 X128.082 Y86.796 E8.74481
G1 X128.524 Y87.261 E8.75762
G1 X129.029 Y87.833 E8.77284
G1 X129.472 Y88.375 E8.78681
G1 X130.234 Y89.44 E8.81295
G1 X130.646 Y90.102 E8.82851
G1 X131.095 Y90.903 E8.84683
G1 X132.529 Y93.664 E8.90892
G1 X133.778 Y95.898 E8.95999
G1 X135.061 Y98.048 E9.00996
G1 X136.972 Y101.024 E9.08054
G1 X137.495 Y101.875 E9.10047
G1 X138.111 Y103.04 E9.12677
G1 X138.365 Y103.606 E9.13915
G1 X138.659 Y104.335 E9.15484
G1 X138.859 Y104.892 E9.16665
G1 X139.183 Y105.983 E9.18936
G1 X139.315 Y106.539 E9.20076
G1 X139.475 Y107.363 E9.21751
G1 X139.59 Y108.26 E9.23556
G1 X139.657 Y109.041 E9.2512
G1 X139.689 Y110.23 E9.27494
G1 X139.676 Y110.648 E9.28329
G1 X139.612 Y111.515 E9.30064
G1 X139.512 Y112.371 E9.31783
G1 X139.368 Y113.262 E9.33585
G1 X139.166 Y114.066 E9.35239
G1 X138.953 Y114.79 E9.36745
G1 X138.745 Y115.422 E9.38073
G1 X138.602 Y115.812 E9.38902
G1 X138.327 Y116.485 E9.40353
G1 X138.215 Y116.734 E9.40897
G1 X137.924 Y117.329 E9.42219
G1 X137.67 Y117.808 E9.43301
G1 X137.332 Y118.398 E9.44658
G1 X136.975 Y118.97 E9.46004
G1 X135.426 Y121.363 E9.51692
G1 X134.095 Y123.558 E9.56815
G1 X132.85 Y125.748 E9.61842
G1 X130.864 Y129.5 E9.70314
G1 X130.53 Y130.083 E9.71655
G1 X130.332 Y130.404 E9.72408
G1 X129.94 Y130.993 E9.7382
G1 X129.727 Y131.29 E9.74549
G1 X129.316 Y131.825 E9.75895
G1 X129.089 Y132.101 E9.76608
G1 X128.664 Y132.586 E9.77895
G1 X128.379 Y132.891 E9.78728
G1 X127.872 Y133.397 E9.80158
G1 X127.387 Y133.848 E9.81479
G1 X126.509 Y134.577 E9.83757
G1 X125.787 Y135.089 E9.85523
G1 X125.367 Y135.363 E9.86524
G1 X124.817 Y135.697 E9.87808
G1 X124.331 Y135.972 E9.88922
G1 X123.576 Y136.359 E9.90615
G1 X122.964 Y136.639 E9.91958
G1 X120.813 Y137.583 E9.96646
G1 X118.538 Y138.661 E10.0167
G1 X116.256 Y139.821 E10.06779
G1 X114.052 Y141.02 E10.11786
G1 X111.358 Y142.613 E10.18031
G1 X111.206 Y142.694 E10.18375
G1 X110.413 Y143.17 E10.20221
G1 X109.468 Y143.702 E10.22385
G1 X108.823 Y144.032 E10.23831
G1 X108.374 Y144.242 E10.2482
G1 X107.73 Y144.517 E10.26218
G1 X107.096 Y144.762 E10.27574
G1 X106.44 Y144.99 E10.2896
G1 X105.837 Y145.177 E10.3022
G1 X105.162 Y145.362 E10.31616
