;FLAVOR:Marlin
;TIME:485
;Filament used: 0.247429m
;Layer height: 0.12
;MINX:73.277
;MINY:80.878
;MINZ:0.12
;MAXX:150.084
;MAXY:152.567
;MAXZ:2.04
;Generated with Cura_SteamEngine 5.4.0
M82 ;absolute extrusion mode
; Ender 3 S1 Start G-code
G92 E0 ; Reset Extruder
G28 ; Home all axes
M420 S1 ;Use bed leveling data
G1 Z10.0 F3000 ; Move Z Axis up little to prevent scratching of Heat Bed
G1 X0 Y0

M104 S200
M190 S60
M109 S200

G1 X0.1 Y20 Z0.3 F5000.0 ; Move to start position
G1 X0.1 Y200.0 Z0.3 F1500.0 E15 ; Draw the first line
G1 X0.4 Y200.0 Z0.3 F5000.0 ; Move to side a little
G1 X0.4 Y20 Z0.3 F1500.0 E30 ; Draw the second line
G92 E0 ; Reset Extruder
G1 Z2.0 F3000 ; Move Z Axis up little to prevent scratching of Heat Bed
G1 X5 Y20 Z0.3 F5000.0 ; Move over to prevent blob squish
G92 E0
G92 E0
G1 F2400 E-0.8
;LAYER_COUNT:17
;LAYER:0
M107
M204 S2000
G0 F7500 X80.76 Y87.013 Z0.12
M204 S500
;TYPE:SKIRT
G1 F2400 E0
G1 F1500 X81.251 Y86.572 E0.01317
G1 X81.818 Y86.096 E0.02794
G1 X82.338 Y85.687 E0.04115
G1 X83.008 Y85.191 E0.05778
G1 X83.62 Y84.77 E0.07261
G1 X84.397 Y84.274 E0.091
G1 X84.956 Y83.942 E0.10398
G1 X85.517 Y83.631 E0.11678
G1 X85.991 Y83.385 E0.12743
G1 X86.562 Y83.105 E0.14013
G1 X87.013 Y82.897 E0.15004
G1 X87.545 Y82.666 E0.16161
G1 X88.126 Y82.435 E0.17409
G1 X88.885 Y82.158 E0.19021
G1 X89.463 Y81.967 E0.20236
G1 X90.189 Y81.749 E0.21749
G1 X90.78 Y81.59 E0.2297
G1 X91.467 Y81.427 E0.24379
G1 X92.067 Y81.3 E0.25603
G1 X92.709 Y81.185 E0.26905
G1 X93.418 Y81.078 E0.28336
G1 X93.936 Y81.019 E0.29376
G1 X94.714 Y80.946 E0.30935
G1 X95.316 Y80.906 E0.32139
G1 X95.991 Y80.882 E0.33487
G1 X96.626 Y80.878 E0.34754
G1 X97.388 Y80.897 E0.36276
G1 X98.014 Y80.93 E0.37527
G1 X99.223 Y81.038 E0.39949
G1 X102.12 Y81.404 E0.45776
G1 X104.572 Y81.641 E0.50692
G1 X107.068 Y81.812 E0.55685
G1 X109.636 Y81.915 E0.60814
G1 X112.101 Y81.945 E0.65733
G1 X114.634 Y81.902 E0.70789
G1 X117.176 Y81.788 E0.75867
G1 X119.667 Y81.606 E0.80851
G1 X122.169 Y81.352 E0.8587
G1 X123.778 Y81.145 E0.89107
G1 X124.606 Y81.055 E0.90769
G1 X125.434 Y80.99 E0.92427
G1 X126.277 Y80.954 E0.94111
G1 X127.258 Y80.948 E0.96068
G1 X127.945 Y80.971 E0.9744
G1 X128.783 Y81.026 E0.99116
G1 X129.373 Y81.081 E1.00298
G1 X129.988 Y81.155 E1.01535
G1 X130.561 Y81.241 E1.02691
G1 X131.411 Y81.393 E1.04414
G1 X132.118 Y81.543 E1.05856
G1 X133.112 Y81.797 E1.07904
G1 X133.817 Y82.007 E1.09372
G1 X134.629 Y82.279 E1.11081
G1 X135.269 Y82.514 E1.12441
G1 X135.93 Y82.782 E1.13865
G1 X136.904 Y83.222 E1.15997
G1 X137.58 Y83.558 E1.17504
G1 X138.302 Y83.951 E1.19144
G1 X139.011 Y84.372 E1.2079
G1 X139.732 Y84.83 E1.22495
G1 X140.274 Y85.2 E1.23804
G1 X140.965 Y85.707 E1.25514
G1 X141.544 Y86.165 E1.26988
G1 X142.009 Y86.555 E1.28199
G1 X142.413 Y86.913 E1.29276
G1 X142.972 Y87.431 E1.30797
G1 X143.374 Y87.825 E1.3192
G1 X143.987 Y88.469 E1.33695
G1 X144.44 Y88.984 E1.35063
G1 X144.918 Y89.552 E1.36545
G1 X145.326 Y90.07 E1.37861
G1 X145.953 Y90.935 E1.39993
G1 X146.29 Y91.432 E1.41191
G1 X146.623 Y91.957 E1.42432
G1 X147.035 Y92.65 E1.44041
G1 X147.286 Y93.097 E1.45064
G1 X147.597 Y93.696 E1.4641
G1 X147.838 Y94.187 E1.47502
G1 X148.15 Y94.871 E1.49002
G1 X148.324 Y95.286 E1.499
G1 X148.632 Y96.066 E1.51574
G1 X148.874 Y96.75 E1.53022
G1 X149.11 Y97.491 E1.54574
G1 X149.294 Y98.144 E1.55928
G1 X149.519 Y99.051 E1.57792
G1 X149.672 Y99.767 E1.59254
G1 X149.772 Y100.334 E1.60402
G1 X149.899 Y101.201 E1.62151
G1 X149.976 Y101.865 E1.63485
G1 X150.06 Y103.007 E1.6577
G1 X150.084 Y103.74 E1.67234
G1 X150.083 Y104.658 E1.69066
G1 X150.056 Y105.389 E1.70526
G1 X149.981 Y106.373 E1.72495
G1 X149.913 Y107.008 E1.73769
G1 X149.811 Y107.727 E1.75219
G1 X149.668 Y108.537 E1.7686
G1 X149.55 Y109.129 E1.78065
G1 X149.432 Y109.627 E1.79086
G1 X149.216 Y110.452 E1.80788
G1 X149.044 Y111.036 E1.82003
G1 X148.856 Y111.614 E1.83216
G1 X148.682 Y112.109 E1.84263
G1 X148.451 Y112.715 E1.85557
G1 X148.209 Y113.3 E1.8682
G1 X147.84 Y114.117 E1.88609
G1 X147.54 Y114.729 E1.8997
G1 X147.108 Y115.528 E1.91782
G1 X146.703 Y116.225 E1.93391
G1 X146.353 Y116.787 E1.94712
G1 X145.969 Y117.361 E1.9609
G1 X145.687 Y117.763 E1.9707
G1 X144.027 Y120.018 E2.02658
G1 X142.58 Y122.101 E2.0772
G1 X141.209 Y124.196 E2.12716
G1 X139.893 Y126.34 E2.17736
G1 X138.623 Y128.545 E2.22814
G1 X137.442 Y130.734 E2.27778
G1 X136.303 Y132.999 E2.32837
G1 X135.261 Y135.228 E2.37748
G1 X134.238 Y137.621 E2.42941
G1 X133.643 Y138.969 E2.45882
G1 X133.269 Y139.757 E2.47622
G1 X132.943 Y140.381 E2.49027
G1 X132.491 Y141.177 E2.50854
G1 X131.898 Y142.131 E2.53096
G1 X131.492 Y142.728 E2.54536
G1 X130.987 Y143.42 E2.56246
G1 X130.495 Y144.043 E2.5783
G1 X129.868 Y144.779 E2.5976
G1 X129.421 Y145.273 E2.61089
G1 X129.019 Y145.689 E2.62244
G1 X128.66 Y146.042 E2.63248
G1 X127.98 Y146.674 E2.65101
G1 X127.544 Y147.055 E2.66256
G1 X127.09 Y147.431 E2.67433
G1 X126.413 Y147.948 E2.69133
G1 X125.61 Y148.522 E2.71103
G1 X125.07 Y148.884 E2.724
G1 X124.523 Y149.227 E2.73688
G1 X124.065 Y149.499 E2.74751
G1 X123.349 Y149.892 E2.76381
G1 X122.862 Y150.142 E2.77474
G1 X122.313 Y150.404 E2.78688
G1 X121.461 Y150.778 E2.80545
G1 X120.771 Y151.052 E2.82026
G1 X120.169 Y151.272 E2.83305
G1 X119.528 Y151.484 E2.84653
G1 X118.682 Y151.734 E2.86413
G1 X118.108 Y151.885 E2.87597
G1 X117.548 Y152.018 E2.88746
G1 X116.963 Y152.138 E2.89938
G1 X116.166 Y152.279 E2.91553
G1 X115.521 Y152.373 E2.92854
G1 X114.33 Y152.499 E2.95244
G1 X113.595 Y152.546 E2.96714
G1 X112.811 Y152.567 E2.98279
G1 X112.187 Y152.567 E2.99524
G1 X111.575 Y152.548 E3.00746
G1 X110.761 Y152.502 E3.02373
G1 X110.272 Y152.461 E3.03352
G1 X109.551 Y152.38 E3.048
G1 X108.734 Y152.259 E3.06448
G1 X108.223 Y152.169 E3.07484
G1 X107.581 Y152.04 E3.08791
G1 X106.654 Y151.818 E3.10693
G1 X105.968 Y151.629 E3.12113
G1 X105.215 Y151.391 E3.13689
G1 X104.086 Y150.984 E3.16084
G1 X103.45 Y150.726 E3.17453
G1 X102.592 Y150.339 E3.19332
G1 X102.167 Y150.133 E3.20274
G1 X101.697 Y149.891 E3.21329
G1 X100.889 Y149.448 E3.23168
G1 X100.27 Y149.081 E3.24604
G1 X99.493 Y148.577 E3.26452
G1 X99.083 Y148.292 E3.27449
G1 X98.594 Y147.93 E3.28663
G1 X97.876 Y147.37 E3.3048
G1 X97.336 Y146.917 E3.31887
G1 X96.829 Y146.463 E3.33245
G1 X96.47 Y146.126 E3.34227
G1 X95.95 Y145.616 E3.35681
G1 X95.505 Y145.151 E3.36965
G1 X94.824 Y144.385 E3.39011
G1 X94.4 Y143.869 E3.40344
G1 X93.849 Y143.152 E3.42148
G1 X93.361 Y142.471 E3.4382
G1 X92.978 Y141.89 E3.45209
G1 X92.506 Y141.121 E3.47009
G1 X92.156 Y140.503 E3.48427
G1 X91.777 Y139.78 E3.50056
G1 X91.198 Y138.595 E3.52688
G1 X90.808 Y137.755 E3.54536
G1 X89.691 Y135.509 E3.59542
G1 X88.513 Y133.302 E3.64534
G1 X87.251 Y131.087 E3.69622
G1 X85.942 Y128.935 E3.74648
G1 X84.578 Y126.825 E3.79662
G1 X83.181 Y124.798 E3.84575
G1 X81.659 Y122.716 E3.89722
G1 X80.123 Y120.735 E3.94724
G1 X78.341 Y118.568 E4.00323
G1 X77.955 Y118.07 E4.0158
G1 X77.341 Y117.214 E4.03682
G1 X77.097 Y116.853 E4.04552
G1 X76.723 Y116.266 E4.05941
G1 X76.102 Y115.191 E4.08418
G1 X75.777 Y114.57 E4.09817
G1 X75.386 Y113.762 E4.11609
G1 X75.101 Y113.119 E4.13012
G1 X74.82 Y112.421 E4.14514
G1 X74.617 Y111.876 E4.15674
G1 X74.427 Y111.317 E4.16853
G1 X74.261 Y110.785 E4.17965
G1 X74.04 Y110.006 E4.19581
G1 X73.902 Y109.46 E4.20704
G1 X73.785 Y108.943 E4.21762
G1 X73.682 Y108.429 E4.22808
G1 X73.534 Y107.557 E4.24573
G1 X73.461 Y107.039 E4.25617
G1 X73.384 Y106.371 E4.26959
G1 X73.3 Y105.222 E4.29258
G1 X73.277 Y104.497 E4.30706
G1 X73.278 Y103.586 E4.32524
G1 X73.305 Y102.857 E4.3398
G1 X73.38 Y101.873 E4.35949
G1 X73.448 Y101.239 E4.37222
G1 X73.549 Y100.518 E4.38674
G1 X73.687 Y99.737 E4.40257
G1 X73.9 Y98.728 E4.42315
G1 X74.079 Y98.029 E4.43755
G1 X74.355 Y97.089 E4.4571
G1 X74.592 Y96.377 E4.47208
G1 X74.892 Y95.574 E4.48918
G1 X75.136 Y94.977 E4.50205
G1 X75.562 Y94.041 E4.52258
G1 X75.872 Y93.418 E4.53646
G1 X76.193 Y92.82 E4.55001
G1 X76.676 Y91.989 E4.56919
G1 X77.066 Y91.37 E4.58379
G1 X77.502 Y90.725 E4.59932
G1 X77.838 Y90.256 E4.61084
G1 X78.274 Y89.689 E4.62511
G1 X78.605 Y89.278 E4.63564
G1 X78.985 Y88.832 E4.64734
G1 X79.594 Y88.167 E4.66533
G1 X80.23 Y87.52 E4.68344
G1 X80.76 Y87.013 E4.69807
M204 S2000
G0 F7500 X81.027 Y87.311
M204 S500
G1 F1500 X80.506 Y87.809 E4.71246
G1 X79.879 Y88.447 E4.73031
G1 X79.28 Y89.102 E4.74802
G1 X78.91 Y89.537 E4.75942
G1 X78.585 Y89.94 E4.76975
G1 X78.155 Y90.5 E4.78384
G1 X77.827 Y90.958 E4.79508
G1 X77.397 Y91.594 E4.8104
G1 X77.014 Y92.202 E4.82474
G1 X76.539 Y93.021 E4.84363
G1 X76.225 Y93.607 E4.8569
G1 X75.92 Y94.219 E4.87055
G1 X75.5 Y95.143 E4.8908
G1 X75.262 Y95.725 E4.90335
G1 X74.967 Y96.517 E4.92022
G1 X74.735 Y97.215 E4.93489
G1 X74.463 Y98.142 E4.95417
G1 X74.288 Y98.827 E4.96828
G1 X74.078 Y99.82 E4.98854
G1 X73.943 Y100.587 E5.00408
G1 X73.844 Y101.294 E5.01833
G1 X73.778 Y101.915 E5.03079
G1 X73.704 Y102.887 E5.05024
G1 X73.678 Y103.601 E5.0645
G1 X73.677 Y104.497 E5.08238
G1 X73.7 Y105.209 E5.0966
G1 X73.783 Y106.342 E5.11927
G1 X73.858 Y106.993 E5.13234
G1 X73.93 Y107.501 E5.14258
G1 X74.076 Y108.362 E5.16001
G1 X74.177 Y108.864 E5.17023
G1 X74.292 Y109.372 E5.18062
G1 X74.428 Y109.908 E5.19166
G1 X74.646 Y110.676 E5.20759
G1 X74.809 Y111.198 E5.2185
G1 X74.996 Y111.747 E5.23008
G1 X75.195 Y112.282 E5.24147
G1 X75.472 Y112.969 E5.25625
G1 X75.752 Y113.6 E5.27003
G1 X76.137 Y114.396 E5.28767
G1 X76.456 Y115.005 E5.30139
G1 X77.069 Y116.066 E5.32585
G1 X77.434 Y116.638 E5.33939
G1 X77.672 Y116.99 E5.34787
G1 X78.28 Y117.837 E5.36867
G1 X78.657 Y118.323 E5.38095
G1 X80.439 Y120.49 E5.43694
G1 X81.982 Y122.48 E5.48719
G1 X83.504 Y124.562 E5.53866
G1 X84.914 Y126.608 E5.58824
G1 X86.284 Y128.727 E5.6386
G1 X87.599 Y130.889 E5.6891
G1 X88.861 Y133.104 E5.73997
G1 X90.049 Y135.331 E5.79034
G1 X91.171 Y137.587 E5.84062
G1 X91.561 Y138.427 E5.8591
G1 X92.136 Y139.604 E5.88525
G1 X92.51 Y140.317 E5.90131
G1 X92.854 Y140.924 E5.91524
G1 X93.319 Y141.681 E5.93297
G1 X93.695 Y142.25 E5.94658
G1 X94.174 Y142.919 E5.963
G1 X94.717 Y143.625 E5.98077
G1 X95.133 Y144.131 E5.99384
G1 X95.804 Y144.885 E6.01398
G1 X96.239 Y145.339 E6.02653
G1 X96.75 Y145.84 E6.04081
G1 X97.103 Y146.171 E6.05047
G1 X97.603 Y146.619 E6.06387
G1 X98.133 Y147.063 E6.07767
G1 X98.84 Y147.615 E6.09557
G1 X99.321 Y147.97 E6.1075
G1 X99.711 Y148.241 E6.11697
G1 X100.488 Y148.745 E6.13546
G1 X101.093 Y149.104 E6.14949
G1 X101.889 Y149.54 E6.16761
G1 X102.35 Y149.778 E6.17796
G1 X102.766 Y149.979 E6.18718
G1 X103.614 Y150.361 E6.20574
G1 X104.236 Y150.613 E6.21913
G1 X105.351 Y151.015 E6.24279
G1 X106.074 Y151.243 E6.25791
G1 X106.76 Y151.432 E6.27211
G1 X107.674 Y151.651 E6.29087
G1 X108.302 Y151.777 E6.30365
G1 X108.803 Y151.865 E6.3138
G1 X109.609 Y151.984 E6.33006
G1 X110.316 Y152.063 E6.34426
G1 X110.794 Y152.103 E6.35383
G1 X111.598 Y152.149 E6.3699
G1 X112.199 Y152.167 E6.3819
G1 X112.8 Y152.167 E6.3939
G1 X113.584 Y152.146 E6.40955
G1 X114.305 Y152.1 E6.42396
G1 X115.479 Y151.975 E6.44752
G1 X116.108 Y151.883 E6.46021
G1 X116.893 Y151.744 E6.47612
G1 X117.467 Y151.626 E6.48781
G1 X118.016 Y151.496 E6.49907
G1 X118.58 Y151.347 E6.51071
G1 X119.415 Y151.1 E6.52809
G1 X120.043 Y150.892 E6.54129
G1 X120.633 Y150.676 E6.55383
G1 X121.313 Y150.406 E6.56843
G1 X122.152 Y150.038 E6.58672
G1 X122.69 Y149.781 E6.59861
G1 X123.166 Y149.536 E6.6093
G1 X123.873 Y149.148 E6.62539
G1 X124.318 Y148.883 E6.63573
G1 X124.858 Y148.545 E6.64844
G1 X125.387 Y148.19 E6.66115
G1 X126.18 Y147.623 E6.68061
G1 X126.847 Y147.113 E6.69736
G1 X127.289 Y146.747 E6.70882
G1 X127.717 Y146.373 E6.72016
G1 X128.388 Y145.749 E6.73844
G1 X128.738 Y145.404 E6.74825
G1 X129.133 Y144.995 E6.7596
G1 X129.571 Y144.511 E6.77263
G1 X130.19 Y143.784 E6.79168
G1 X130.673 Y143.172 E6.80724
G1 X131.169 Y142.492 E6.82404
G1 X131.567 Y141.906 E6.83817
G1 X132.151 Y140.966 E6.86026
G1 X132.595 Y140.184 E6.8782
G1 X132.914 Y139.572 E6.89197
G1 X133.282 Y138.797 E6.9091
G1 X133.872 Y137.46 E6.93826
G1 X134.893 Y135.071 E6.99011
G1 X135.946 Y132.819 E7.03972
G1 X137.09 Y130.544 E7.09053
G1 X138.276 Y128.345 E7.14039
G1 X139.546 Y126.14 E7.19117
G1 X140.874 Y123.977 E7.24182
G1 X142.251 Y121.873 E7.292
G1 X143.698 Y119.79 E7.34262
G1 X145.365 Y117.526 E7.39873
G1 X145.642 Y117.131 E7.40835
G1 X146.02 Y116.565 E7.42194
G1 X146.363 Y116.014 E7.43489
G1 X146.762 Y115.327 E7.45074
G1 X147.188 Y114.539 E7.46862
G1 X147.481 Y113.941 E7.48191
G1 X147.844 Y113.136 E7.49953
G1 X148.082 Y112.562 E7.51193
G1 X148.308 Y111.967 E7.52463
G1 X148.479 Y111.481 E7.53491
G1 X148.663 Y110.913 E7.54683
G1 X148.832 Y110.339 E7.55877
G1 X149.045 Y109.526 E7.57554
G1 X149.161 Y109.037 E7.58557
G1 X149.276 Y108.459 E7.59733
G1 X149.417 Y107.658 E7.61356
G1 X149.517 Y106.952 E7.62779
G1 X149.583 Y106.331 E7.64025
G1 X149.657 Y105.359 E7.65971
G1 X149.683 Y104.643 E7.67401
G1 X149.684 Y103.74 E7.69203
G1 X149.66 Y103.02 E7.7064
G1 X149.577 Y101.894 E7.72893
G1 X149.502 Y101.247 E7.74193
G1 X149.376 Y100.392 E7.75918
G1 X149.278 Y99.837 E7.77043
G1 X149.128 Y99.134 E7.78477
G1 X148.906 Y98.24 E7.80315
G1 X148.725 Y97.6 E7.81643
G1 X148.493 Y96.871 E7.83169
G1 X148.255 Y96.2 E7.8459
G1 X147.952 Y95.433 E7.86236
G1 X147.781 Y95.026 E7.87117
G1 X147.474 Y94.353 E7.88593
G1 X147.238 Y93.872 E7.89662
G1 X146.931 Y93.282 E7.90989
G1 X146.686 Y92.846 E7.91987
G1 X146.279 Y92.162 E7.93576
G1 X145.952 Y91.646 E7.94795
G1 X145.622 Y91.159 E7.95969
G1 X145.002 Y90.305 E7.98075
G1 X144.604 Y89.8 E7.99358
G1 X144.134 Y89.241 E8.00816
G1 X143.687 Y88.734 E8.02164
G1 X143.084 Y88.101 E8.03909
G1 X142.692 Y87.717 E8.05004
G1 X142.141 Y87.206 E8.06504
G1 X141.744 Y86.855 E8.07561
G1 X141.287 Y86.472 E8.08751
G1 X140.717 Y86.021 E8.10202
G1 X140.037 Y85.522 E8.11885
G1 X139.507 Y85.161 E8.13165
G1 X138.797 Y84.71 E8.14843
G1 X138.098 Y84.295 E8.16465
G1 X137.389 Y83.91 E8.18075
G1 X136.739 Y83.587 E8.19524
G1 X135.765 Y83.147 E8.21657
G1 X135.119 Y82.885 E8.23048
G1 X134.491 Y82.654 E8.24383
G1 X133.69 Y82.386 E8.26069
G1 X133.013 Y82.185 E8.27478
G1 X132.019 Y81.931 E8.29526
G1 X131.328 Y81.784 E8.30935
G1 X130.491 Y81.635 E8.32632
G1 X129.929 Y81.551 E8.33766
G1 X129.325 Y81.478 E8.3498
G1 X128.746 Y81.424 E8.36141
G1 X127.919 Y81.37 E8.37794
G1 X127.245 Y81.348 E8.3914
G1 X126.279 Y81.354 E8.41068
G1 X125.451 Y81.39 E8.42722
G1 X124.637 Y81.454 E8.44351
G1 X123.821 Y81.543 E8.45989
G1 X122.22 Y81.749 E8.49211
G1 X119.7 Y82.005 E8.54266
G1 X117.194 Y82.188 E8.5928
G1 X114.652 Y82.302 E8.64358
G1 X112.103 Y82.345 E8.69445
G1 X109.62 Y82.315 E8.74401
G1 X107.052 Y82.212 E8.7953
G1 X104.543 Y82.04 E8.84548
G1 X102.07 Y81.801 E8.89506
G1 X99.173 Y81.435 E8.95334
G1 X97.978 Y81.328 E8.97728
G1 X97.367 Y81.296 E8.98949
G1 X96.616 Y81.278 E9.00448
G1 X95.994 Y81.282 E9.01689
G1 X95.33 Y81.306 E9.03015
G1 X94.74 Y81.345 E9.04195
G1 X93.973 Y81.417 E9.05733
G1 X93.478 Y81.474 E9.06727
G1 X92.769 Y81.581 E9.08158
G1 X92.138 Y81.694 E9.09437
G1 X91.549 Y81.818 E9.10638
G1 X90.873 Y81.979 E9.12025
G1 X90.293 Y82.135 E9.13224
G1 X89.578 Y82.35 E9.14714
G1 X89.011 Y82.538 E9.15906
G1 X88.263 Y82.811 E9.17495
G1 X87.693 Y83.038 E9.18719
G1 X87.172 Y83.264 E9.19853
G1 X86.73 Y83.468 E9.20824
G1 X86.167 Y83.744 E9.22075
G1 X85.702 Y83.986 E9.23121
G1 X85.15 Y84.292 E9.24381
G1 X84.602 Y84.618 E9.25653
G1 X83.835 Y85.107 E9.27469
G1 X83.235 Y85.52 E9.28922
G1 X82.576 Y86.008 E9.30559
G1 X82.065 Y86.41 E9.31856
G1 X81.509 Y86.878 E9.33306
G1 X81.027 Y87.311 E9.34599
M204 S2000
G0 F7500 X81.294 Y87.609
M204 S500
G1 F1500 X81.767 Y87.184 E9.35868
G1 X82.313 Y86.724 E9.37293
G1 X82.814 Y86.329 E9.38566
G1 X83.462 Y85.849 E9.40176
G1 X84.05 Y85.444 E9.416
G1 X84.806 Y84.962 E9.4339
G1 X85.344 Y84.642 E9.44639
G1 X85.887 Y84.341 E9.45878
G1 X86.343 Y84.103 E9.46904
G1 X86.898 Y83.831 E9.48138
G1 X87.331 Y83.631 E9.4909
G1 X87.841 Y83.41 E9.50199
G1 X88.4 Y83.187 E9.514
G1 X89.137 Y82.918 E9.52965
G1 X89.693 Y82.733 E9.54135
G1 X90.397 Y82.521 E9.55602
G1 X90.966 Y82.368 E9.56778
G1 X91.631 Y82.209 E9.58142
G1 X92.208 Y82.088 E9.59319
G1 X92.829 Y81.977 E9.60578
G1 X93.538 Y81.87 E9.62009
G1 X94.01 Y81.815 E9.62957
G1 X94.766 Y81.744 E9.64472
