;FLAVOR:Marlin
;TIME:3224
;Filament used: 0.780015m
;Layer height: 0.12
;MINX:95
;MINY:92.349
;MINZ:0.12
;MAXX:124.997
;MAXY:127.646
;MAXZ:39.24
;Generated with Cura_SteamEngine 5.4.0
M82 ;absolute extrusion mode
; Ender 3 S1 Start G-code
G92 E0 ; Reset Extruder
G28 ; Home all axes
M420 S1 ;Use bed leveling data
G1 Z10.0 F3000 ; Move Z Axis up little to prevent scratching of Heat Bed
G1 X0 Y0

M104 S200
M190 S60
M109 S200

G1 X0.1 Y20 Z0.3 F5000.0 ; Move to start position
G1 X0.1 Y200.0 Z0.3 F1500.0 E15 ; Draw the first line
G1 X0.4 Y200.0 Z0.3 F5000.0 ; Move to side a little
G1 X0.4 Y20 Z0.3 F1500.0 E30 ; Draw the second line
G92 E0 ; Reset Extruder
G1 Z2.0 F3000 ; Move Z Axis up little to prevent scratching of Heat Bed
G1 X5 Y20 Z0.3 F5000.0 ; Move over to prevent blob squish
G92 E0
G92 E0
G1 F2400 E-0.8
;LAYER_COUNT:327
;LAYER:0
M107
M204 S2000
G0 F7500 X98.588 Y96.756 Z0.12
M204 S500
;TYPE:SKIRT
G1 F2400 E0
G1 F1500 X99.252 Y96.13 E0.01821
G1 X99.591 Y95.839 E0.02713
G1 X100.357 Y95.237 E0.04657
G1 X101.143 Y94.724 E0.0653
G1 X102.071 Y94.231 E0.08627
G1 X102.808 Y93.884 E0.10253
G1 X103.539 Y93.573 E0.11838
G1 X104.353 Y93.278 E0.13566
G1 X105.224 Y93.01 E0.15384
G1 X105.654 Y92.894 E0.16273
G1 X106.282 Y92.745 E0.17561
G1 X107.008 Y92.607 E0.19036
G1 X107.482 Y92.531 E0.19994
G1 X108.127 Y92.448 E0.21292
G1 X108.9 Y92.384 E0.2284
G1 X109.375 Y92.361 E0.23789
G1 X110.052 Y92.349 E0.2514
G1 X110.445 Y92.354 E0.25924
G1 X111.129 Y92.386 E0.27291
G1 X111.589 Y92.422 E0.28211
G1 X112.357 Y92.508 E0.29754
G1 X113.051 Y92.618 E0.31156
G1 X113.564 Y92.716 E0.32198
G1 X114.213 Y92.861 E0.33525
G1 X115.059 Y93.09 E0.35274
G1 X115.906 Y93.372 E0.37056
G1 X116.614 Y93.64 E0.38567
G1 X117.43 Y93.99 E0.40338
G1 X117.872 Y94.205 E0.41319
G1 X118.563 Y94.566 E0.42875
G1 X119.367 Y95.051 E0.44749
G1 X120.157 Y95.628 E0.46701
G1 X121.09 Y96.466 E0.49204
G1 X121.401 Y96.78 E0.50086
G1 X122.061 Y97.513 E0.52054
G1 X122.817 Y98.549 E0.54614
G1 X123.031 Y98.884 E0.55407
G1 X123.5 Y99.7 E0.57285
G1 X123.938 Y100.651 E0.59375
G1 X124.09 Y101.031 E0.60191
G1 X124.411 Y101.943 E0.62121
G1 X124.601 Y102.664 E0.63609
G1 X124.67 Y102.973 E0.6424
G1 X124.864 Y104.113 E0.66548
G1 X124.908 Y104.496 E0.67318
G1 X124.976 Y105.521 E0.69368
G1 X124.996 Y106.691 E0.71703
G1 X124.997 Y113.524 E0.85339
G1 X124.984 Y114.408 E0.87103
G1 X124.935 Y115.29 E0.88866
G1 X124.903 Y115.599 E0.89486
G1 X124.718 Y116.786 E0.91883
G1 X124.608 Y117.297 E0.92926
G1 X124.36 Y118.239 E0.9487
G1 X124.043 Y119.121 E0.96741
G1 X123.65 Y119.977 E0.9862
G1 X123.373 Y120.513 E0.99824
G1 X122.924 Y121.297 E1.01627
G1 X122.332 Y122.149 E1.03698
G1 X121.874 Y122.707 E1.05138
G1 X121.585 Y123.036 E1.06012
G1 X120.96 Y123.688 E1.07815
G1 X120.172 Y124.376 E1.09902
G1 X119.412 Y124.926 E1.11774
G1 X118.537 Y125.45 E1.1381
G1 X118.195 Y125.632 E1.14583
G1 X117.645 Y125.906 E1.15809
G1 X117.131 Y126.143 E1.16938
G1 X116.469 Y126.423 E1.18373
G1 X115.655 Y126.719 E1.20101
G1 X114.776 Y126.99 E1.21937
G1 X114.34 Y127.108 E1.22838
G1 X113.575 Y127.284 E1.24405
G1 X113.097 Y127.375 E1.25376
G1 X112.37 Y127.49 E1.26845
G1 X111.697 Y127.568 E1.28197
G1 X111.238 Y127.604 E1.29116
G1 X110.489 Y127.644 E1.30612
G1 X109.547 Y127.646 E1.32492
G1 X108.87 Y127.614 E1.33845
G1 X108.412 Y127.578 E1.34762
G1 X107.709 Y127.502 E1.36173
G1 X106.994 Y127.391 E1.37617
G1 X106.495 Y127.297 E1.3863
G1 X105.71 Y127.117 E1.40237
G1 X105.106 Y126.956 E1.41485
G1 X104.094 Y126.628 E1.43608
G1 X103.388 Y126.36 E1.45115
G1 X102.549 Y126 E1.46937
G1 X102.114 Y125.79 E1.47901
G1 X101.394 Y125.411 E1.49524
G1 X100.623 Y124.942 E1.51325
G1 X99.492 Y124.086 E1.54156
G1 X98.747 Y123.392 E1.56188
G1 X97.954 Y122.499 E1.58571
G1 X97.676 Y122.149 E1.59463
G1 X97.099 Y121.344 E1.61439
G1 X96.432 Y120.171 E1.64132
G1 X96.243 Y119.78 E1.64999
G1 X95.858 Y118.886 E1.66941
G1 X95.574 Y118.029 E1.68743
G1 X95.346 Y117.101 E1.7065
G1 X95.142 Y115.919 E1.73044
G1 X95.09 Y115.467 E1.73952
G1 X95.022 Y114.44 E1.76006
G1 X95.003 Y113.321 E1.78239
G1 X95 Y106.57 E1.91712
G1 X95.012 Y105.628 E1.93592
G1 X95.045 Y104.91 E1.95026
G1 X95.142 Y103.983 E1.96886
G1 X95.256 Y103.337 E1.98195
G1 X95.345 Y102.911 E1.99063
G1 X95.699 Y101.616 E2.01743
G1 X95.807 Y101.3 E2.02409
G1 X96.136 Y100.459 E2.04211
G1 X96.605 Y99.516 E2.06313
G1 X96.862 Y99.057 E2.07363
G1 X97.377 Y98.23 E2.09307
G1 X97.962 Y97.453 E2.11248
G1 X98.588 Y96.756 E2.13117
M204 S2000
G0 F7500 X98.863 Y97.047
M204 S500
G1 F1500 X99.513 Y96.433 E2.14902
G1 X99.838 Y96.153 E2.15758
G1 X100.576 Y95.572 E2.17632
G1 X101.362 Y95.059 E2.19505
G1 X102.241 Y94.593 E2.21491
G1 X102.965 Y94.252 E2.23088
G1 X103.676 Y93.949 E2.2463
G1 X104.471 Y93.66 E2.26318
G1 X105.328 Y93.396 E2.28108
G1 X105.747 Y93.283 E2.28974
G1 X106.357 Y93.138 E2.30225
G1 X107.071 Y93.002 E2.31676
G1 X107.533 Y92.928 E2.32609
G1 X108.16 Y92.847 E2.33871
G1 X108.92 Y92.784 E2.35393
G1 X109.382 Y92.761 E2.36316
G1 X110.047 Y92.749 E2.37643
G1 X110.427 Y92.754 E2.38402
G1 X111.098 Y92.785 E2.39742
G1 X111.545 Y92.82 E2.40637
G1 X112.294 Y92.903 E2.42141
G1 X112.976 Y93.011 E2.43519
G1 X113.477 Y93.107 E2.44537
G1 X114.108 Y93.247 E2.45827
G1 X114.954 Y93.476 E2.47576
G1 X115.764 Y93.746 E2.49279
G1 X116.456 Y94.008 E2.50756
G1 X117.272 Y94.358 E2.52528
G1 X117.687 Y94.559 E2.53448
G1 X118.356 Y94.909 E2.54955
G1 X119.16 Y95.394 E2.56829
G1 X119.921 Y95.951 E2.58711
G1 X120.806 Y96.747 E2.61086
G1 X121.104 Y97.048 E2.61931
G1 X121.738 Y97.749 E2.63818
G1 X122.494 Y98.785 E2.66377
G1 X122.684 Y99.083 E2.67082
G1 X123.153 Y99.899 E2.6896
G1 X123.567 Y100.8 E2.70939
G1 X123.713 Y101.164 E2.71722
G1 X124.024 Y102.045 E2.73586
G1 X124.211 Y102.752 E2.75046
G1 X124.276 Y103.04 E2.75635
G1 X124.467 Y104.159 E2.779
G1 X124.509 Y104.523 E2.78632
G1 X124.576 Y105.528 E2.80642
G1 X124.596 Y106.691 E2.82963
G1 X124.597 Y113.518 E2.96587
G1 X124.585 Y114.386 E2.98319
G1 X124.537 Y115.25 E3.00046
G1 X124.508 Y115.538 E3.00624
G1 X124.327 Y116.702 E3.02974
G1 X124.221 Y117.196 E3.03983
G1 X123.983 Y118.104 E3.05856
G1 X123.679 Y118.954 E3.07657
G1 X123.286 Y119.81 E3.09537
G1 X123.026 Y120.314 E3.10669
G1 X122.577 Y121.098 E3.12472
G1 X122.023 Y121.895 E3.14409
G1 X121.574 Y122.443 E3.15823
G1 X121.296 Y122.759 E3.16663
G1 X120.671 Y123.411 E3.18465
G1 X119.937 Y124.052 E3.2041
G1 X119.206 Y124.583 E3.22213
G1 X118.348 Y125.097 E3.24209
G1 X118.017 Y125.274 E3.24958
G1 X117.477 Y125.543 E3.26162
G1 X116.975 Y125.775 E3.27265
G1 X116.332 Y126.047 E3.28658
G1 X115.537 Y126.337 E3.30347
G1 X114.672 Y126.604 E3.32154
G1 X114.25 Y126.718 E3.33026
G1 X113.5 Y126.891 E3.34562
G1 X113.034 Y126.98 E3.35509
G1 X112.324 Y127.093 E3.36944
G1 X111.665 Y127.169 E3.38267
G1 X111.217 Y127.205 E3.39164
G1 X110.488 Y127.244 E3.40621
G1 X109.566 Y127.246 E3.42461
G1 X108.901 Y127.215 E3.4379
G1 X108.455 Y127.18 E3.44683
G1 X107.752 Y127.104 E3.46094
G1 X107.068 Y126.998 E3.47475
G1 X106.584 Y126.907 E3.48458
G1 X105.813 Y126.731 E3.50036
G1 X105.229 Y126.575 E3.51242
G1 X104.236 Y126.254 E3.53325
G1 X103.545 Y125.992 E3.548
G1 X102.723 Y125.64 E3.56584
G1 X102.3 Y125.436 E3.57521
G1 X101.602 Y125.069 E3.59095
G1 X100.831 Y124.6 E3.60896
G1 X99.765 Y123.793 E3.63564
G1 X99.02 Y123.099 E3.65596
G1 X98.267 Y122.25 E3.67861
G1 X98.001 Y121.915 E3.68714
G1 X97.447 Y121.146 E3.70606
G1 X96.78 Y119.973 E3.73298
G1 X96.61 Y119.622 E3.74077
G1 X96.238 Y118.76 E3.7595
G1 X95.954 Y117.903 E3.77752
G1 X95.74 Y117.033 E3.7954
G1 X95.539 Y115.873 E3.81889
G1 X95.489 Y115.44 E3.82759
G1 X95.422 Y114.433 E3.84773
G1 X95.403 Y113.321 E3.86993
G1 X95.4 Y106.575 E4.00455
G1 X95.412 Y105.646 E4.02309
G1 X95.443 Y104.952 E4.03695
G1 X95.54 Y104.025 E4.05555
G1 X95.648 Y103.419 E4.06784
G1 X95.737 Y102.993 E4.07652
G1 X96.078 Y101.745 E4.10234
G1 X96.18 Y101.446 E4.10865
G1 X96.509 Y100.605 E4.12667
G1 X96.954 Y99.711 E4.1466
G1 X97.202 Y99.268 E4.15673
G1 X97.697 Y98.47 E4.17547
G1 X98.26 Y97.72 E4.19418
G1 X98.863 Y97.047 E4.21221
M204 S2000
G0 F7500 X99.161 Y97.314
M204 S500
G1 F1500 X99.775 Y96.736 E4.22904
G1 X100.086 Y96.467 E4.23725
G1 X100.795 Y95.907 E4.25528
G1 X101.55 Y95.412 E4.27329
G1 X102.411 Y94.955 E4.29275
G1 X103.122 Y94.62 E4.30843
G1 X103.813 Y94.325 E4.32343
G1 X104.589 Y94.042 E4.33991
G1 X105.432 Y93.782 E4.35751
G1 X105.84 Y93.672 E4.36595
G1 X106.432 Y93.531 E4.37809
G1 X107.134 Y93.397 E4.39235
G1 X107.585 Y93.325 E4.40147
G1 X108.193 Y93.246 E4.4137
G1 X108.953 Y93.183 E4.42892
G1 X109.389 Y93.161 E4.43763
G1 X110.042 Y93.149 E4.45067
G1 X110.409 Y93.154 E4.45799
G1 X111.067 Y93.184 E4.47114
G1 X111.501 Y93.218 E4.47982
G1 X112.231 Y93.298 E4.49448
G1 X112.901 Y93.404 E4.50802
G1 X113.391 Y93.498 E4.51797
G1 X114.004 Y93.633 E4.5305
G1 X114.828 Y93.856 E4.54753
G1 X115.622 Y94.12 E4.56423
G1 X116.298 Y94.376 E4.57866
G1 X117.114 Y94.726 E4.59638
G1 X117.502 Y94.913 E4.60497
G1 X118.15 Y95.252 E4.61957
G1 X118.924 Y95.717 E4.63759
G1 X119.654 Y96.249 E4.65561
G1 X120.522 Y97.029 E4.6789
G1 X120.808 Y97.317 E4.687
G1 X121.415 Y97.985 E4.70501
G1 X122.171 Y99.021 E4.73061
G1 X122.338 Y99.283 E4.73681
G1 X122.79 Y100.066 E4.75485
G1 X123.196 Y100.95 E4.77426
G1 X123.336 Y101.297 E4.78173
G1 X123.637 Y102.148 E4.79974
G1 X123.821 Y102.841 E4.81405
G1 X123.882 Y103.108 E4.81952
G1 X124.07 Y104.205 E4.84173
G1 X124.11 Y104.55 E4.84866
G1 X124.176 Y105.535 E4.86836
G1 X124.196 Y106.691 E4.89143
G1 X124.197 Y113.513 E5.02757
G1 X124.186 Y114.364 E5.04456
G1 X124.139 Y115.211 E5.06148
G1 X124.113 Y115.477 E5.06682
G1 X123.936 Y116.618 E5.08986
G1 X123.834 Y117.095 E5.09959
G1 X123.606 Y117.969 E5.11762
G1 X123.302 Y118.819 E5.13563
G1 X122.93 Y119.627 E5.15339
G1 X122.679 Y120.115 E5.16434
G1 X122.23 Y120.899 E5.18237
G1 X121.714 Y121.641 E5.2004
G1 X121.273 Y122.179 E5.21429
G1 X121.007 Y122.482 E5.22233
G1 X120.382 Y123.134 E5.24036
G1 X119.702 Y123.728 E5.25837
G1 X118.971 Y124.259 E5.2764
G1 X118.159 Y124.744 E5.29528
G1 X117.838 Y124.916 E5.30255
G1 X117.309 Y125.18 E5.31435
G1 X116.819 Y125.407 E5.32512
G1 X116.195 Y125.671 E5.33864
G1 X115.419 Y125.955 E5.35513
G1 X114.568 Y126.218 E5.37291
G1 X114.16 Y126.328 E5.38134
G1 X113.425 Y126.498 E5.3964
G1 X112.971 Y126.585 E5.40562
G1 X112.279 Y126.696 E5.41961
G1 X111.632 Y126.77 E5.4326
G1 X111.196 Y126.806 E5.44133
G1 X110.487 Y126.844 E5.4555
G1 X109.584 Y126.846 E5.47352
G1 X108.932 Y126.816 E5.48655
G1 X108.498 Y126.782 E5.49524
G1 X107.795 Y126.706 E5.50935
G1 X107.142 Y126.605 E5.52253
G1 X106.673 Y126.517 E5.53206
G1 X105.916 Y126.345 E5.54755
G1 X105.352 Y126.194 E5.5592
G1 X104.378 Y125.88 E5.57962
G1 X103.702 Y125.624 E5.59405
G1 X102.896 Y125.279 E5.61154
G1 X102.486 Y125.082 E5.62062
G1 X101.81 Y124.727 E5.63586
G1 X101.039 Y124.258 E5.65387
G1 X100.038 Y123.5 E5.67892
G1 X99.293 Y122.806 E5.69924
G1 X98.58 Y122.001 E5.7207
G1 X98.325 Y121.68 E5.72888
G1 X97.795 Y120.948 E5.74692
G1 X97.14 Y119.798 E5.77333
G1 X96.977 Y119.463 E5.78076
G1 X96.618 Y118.634 E5.79879
G1 X96.334 Y117.777 E5.81681
G1 X96.134 Y116.964 E5.83352
G1 X95.936 Y115.827 E5.85655
G1 X95.888 Y115.413 E5.86487
G1 X95.822 Y114.426 E5.88461
G1 X95.803 Y113.321 E5.90666
G1 X95.8 Y106.58 E6.04119
G1 X95.812 Y105.663 E6.05949
G1 X95.841 Y104.993 E6.07287
G1 X95.934 Y104.095 E6.09089
G1 X96.04 Y103.501 E6.10293
G1 X96.129 Y103.075 E6.11161
G1 X96.457 Y101.874 E6.13646
G1 X96.553 Y101.592 E6.1424
G1 X96.882 Y100.751 E6.16042
G1 X97.303 Y99.906 E6.17926
G1 X97.542 Y99.478 E6.18905
G1 X98.017 Y98.71 E6.20707
G1 X98.558 Y97.987 E6.22509
G1 X99.161 Y97.314 E6.24312
M204 S2000
G1 F2400 E5.44312
;MESH:Balloon_Key.stl
G0 F7500 X105.335 Y105.874
G0 X106.419 Y105.921
G0 X107.367 Y114.539
G0 X109.858 Y115.76
G0 X109.867 Y115.994
M204 S500
;TYPE:WALL-INNER
G1 F2400 E6.24312
G1 F1132.1 X110.347 Y115.985 E6.25581
G1 X110.808 Y115.94 E6.26806
G1 F1129.9 X111.134 Y115.888 E6.27681
G1 F1132.1 X111.454 Y115.815 E6.28549
G1 F1134.2 X111.778 Y115.726 E6.29435
G1 F1132.1 X112.083 Y115.622 E6.30287
G1 X112.364 Y115.51 E6.31087
G1 F1129.9 X112.651 Y115.377 E6.31925
G1 F1127.8 X112.927 Y115.227 E6.32759
G1 F1134.2 X113.082 Y115.059 E6.33362
G1 F1165 X113.239 Y114.787 E6.34169
G1 F1202.4 X113.321 Y114.467 E6.34992
G1 F1212.1 X113.348 Y114.197 E6.35662
G1 F1207.2 X113.348 Y105.665 E6.56817
G1 X113.264 Y105.308 E6.57727
G1 F1190.5 X113.118 Y104.974 E6.58643
G1 F1149.4 X112.887 Y104.747 E6.59487
G1 F1127.8 X112.629 Y104.612 E6.60259
G1 F1134.2 X112.128 Y104.395 E6.617
G1 F1138.5 X111.766 Y104.272 E6.62706
G1 F1136.4 X111.42 Y104.176 E6.63651
G1 F1134.2 X111.077 Y104.104 E6.64576
G1 F1132.1 X110.706 Y104.046 E6.65569
G1 X110.132 Y104.007 E6.67091
G1 F1129.9 X109.83 Y104.008 E6.67891
G1 F1127.8 X109.495 Y104.027 E6.68781
G1 F1129.9 X109.191 Y104.06 E6.69591
G1 X108.867 Y104.112 E6.70461
G1 F1132.1 X108.548 Y104.184 E6.71325
G1 F1134.2 X108.207 Y104.279 E6.7226
G1 X107.871 Y104.396 E6.73199
G1 X107.44 Y104.575 E6.7443
G1 F1129.9 X107.098 Y104.758 E6.75458
G1 F1125.7 X106.952 Y104.883 E6.75969
G1 F1156.1 X106.764 Y105.181 E6.76881
G1 F1200 X106.662 Y105.61 E6.77981
G1 F1207.2 X106.65 Y105.93 E6.78775
G1 F1204.8 X106.653 Y114.329 E6.99643
G1 F1195.2 X106.76 Y114.785 E7.00816
G1 F1167.3 X106.873 Y114.995 E7.01427
G1 F1145 X107.088 Y115.25 E7.02299
G1 F1132.1 X107.572 Y115.482 E7.03719
G1 X107.948 Y115.634 E7.04791
G1 F1134.2 X108.296 Y115.747 E7.05757
G1 X108.578 Y115.824 E7.06528
G1 F1132.1 X108.921 Y115.896 E7.07455
G1 X109.294 Y115.954 E7.08453
G1 F1129.9 X109.867 Y115.994 E7.09975
M204 S2000
G0 F7500 X109.858 Y115.76
G0 X111.311 Y115.463
G0 X112.693 Y115.028
G0 X112.593 Y114.816
M204 S500
G1 F1136.4 X112.215 Y114.998 E7.1108
G1 F1134.2 X111.895 Y115.127 E7.1199
G1 F1132.1 X111.609 Y115.224 E7.12789
G1 X111.276 Y115.314 E7.13701
G1 X110.944 Y115.383 E7.14598
G1 F1134.2 X110.641 Y115.427 E7.15406
G1 X110.319 Y115.457 E7.16259
G1 F1132.1 X110.003 Y115.465 E7.17095
G1 X109.681 Y115.457 E7.17947
G1 X109.35 Y115.427 E7.18826
G1 X109.047 Y115.382 E7.19635
G1 F1134.2 X108.686 Y115.305 E7.2061
G1 X108.414 Y115.231 E7.21354
G1 X108.069 Y115.113 E7.22316
G1 X107.779 Y114.993 E7.23144
G1 F1132.1 X107.418 Y114.821 E7.24202
G1 F1156.1 X107.224 Y114.578 E7.25007
G1 F1197.6 X107.155 Y114.332 E7.25645
G1 F1214.6 X107.155 Y105.668 E7.46998
G1 F1207.2 X107.204 Y105.471 E7.47502
G1 F1162.8 X107.373 Y105.2 E7.48324
G1 F1129.9 X107.788 Y105.002 E7.49542
G1 F1132.1 X108.107 Y104.871 E7.50454
G1 F1134.2 X108.414 Y104.769 E7.51308
G1 X108.723 Y104.686 E7.52152
G1 F1132.1 X109.017 Y104.624 E7.52947
G1 F1134.2 X109.359 Y104.573 E7.53859
G1 X109.68 Y104.543 E7.5471
G1 F1132.1 X109.997 Y104.535 E7.55549
G1 X110.318 Y104.543 E7.56398
G1 X110.65 Y104.573 E7.57279
G1 F1134.2 X110.944 Y104.617 E7.58064
G1 F1136.4 X111.315 Y104.695 E7.59062
G1 F1134.2 X111.611 Y104.779 E7.59874
G1 F1136.4 X111.934 Y104.886 E7.60771
G1 F1138.5 X112.21 Y105 E7.61556
G1 F1136.4 X112.555 Y105.165 E7.62563
G1 F1138.5 X112.678 Y105.274 E7.62995
G1 F1174.2 X112.797 Y105.479 E7.636
G1 F1212.1 X112.845 Y105.671 E7.64088
G1 F1224.5 X112.844 Y114.337 E7.85273
G1 F1219.5 X112.801 Y114.52 E7.85735
G1 F1171.9 X112.593 Y114.816 E7.86659
M204 S2000
G0 F7500 X112.346 Y114.42
M204 S500
;TYPE:WALL-OUTER
G1 F1500 X112.02 Y114.575 E7.87379
G1 X111.746 Y114.686 E7.87969
G1 X111.451 Y114.785 E7.8859
G1 X111.192 Y114.857 E7.89127
G1 X110.874 Y114.923 E7.89775
G1 X110.599 Y114.965 E7.9033
G1 X110.288 Y114.992 E7.90953
G1 X109.994 Y115 E7.9154
G1 X109.698 Y114.992 E7.92131
G1 X109.366 Y114.96 E7.92796
G1 X109.113 Y114.921 E7.93307
G1 X108.808 Y114.857 E7.93929
G1 X108.524 Y114.779 E7.94517
G1 X108.246 Y114.684 E7.95103
G1 X107.979 Y114.574 E7.95679
G1 X107.679 Y114.426 E7.96347
G1 X107.6 Y114.287 E7.96666
G1 X107.6 Y105.673 E8.13856
G1 X107.681 Y105.572 E8.14115
G1 X108.023 Y105.407 E8.14872
G1 X108.258 Y105.311 E8.15379
G1 X108.536 Y105.217 E8.15965
G1 X108.819 Y105.141 E8.16549
G1 X109.125 Y105.077 E8.17173
G1 X109.401 Y105.035 E8.1773
G1 X109.711 Y105.008 E8.18351
G1 X110.006 Y105 E8.1894
G1 X110.301 Y105.008 E8.19529
G1 X110.762 Y105.052 E8.20453
G1 X111.192 Y105.143 E8.2133
