;FLAVOR:Marlin
;TIME:3903
;Filament used: 1.336m
;Layer height: 0.12
;MINX:77.376
;MINY:74.266
;MINZ:0.12
;MAXX:142.641
;MAXY:145.763
;MAXZ:8.64
;Generated with Cura_SteamEngine 5.4.0
M82 ;absolute extrusion mode
; Ender 3 S1 Start G-code
G92 E0 ; Reset Extruder
G28 ; Home all axes
M420 S1 ;Use bed leveling data
G1 Z10.0 F3000 ; Move Z Axis up little to prevent scratching of Heat Bed
G1 X0 Y0

M104 S200
M190 S60
M109 S200

G1 X0.1 Y20 Z0.3 F5000.0 ; Move to start position
G1 X0.1 Y200.0 Z0.3 F1500.0 E15 ; Draw the first line
G1 X0.4 Y200.0 Z0.3 F5000.0 ; Move to side a little
G1 X0.4 Y20 Z0.3 F1500.0 E30 ; Draw the second line
G92 E0 ; Reset Extruder
G1 Z2.0 F3000 ; Move Z Axis up little to prevent scratching of Heat Bed
G1 X5 Y20 Z0.3 F5000.0 ; Move over to prevent blob squish
G92 E0
G92 E0
G1 F2400 E-0.8
;LAYER_COUNT:72
;LAYER:0
M107
M204 S2000
G0 F7500 X81.537 Y84.21 Z0.12
M204 S500
;TYPE:SKIRT
G1 F2400 E0
G1 F1500 X82.569 Y83.38 E0.02643
G1 X82.816 Y83.205 E0.03247
G1 X83.793 Y82.592 E0.05549
G1 X85.876 Y81.444 E0.10295
G1 X87.44 Y80.516 E0.13924
G1 X89.968 Y79.043 E0.19763
G1 X91.156 Y78.385 E0.22473
G1 X93.403 Y77.096 E0.27643
G1 X95.316 Y75.942 E0.32101
G1 X96.187 Y75.47 E0.34078
G1 X97.015 Y75.109 E0.35881
G1 X98.443 Y74.666 E0.38864
G1 X98.907 Y74.556 E0.39816
G1 X99.864 Y74.376 E0.41759
G1 X100.824 Y74.281 E0.43685
G1 X101.53 Y74.266 E0.45094
G1 X101.953 Y74.272 E0.45938
G1 X102.926 Y74.327 E0.47883
G1 X103.891 Y74.47 E0.4983
G1 X104.854 Y74.701 E0.51806
G1 X105.387 Y74.855 E0.52913
G1 X106.31 Y75.169 E0.54859
G1 X107.168 Y75.548 E0.56731
G1 X108.063 Y76.043 E0.58772
G1 X109.124 Y76.783 E0.61353
G1 X111.72 Y78.835 E0.67957
G1 X113.765 Y80.359 E0.73046
G1 X115.8 Y81.788 E0.78009
G1 X117.936 Y83.198 E0.83116
G1 X120.043 Y84.507 E0.88066
G1 X122.211 Y85.769 E0.93072
G1 X124.434 Y86.982 E0.98126
G1 X126.681 Y88.125 E1.03157
G1 X128.962 Y89.205 E1.08193
G1 X131.278 Y90.223 E1.13242
G1 X133.571 Y91.157 E1.18183
G1 X134.65 Y91.58 E1.20496
G1 X135.8 Y92.116 E1.23028
G1 X136.298 Y92.387 E1.24159
G1 X137.132 Y92.893 E1.26106
G1 X137.912 Y93.467 E1.28039
G1 X138.529 Y94.002 E1.29668
G1 X138.82 Y94.275 E1.30465
G1 X139.499 Y94.973 E1.32408
G1 X140.09 Y95.697 E1.34273
G1 X140.562 Y96.38 E1.3593
G1 X140.861 Y96.851 E1.37043
G1 X141.311 Y97.633 E1.38844
G1 X141.722 Y98.517 E1.40789
G1 X142.076 Y99.501 E1.42876
G1 X142.305 Y100.375 E1.44679
G1 X142.42 Y100.982 E1.45912
G1 X142.509 Y101.546 E1.47051
G1 X142.619 Y102.517 E1.49001
G1 X142.641 Y103.535 E1.51033
G1 X142.617 Y104.469 E1.52898
G1 X142.589 Y106.993 E1.57935
G1 X142.619 Y109.166 E1.62272
G1 X142.623 Y110.965 E1.65862
G1 X142.604 Y112.16 E1.68247
G1 X142.6 Y114.746 E1.73408
G1 X142.64 Y116.584 E1.77077
G1 X142.585 Y117.897 E1.79699
G1 X142.555 Y118.185 E1.80277
G1 X142.416 Y119.115 E1.82154
G1 X142.158 Y120.171 E1.84323
G1 X142.043 Y120.555 E1.85123
G1 X141.745 Y121.408 E1.86926
G1 X141.317 Y122.353 E1.88996
G1 X140.958 Y123.004 E1.9048
G1 X140.67 Y123.485 E1.91599
G1 X140.132 Y124.295 E1.93539
G1 X139.523 Y125.056 E1.95484
G1 X138.85 Y125.759 E1.97426
G1 X138.127 Y126.394 E1.99347
G1 X137.666 Y126.743 E2.005
G1 X137.207 Y127.072 E2.01627
G1 X136.39 Y127.602 E2.03571
G1 X135.536 Y128.055 E2.055
G1 X134.843 Y128.355 E2.07007
G1 X132.184 Y129.401 E2.12709
G1 X129.866 Y130.391 E2.17739
G1 X127.544 Y131.459 E2.2284
G1 X125.335 Y132.553 E2.27759
G1 X123.104 Y133.738 E2.328
G1 X120.878 Y135.002 E2.37909
G1 X118.764 Y136.283 E2.42841
G1 X116.623 Y137.663 E2.47925
G1 X114.531 Y139.099 E2.52988
G1 X112.576 Y140.524 E2.57816
G1 X109.378 Y143.031 E2.65925
G1 X108.596 Y143.611 E2.67868
G1 X107.796 Y144.102 E2.69742
G1 X106.892 Y144.552 E2.71757
G1 X106.429 Y144.756 E2.72766
G1 X105.521 Y145.106 E2.74708
G1 X104.591 Y145.374 E2.7664
G1 X103.811 Y145.533 E2.78228
G1 X103.268 Y145.621 E2.79326
G1 X102.3 Y145.735 E2.81271
G1 X101.398 Y145.763 E2.83072
G1 X100.356 Y145.703 E2.85155
G1 X99.406 Y145.562 E2.87072
G1 X98.869 Y145.442 E2.8817
G1 X98.389 Y145.323 E2.89157
G1 X97.456 Y145.045 E2.91099
G1 X96.616 Y144.714 E2.92901
G1 X96.003 Y144.42 E2.94258
G1 X95.68 Y144.252 E2.94984
G1 X95.104 Y143.931 E2.963
G1 X93.677 Y143.075 E2.99621
G1 X91.427 Y141.774 E3.04808
G1 X90.548 Y141.291 E3.06809
G1 X88.687 Y140.222 E3.11092
G1 X88.046 Y139.834 E3.12588
G1 X85.764 Y138.495 E3.17868
G1 X84.111 Y137.585 E3.21633
G1 X83.66 Y137.326 E3.22671
G1 X83.042 Y136.947 E3.24118
G1 X82.272 Y136.412 E3.25989
G1 X81.55 Y135.812 E3.27862
G1 X81.021 Y135.302 E3.29329
G1 X80.732 Y135.002 E3.3016
G1 X80.09 Y134.272 E3.321
G1 X79.553 Y133.545 E3.33904
G1 X79.084 Y132.787 E3.35683
G1 X78.877 Y132.419 E3.36525
G1 X78.44 Y131.55 E3.38466
G1 X78.092 Y130.678 E3.4034
G1 X77.824 Y129.79 E3.42191
G1 X77.715 Y129.364 E3.43068
G1 X77.516 Y128.409 E3.45015
G1 X77.403 Y127.441 E3.4696
G1 X77.376 Y126.412 E3.49014
G1 X77.385 Y126.003 E3.49831
G1 X77.512 Y124.569 E3.52704
G1 X77.664 Y123.58 E3.547
G1 X78.017 Y121.044 E3.5981
G1 X78.298 Y118.514 E3.6489
G1 X78.506 Y115.991 E3.69942
G1 X78.637 Y113.535 E3.7485
G1 X78.704 Y110.961 E3.79989
G1 X78.696 Y108.453 E3.84994
G1 X78.618 Y105.945 E3.90001
G1 X78.469 Y103.442 E3.95005
G1 X78.248 Y100.923 E4.00051
G1 X77.957 Y98.442 E4.05036
G1 X77.483 Y95.228 E4.11519
G1 X77.386 Y94.259 E4.13463
G1 X77.376 Y93.292 E4.15393
G1 X77.428 Y92.51 E4.16957
G1 X77.491 Y91.909 E4.18163
G1 X77.641 Y90.928 E4.20143
G1 X77.873 Y89.983 E4.22085
G1 X78.176 Y89.089 E4.23969
G1 X78.719 Y87.903 E4.26572
G1 X78.97 Y87.436 E4.2763
G1 X79.469 Y86.599 E4.29574
G1 X79.997 Y85.866 E4.31377
G1 X80.588 Y85.174 E4.33193
G1 X80.894 Y84.844 E4.34091
G1 X81.537 Y84.21 E4.35893
M204 S2000
G0 F7500 X81.818 Y84.495
M204 S500
G1 F1500 X82.801 Y83.706 E4.38409
G1 X83.029 Y83.544 E4.38967
G1 X84.006 Y82.931 E4.41269
G1 X86.08 Y81.788 E4.45994
G1 X87.641 Y80.862 E4.49616
G1 X90.162 Y79.393 E4.55439
G1 X91.35 Y78.735 E4.58149
G1 X93.61 Y77.439 E4.63348
G1 X95.523 Y76.285 E4.67807
G1 X96.347 Y75.837 E4.69678
G1 X97.175 Y75.476 E4.71481
G1 X98.535 Y75.055 E4.74322
G1 X98.982 Y74.949 E4.75239
G1 X99.904 Y74.774 E4.77112
G1 X100.833 Y74.681 E4.78975
G1 X101.525 Y74.666 E4.80356
G1 X101.931 Y74.671 E4.81166
G1 X102.868 Y74.723 E4.83039
G1 X103.798 Y74.859 E4.84915
G1 X104.743 Y75.085 E4.86854
G1 X105.259 Y75.234 E4.87926
G1 X106.148 Y75.535 E4.89799
G1 X107.006 Y75.914 E4.91671
G1 X107.834 Y76.371 E4.93558
G1 X108.876 Y77.097 E4.96092
G1 X111.481 Y79.156 E5.02719
G1 X113.526 Y80.68 E5.07808
G1 X115.58 Y82.122 E5.12817
G1 X117.725 Y83.538 E5.17946
G1 X119.842 Y84.853 E5.22919
G1 X122.019 Y86.12 E5.27946
G1 X124.253 Y87.339 E5.33024
G1 X126.51 Y88.487 E5.38078
G1 X128.791 Y89.567 E5.43114
G1 X131.117 Y90.589 E5.48184
G1 X133.425 Y91.529 E5.53157
G1 X134.481 Y91.943 E5.55421
G1 X135.631 Y92.479 E5.57953
G1 X136.091 Y92.729 E5.58998
G1 X136.895 Y93.215 E5.60873
G1 X137.65 Y93.769 E5.62741
G1 X138.256 Y94.294 E5.64341
G1 X138.534 Y94.554 E5.65101
G1 X139.189 Y95.226 E5.66974
G1 X139.761 Y95.925 E5.68776
G1 X140.224 Y96.594 E5.704
G1 X140.514 Y97.051 E5.7148
G1 X140.964 Y97.833 E5.7328
G1 X141.359 Y98.685 E5.75154
G1 X141.689 Y99.602 E5.77099
G1 X141.918 Y100.476 E5.78902
G1 X142.025 Y101.045 E5.80058
G1 X142.112 Y101.592 E5.81163
G1 X142.219 Y102.526 E5.83039
G1 X142.241 Y103.525 E5.85033
G1 X142.217 Y104.459 E5.86898
G1 X142.189 Y106.989 E5.91947
G1 X142.219 Y109.167 E5.96294
G1 X142.223 Y110.959 E5.9987
G1 X142.204 Y112.154 E6.02255
G1 X142.2 Y114.745 E6.07426
G1 X142.24 Y116.568 E6.11065
G1 X142.187 Y117.856 E6.13637
G1 X142.159 Y118.127 E6.14181
G1 X142.027 Y119.02 E6.15982
G1 X141.769 Y120.076 E6.18152
G1 X141.665 Y120.423 E6.18874
G1 X141.367 Y121.276 E6.20678
G1 X140.967 Y122.16 E6.22614
G1 X140.615 Y122.799 E6.2407
G1 X140.337 Y123.264 E6.25151
G1 X139.819 Y124.046 E6.27023
G1 X139.234 Y124.78 E6.28896
G1 X138.586 Y125.459 E6.30769
G1 X137.886 Y126.075 E6.3263
G1 X137.433 Y126.418 E6.33764
G1 X136.989 Y126.737 E6.34855
G1 X136.202 Y127.249 E6.36728
G1 X135.377 Y127.688 E6.38593
G1 X134.697 Y127.983 E6.40072
G1 X132.027 Y129.033 E6.45798
G1 X129.709 Y130.023 E6.50828
G1 X127.366 Y131.101 E6.55975
G1 X125.147 Y132.2 E6.60916
G1 X122.906 Y133.39 E6.6598
G1 X120.68 Y134.654 E6.71088
G1 X118.547 Y135.947 E6.76066
G1 X116.406 Y137.327 E6.81149
G1 X114.305 Y138.769 E6.86235
G1 X112.329 Y140.209 E6.91114
G1 X109.139 Y142.71 E6.99203
G1 X108.386 Y143.27 E7.01076
G1 X107.617 Y143.744 E7.02879
G1 X106.731 Y144.186 E7.04855
G1 X106.284 Y144.383 E7.05829
G1 X105.41 Y144.722 E7.077
G1 X104.511 Y144.982 E7.09568
G1 X103.746 Y145.138 E7.11126
G1 X103.221 Y145.224 E7.12187
G1 X102.288 Y145.335 E7.14063
G1 X101.386 Y145.363 E7.15863
G1 X100.414 Y145.307 E7.17806
G1 X99.493 Y145.171 E7.19664
G1 X98.965 Y145.054 E7.20743
G1 X98.503 Y144.94 E7.21693
G1 X97.603 Y144.673 E7.23567
G1 X96.763 Y144.342 E7.25368
G1 X96.187 Y144.065 E7.26644
G1 X95.875 Y143.903 E7.27345
G1 X95.31 Y143.588 E7.28636
G1 X93.883 Y142.732 E7.31957
G1 X91.627 Y141.428 E7.37157
G1 X90.747 Y140.944 E7.39161
G1 X88.894 Y139.88 E7.43425
G1 X88.253 Y139.492 E7.44921
G1 X85.966 Y138.15 E7.50212
G1 X84.31 Y137.238 E7.53985
G1 X83.869 Y136.985 E7.55
G1 X83.27 Y136.618 E7.56402
G1 X82.528 Y136.104 E7.58203
G1 X81.806 Y135.504 E7.60076
G1 X81.309 Y135.024 E7.61455
G1 X81.032 Y134.737 E7.62251
G1 X80.412 Y134.034 E7.64122
G1 X79.875 Y133.307 E7.65925
G1 X79.432 Y132.59 E7.67607
G1 X79.234 Y132.239 E7.68412
G1 X78.812 Y131.402 E7.70282
G1 X78.464 Y130.53 E7.72156
G1 X78.211 Y129.691 E7.73905
G1 X78.106 Y129.282 E7.74747
G1 X77.913 Y128.362 E7.76623
G1 X77.803 Y127.43 E7.78496
G1 X77.776 Y126.421 E7.8051
G1 X77.785 Y126.012 E7.81327
G1 X77.907 Y124.63 E7.84095
G1 X78.059 Y123.641 E7.86092
G1 X78.415 Y121.088 E7.91236
G1 X78.696 Y118.558 E7.96316
G1 X78.904 Y116.024 E8.0139
G1 X79.037 Y113.545 E8.06344
G1 X79.104 Y110.971 E8.11483
G1 X79.096 Y108.452 E8.1651
G1 X79.018 Y105.933 E8.21539
G1 X78.868 Y103.418 E8.26567
G1 X78.646 Y100.888 E8.31635
G1 X78.353 Y98.384 E8.36666
G1 X77.881 Y95.188 E8.43113
G1 X77.786 Y94.254 E8.44987
G1 X77.775 Y93.319 E8.46853
G1 X77.826 Y92.552 E8.48387
G1 X77.889 Y91.951 E8.49593
G1 X78.03 Y91.023 E8.51466
G1 X78.252 Y90.111 E8.53339
G1 X78.54 Y89.256 E8.5514
G1 X79.083 Y88.07 E8.57743
G1 X79.314 Y87.64 E8.58717
G1 X79.794 Y86.833 E8.60591
G1 X80.322 Y86.1 E8.62393
G1 X80.881 Y85.446 E8.6411
G1 X81.175 Y85.129 E8.64973
G1 X81.818 Y84.495 E8.66775
M204 S2000
G0 F7500 X82.099 Y84.78
M204 S500
G1 F1500 X83.032 Y84.032 E8.69162
G1 X83.242 Y83.883 E8.69675
G1 X84.219 Y83.27 E8.71977
G1 X86.284 Y82.132 E8.76682
G1 X87.842 Y81.208 E8.80297
G1 X90.356 Y79.743 E8.86104
G1 X91.544 Y79.085 E8.88814
G1 X93.809 Y77.786 E8.94025
G1 X95.714 Y76.636 E8.98465
G1 X96.507 Y76.204 E9.00267
G1 X97.335 Y75.843 E9.0207
G1 X98.628 Y75.444 E9.0477
G1 X99.057 Y75.342 E9.0565
G1 X99.944 Y75.172 E9.07453
G1 X100.842 Y75.081 E9.09254
G1 X101.521 Y75.066 E9.10609
G1 X101.909 Y75.07 E9.11384
G1 X102.811 Y75.119 E9.13186
G1 X103.705 Y75.248 E9.14989
G1 X104.632 Y75.469 E9.16891
G1 X105.131 Y75.613 E9.17927
G1 X105.987 Y75.901 E9.19729
G1 X106.814 Y76.265 E9.21533
G1 X107.605 Y76.699 E9.23333
G1 X108.628 Y77.411 E9.2582
G1 X111.242 Y79.477 E9.32469
G1 X113.287 Y81.001 E9.37559
G1 X115.36 Y82.456 E9.42613
G1 X117.514 Y83.878 E9.47764
G1 X119.641 Y85.199 E9.52761
G1 X121.827 Y86.471 E9.57808
G1 X124.072 Y87.696 E9.62912
G1 X126.339 Y88.849 E9.67987
G1 X128.62 Y89.929 E9.73024
G1 X130.956 Y90.955 E9.78115
G1 X133.279 Y91.901 E9.83121
G1 X134.312 Y92.306 E9.85335
G1 X135.462 Y92.842 E9.87867
G1 X135.885 Y93.072 E9.88828
G1 X136.659 Y93.538 E9.90631
G1 X137.388 Y94.071 E9.92433
G1 X137.983 Y94.586 E9.94003
G1 X138.248 Y94.834 E9.94727
G1 X138.879 Y95.479 E9.96528
G1 X139.451 Y96.178 E9.98331
G1 X139.886 Y96.809 E9.9986
G1 X140.167 Y97.251 E10.00905
G1 X140.617 Y98.033 E10.02706
G1 X140.996 Y98.853 E10.04509
G1 X141.302 Y99.703 E10.06311
G1 X141.531 Y100.577 E10.08114
G1 X141.63 Y101.108 E10.09192
G1 X141.715 Y101.638 E10.10264
G1 X141.819 Y102.535 E10.12066
G1 X141.841 Y103.515 E10.14022
G1 X141.817 Y104.449 E10.15886
G1 X141.789 Y106.985 E10.20947
G1 X141.819 Y109.168 E10.25304
G1 X141.823 Y110.953 E10.28866
G1 X141.804 Y112.148 E10.31251
G1 X141.8 Y114.744 E10.36432
G1 X141.84 Y116.552 E10.40041
G1 X141.789 Y117.815 E10.42564
G1 X141.763 Y118.069 E10.43073
G1 X141.631 Y118.962 E10.44875
G1 X141.386 Y119.961 E10.46927
G1 X141.287 Y120.291 E10.47615
G1 X140.989 Y121.144 E10.49418
G1 X140.617 Y121.967 E10.5122
G1 X140.272 Y122.594 E10.52648
G1 X140.003 Y123.044 E10.53695
G1 X139.506 Y123.797 E10.55495
G1 X138.944 Y124.504 E10.57298
G1 X138.321 Y125.159 E10.59101
G1 X137.644 Y125.756 E10.60903
G1 X137.2 Y126.093 E10.62015
G1 X136.77 Y126.402 E10.63072
G1 X136.014 Y126.896 E10.64874
G1 X135.218 Y127.321 E10.66675
G1 X134.551 Y127.611 E10.68126
G1 X131.87 Y128.665 E10.73875
G1 X129.552 Y129.655 E10.78905
G1 X127.199 Y130.738 E10.84074
G1 X124.959 Y131.847 E10.89062
G1 X122.718 Y133.037 E10.94126
G1 X120.483 Y134.306 E10.99255
G1 X118.33 Y135.611 E11.04279
G1 X116.189 Y136.991 E11.09362
G1 X114.079 Y138.439 E11.14469
G1 X112.082 Y139.894 E11.194
G1 X108.9 Y142.389 E11.27469
G1 X108.176 Y142.929 E11.29272
G1 X107.407 Y143.403 E11.31074
G1 X106.569 Y143.82 E11.32942
G1 X106.139 Y144.01 E11.33881
G1 X105.298 Y144.338 E11.35682
G1 X104.431 Y144.59 E11.37484
G1 X103.681 Y144.743 E11.39011
G1 X103.173 Y144.827 E11.40039
G1 X102.276 Y144.935 E11.41842
G1 X101.374 Y144.963 E11.43643
G1 X100.472 Y144.911 E11.45446
G1 X99.579 Y144.78 E11.47247
G1 X99.061 Y144.666 E11.48305
G1 X98.616 Y144.556 E11.4922
G1 X97.75 Y144.301 E11.51022
G1 X96.91 Y143.97 E11.52823
G1 X96.371 Y143.71 E11.54018
G1 X96.07 Y143.554 E11.54694
G1 X95.516 Y143.245 E11.5596
G1 X94.089 Y142.389 E11.59281
G1 X91.82 Y141.077 E11.64511
G1 X90.946 Y140.597 E11.66501
G1 X89.101 Y139.538 E11.70747
G1 X88.46 Y139.15 E11.72242
G1 X86.168 Y137.805 E11.77545
G1 X84.509 Y136.891 E11.81325
G1 X84.078 Y136.644 E11.82317
G1 X83.498 Y136.289 E11.83674
G1 X82.756 Y135.775 E11.85475
G1 X82.062 Y135.197 E11.87277
G1 X81.597 Y134.746 E11.8857
G1 X81.332 Y134.472 E11.89331
G1 X80.734 Y133.796 E11.91132
G1 X80.197 Y133.069 E11.92935
G1 X79.78 Y132.393 E11.94521
G1 X79.591 Y132.058 E11.95288
G1 X79.183 Y131.253 E11.97089
G1 X78.847 Y130.414 E11.98893
G1 X78.598 Y129.591 E12.00609
G1 X78.497 Y129.199 E12.01416
G1 X78.31 Y128.315 E12.0322
G1 X78.203 Y127.419 E12.0502
G1 X78.176 Y126.43 E12.06995
G1 X78.185 Y126.021 E12.07811
G1 X78.302 Y124.691 E12.10476
G1 X78.454 Y123.702 E12.12472
G1 X78.813 Y121.132 E12.17651
G1 X79.094 Y118.602 E12.22731
G1 X79.302 Y116.057 E12.27827
G1 X79.437 Y113.555 E12.32827
G1 X79.504 Y110.981 E12.37965
G1 X79.496 Y108.451 E12.43014
G1 X79.418 Y105.921 E12.48066
G1 X79.267 Y103.394 E12.53117
G1 X79.044 Y100.853 E12.58208
G1 X78.749 Y98.325 E12.63287
G1 X78.279 Y95.147 E12.69698
G1 X78.186 Y94.249 E12.715
G1 X78.174 Y93.346 E12.73302
G1 X78.224 Y92.594 E12.74806
G1 X78.285 Y92.01 E12.75978
G1 X78.419 Y91.117 E12.7778
G1 X78.631 Y90.239 E12.79582
G1 X78.919 Y89.384 E12.81382
G1 X79.436 Y88.259 E12.83853
G1 X79.658 Y87.844 E12.84792
G1 X80.119 Y87.067 E12.86595
G1 X80.647 Y86.334 E12.88398
G1 X81.174 Y85.718 E12.90016
G1 X81.456 Y85.414 E12.90843
G1 X82.099 Y84.78 E12.92646
M204 S2000
G1 F2400 E12.12646
;MESH:Plate_Valve.stl
G0 F7500 X88.72 Y91.676
G0 X94.644 Y90.287
M204 S500
;TYPE:WALL-INNER
G1 F2400 E12.92646
G1 F1183.4 X94.327 Y90.539 E12.9367
G1 F1485.1 X89.366 Y92.752 E13.04619
G1 F1515.2 X89.141 Y92.985 E13.05259
G1 F1474.2 X89.014 Y93.249 E13.05854
G1 F1456.3 X88.969 Y93.593 E13.06567
G1 F1492.5 X89.052 Y93.875 E13.07156
G1 F1507.5 X89.17 Y94.073 E13.07614
G1 F1503.8 X89.388 Y94.274 E13.08204
G1 F1481.5 X89.664 Y94.376 E13.08799
G1 F1492.5 X89.892 Y94.409 E13.09261
G1 F1488.8 X90.134 Y94.363 E13.09756
G1 F1467 X90.495 Y94.231 E13.1054
G1 F1463.4 X90.849 Y94.286 E13.11273
G1 F1449.3 X91.036 Y94.411 E13.11738
G1 X95.884 Y102.801 E13.31752
M204 S2000
G0 F7500 X96.499 Y103.33
G0 X95.787 Y103.838
G0 X92.267 Y104.004
M204 S500
G1 F1500 X91.667 Y104.004 E13.32949
M204 S2000
G1 F2400 E12.52949
