;FLAVOR:Marlin
;TIME:924
;Filament used: 0.147935m
;Layer height: 0.12
;MINX:93.459
;MINY:95.081
;MINZ:0.12
;MAXX:126.536
;MAXY:124.918
;MAXZ:10.44
;Generated with Cura_SteamEngine 5.4.0
M82 ;absolute extrusion mode
; Ender 3 S1 Start G-code
G92 E0 ; Reset Extruder
G28 ; Home all axes
M420 S1 ;Use bed leveling data
G1 Z10.0 F3000 ; Move Z Axis up little to prevent scratching of Heat Bed
G1 X0 Y0

M104 S200
M190 S60
M109 S200

G1 X0.1 Y20 Z0.3 F5000.0 ; Move to start position
G1 X0.1 Y200.0 Z0.3 F1500.0 E15 ; Draw the first line
G1 X0.4 Y200.0 Z0.3 F5000.0 ; Move to side a little
G1 X0.4 Y20 Z0.3 F1500.0 E30 ; Draw the second line
G92 E0 ; Reset Extruder
G1 Z2.0 F3000 ; Move Z Axis up little to prevent scratching of Heat Bed
G1 X5 Y20 Z0.3 F5000.0 ; Move over to prevent blob squish
G92 E0
G92 E0
G1 F2400 E-0.8
;LAYER_COUNT:87
;LAYER:0
M107
M204 S2000
G0 F7500 X96.786 Y98.209 Z0.12
M204 S500
;TYPE:SKIRT
G1 F2400 E0
G1 F1500 X97.513 Y97.561 E0.01943
G1 X98.266 Y97 E0.03817
G1 X99.125 Y96.47 E0.05832
G1 X99.996 Y96.037 E0.07773
G1 X100.904 Y95.68 E0.0972
G1 X101.804 Y95.416 E0.11591
G1 X102.807 Y95.217 E0.13632
G1 X104.153 Y95.094 E0.16329
G1 X104.781 Y95.081 E0.17583
G1 X113.624 Y95.085 E0.3523
G1 X114.328 Y95.096 E0.36635
G1 X115.291 Y95.154 E0.3856
G1 X115.985 Y95.249 E0.39958
G1 X116.291 Y95.301 E0.40578
G1 X117.217 Y95.503 E0.42469
G1 X118.567 Y95.953 E0.45309
G1 X119.07 Y96.158 E0.46393
G1 X119.891 Y96.535 E0.48196
G1 X120.798 Y97.056 E0.50283
G1 X121.601 Y97.62 E0.52241
G1 X122.5 Y98.391 E0.54605
G1 X122.806 Y98.685 E0.55452
G1 X123.489 Y99.406 E0.57434
G1 X124.09 Y100.162 E0.59361
G1 X124.599 Y100.919 E0.61181
G1 X125.104 Y101.779 E0.63172
G1 X125.519 Y102.656 E0.65108
G1 X125.819 Y103.45 E0.66802
G1 X125.963 Y103.887 E0.6772
G1 X126.226 Y104.824 E0.69662
G1 X126.405 Y105.776 E0.71595
G1 X126.496 Y106.639 E0.73327
G1 X126.536 Y107.613 E0.75272
G1 X126.496 Y108.515 E0.77074
G1 X126.415 Y109.206 E0.78462
G1 X126.345 Y109.667 E0.79393
G1 X126.171 Y110.554 E0.81197
G1 X125.88 Y111.557 E0.83281
G1 X125.537 Y112.437 E0.85166
G1 X125.364 Y112.826 E0.86015
G1 X124.929 Y113.697 E0.87958
G1 X124.419 Y114.526 E0.89901
G1 X123.854 Y115.289 E0.91795
G1 X123.556 Y115.654 E0.92736
G1 X123.1 Y116.178 E0.94122
G1 X121.911 Y117.46 E0.97611
G1 X120.2 Y119.377 E1.02739
G1 X119.033 Y120.735 E1.06312
G1 X118.381 Y121.42 E1.08199
G1 X117.616 Y122.114 E1.1026
G1 X116.897 Y122.66 E1.12062
G1 X116.285 Y123.056 E1.13517
G1 X115.931 Y123.269 E1.14341
G1 X115.137 Y123.7 E1.16144
G1 X114.178 Y124.115 E1.1823
G1 X113.321 Y124.4 E1.20032
G1 X112.388 Y124.629 E1.21949
G1 X111.418 Y124.805 E1.23916
G1 X110.156 Y124.903 E1.26442
G1 X109.381 Y124.916 E1.27989
G1 X106.96 Y124.918 E1.32821
G1 X106.082 Y124.906 E1.34573
G1 X105.109 Y124.849 E1.36518
G1 X104.145 Y124.704 E1.38463
G1 X103.233 Y124.484 E1.40336
G1 X102.278 Y124.164 E1.42345
G1 X101.45 Y123.802 E1.44149
G1 X100.532 Y123.301 E1.46236
G1 X99.724 Y122.757 E1.4818
G1 X98.968 Y122.145 E1.50121
G1 X98.267 Y121.468 E1.52066
G1 X97.63 Y120.732 E1.54008
G1 X97.099 Y120.001 E1.55811
G1 X96.563 Y119.104 E1.57896
G1 X96.142 Y118.226 E1.5984
G1 X95.8 Y117.315 E1.61781
G1 X95.541 Y116.391 E1.63696
G1 X95.356 Y115.591 E1.65335
G1 X95.108 Y114.451 E1.67663
G1 X94.5 Y111.984 E1.72734
G1 X94.122 Y110.633 E1.75533
G1 X93.825 Y109.526 E1.77821
G1 X93.618 Y108.574 E1.79765
G1 X93.496 Y107.61 E1.81704
G1 X93.46 Y106.734 E1.83454
G1 X93.459 Y106.071 E1.84777
G1 X93.504 Y105.1 E1.86717
G1 X93.622 Y104.205 E1.88518
G1 X93.851 Y103.184 E1.90606
G1 X94.149 Y102.257 E1.92549
G1 X94.528 Y101.361 E1.94491
G1 X94.967 Y100.531 E1.96365
G1 X95.518 Y99.685 E1.98379
G1 X96.119 Y98.918 E2.00324
G1 X96.786 Y98.209 E2.02266
M204 S2000
G0 F7500 X97.053 Y98.507
M204 S500
G1 F1500 X97.752 Y97.882 E2.04138
G1 X98.505 Y97.321 E2.06012
G1 X99.304 Y96.828 E2.07885
G1 X100.143 Y96.409 E2.09757
G1 X101.017 Y96.064 E2.11632
G1 X101.917 Y95.8 E2.13504
G1 X102.844 Y95.615 E2.1539
G1 X104.161 Y95.494 E2.18029
G1 X104.781 Y95.481 E2.19267
G1 X113.618 Y95.485 E2.36902
G1 X114.304 Y95.495 E2.38271
G1 X115.237 Y95.55 E2.40136
G1 X115.918 Y95.643 E2.41508
G1 X116.206 Y95.692 E2.42091
G1 X117.132 Y95.894 E2.43982
G1 X118.416 Y96.324 E2.46684
G1 X118.903 Y96.522 E2.47734
G1 X119.724 Y96.899 E2.49536
G1 X120.569 Y97.384 E2.51481
G1 X121.341 Y97.924 E2.53361
G1 X122.223 Y98.68 E2.55679
G1 X122.516 Y98.961 E2.56489
G1 X123.176 Y99.655 E2.584
G1 X123.758 Y100.386 E2.60265
G1 X124.254 Y101.122 E2.62036
G1 X124.743 Y101.951 E2.63957
G1 X125.145 Y102.797 E2.65826
G1 X125.439 Y103.576 E2.67488
G1 X125.578 Y103.996 E2.68371
G1 X125.833 Y104.898 E2.70241
G1 X126.007 Y105.818 E2.7211
G1 X126.096 Y106.656 E2.73792
G1 X126.136 Y107.595 E2.75667
G1 X126.096 Y108.497 E2.77469
G1 X126.019 Y109.146 E2.78773
G1 X125.952 Y109.59 E2.79669
G1 X125.778 Y110.477 E2.81473
G1 X125.507 Y111.412 E2.83416
G1 X125.171 Y112.275 E2.85264
G1 X125.006 Y112.648 E2.86078
G1 X124.588 Y113.488 E2.8795
G1 X124.098 Y114.288 E2.89822
G1 X123.544 Y115.036 E2.9168
G1 X123.254 Y115.392 E2.92596
G1 X122.807 Y115.906 E2.93956
G1 X121.618 Y117.188 E2.97445
G1 X119.897 Y119.116 E3.02602
G1 X118.743 Y120.459 E3.06136
G1 X118.091 Y121.144 E3.08023
G1 X117.374 Y121.795 E3.09956
G1 X116.655 Y122.341 E3.11757
G1 X116.079 Y122.713 E3.13126
G1 X115.74 Y122.917 E3.13915
G1 X114.946 Y123.348 E3.15718
G1 X114.052 Y123.735 E3.17662
G1 X113.195 Y124.02 E3.19465
G1 X112.316 Y124.236 E3.21271
G1 X111.387 Y124.406 E3.23156
G1 X110.149 Y124.503 E3.25634
G1 X109.381 Y124.516 E3.27167
G1 X106.965 Y124.518 E3.31988
G1 X106.105 Y124.507 E3.33704
G1 X105.168 Y124.453 E3.35577
G1 X104.239 Y124.315 E3.37452
G1 X103.327 Y124.095 E3.39324
G1 X102.438 Y123.797 E3.41195
G1 X101.61 Y123.435 E3.42998
G1 X100.755 Y122.969 E3.44942
G1 X99.975 Y122.446 E3.46816
G1 X99.245 Y121.857 E3.48688
G1 X98.569 Y121.206 E3.5056
G1 X97.954 Y120.497 E3.52433
G1 X97.423 Y119.766 E3.54237
G1 X96.923 Y118.93 E3.5618
G1 X96.516 Y118.085 E3.58052
G1 X96.185 Y117.207 E3.59925
G1 X95.931 Y116.301 E3.61802
G1 X95.747 Y115.506 E3.63431
G1 X95.499 Y114.366 E3.65759
G1 X94.888 Y111.888 E3.70852
G1 X94.508 Y110.529 E3.73668
G1 X94.216 Y109.44 E3.75918
G1 X94.015 Y108.523 E3.77792
G1 X93.896 Y107.593 E3.79663
G1 X93.86 Y106.733 E3.81381
G1 X93.859 Y106.089 E3.82666
G1 X93.901 Y105.152 E3.84537
G1 X94.019 Y104.257 E3.86339
G1 X94.232 Y103.306 E3.88284
G1 X94.518 Y102.412 E3.90157
G1 X94.882 Y101.548 E3.92028
G1 X95.321 Y100.718 E3.93902
G1 X95.833 Y99.931 E3.95775
G1 X96.411 Y99.192 E3.97648
G1 X97.053 Y98.507 E3.99521
M204 S2000
G0 F7500 X97.32 Y98.805
M204 S500
G1 F1500 X97.992 Y98.202 E4.01323
G1 X98.715 Y97.661 E4.03125
G1 X99.483 Y97.186 E4.04927
G1 X100.291 Y96.781 E4.06731
G1 X101.13 Y96.448 E4.08532
G1 X101.996 Y96.192 E4.10334
G1 X102.881 Y96.013 E4.12136
G1 X104.17 Y95.894 E4.14719
G1 X104.781 Y95.881 E4.15939
G1 X113.613 Y95.885 E4.33564
G1 X114.281 Y95.894 E4.34897
G1 X115.183 Y95.946 E4.367
G1 X115.851 Y96.037 E4.38046
G1 X116.122 Y96.083 E4.38594
G1 X117.005 Y96.273 E4.40397
G1 X118.265 Y96.694 E4.43048
G1 X118.736 Y96.886 E4.44063
G1 X119.557 Y97.263 E4.45866
G1 X120.34 Y97.712 E4.47667
G1 X121.081 Y98.228 E4.49469
G1 X121.946 Y98.969 E4.51742
G1 X122.239 Y99.25 E4.52552
G1 X122.863 Y99.904 E4.54356
G1 X123.426 Y100.61 E4.56158
G1 X123.922 Y101.346 E4.57929
G1 X124.382 Y102.123 E4.59731
G1 X124.771 Y102.938 E4.61533
G1 X125.059 Y103.702 E4.63163
G1 X125.193 Y104.105 E4.6401
G1 X125.44 Y104.973 E4.65811
G1 X125.609 Y105.861 E4.67615
G1 X125.696 Y106.674 E4.69247
G1 X125.736 Y107.577 E4.71051
G1 X125.696 Y108.479 E4.72852
G1 X125.623 Y109.087 E4.74074
G1 X125.559 Y109.513 E4.74934
G1 X125.385 Y110.4 E4.76738
G1 X125.134 Y111.267 E4.78539
G1 X124.805 Y112.114 E4.80353
G1 X124.648 Y112.47 E4.81129
G1 X124.247 Y113.279 E4.82931
G1 X123.776 Y114.05 E4.84734
G1 X123.233 Y114.784 E4.86556
G1 X122.952 Y115.13 E4.87445
G1 X122.514 Y115.634 E4.88778
G1 X121.325 Y116.916 E4.92267
G1 X119.594 Y118.855 E4.97454
G1 X118.453 Y120.183 E5.00948
G1 X117.801 Y120.868 E5.02836
G1 X117.132 Y121.476 E5.0464
G1 X116.413 Y122.022 E5.06441
G1 X115.873 Y122.37 E5.07723
G1 X115.549 Y122.565 E5.08478
G1 X114.755 Y122.996 E5.10281
G1 X113.926 Y123.355 E5.12084
G1 X113.069 Y123.64 E5.13886
G1 X112.243 Y123.843 E5.15583
G1 X111.355 Y124.007 E5.17385
G1 X110.142 Y124.103 E5.19814
G1 X109.381 Y124.116 E5.21333
G1 X106.97 Y124.118 E5.26144
G1 X106.128 Y124.108 E5.27824
G1 X105.226 Y124.057 E5.29627
G1 X104.332 Y123.926 E5.3143
G1 X103.454 Y123.716 E5.33232
G1 X102.598 Y123.43 E5.35033
G1 X101.77 Y123.068 E5.36836
G1 X100.977 Y122.636 E5.38639
G1 X100.226 Y122.134 E5.40441
G1 X99.522 Y121.568 E5.42244
G1 X98.871 Y120.943 E5.44045
G1 X98.278 Y120.262 E5.45847
G1 X97.747 Y119.531 E5.4765
G1 X97.283 Y118.756 E5.49453
G1 X96.89 Y117.943 E5.51255
G1 X96.57 Y117.099 E5.53056
G1 X96.321 Y116.211 E5.54896
G1 X96.138 Y115.421 E5.56515
G1 X95.89 Y114.281 E5.58843
G1 X95.276 Y111.792 E5.63959
G1 X94.894 Y110.426 E5.66789
G1 X94.607 Y109.354 E5.69004
G1 X94.412 Y108.472 E5.70807
G1 X94.296 Y107.576 E5.7261
G1 X94.26 Y106.732 E5.74295
G1 X94.259 Y106.106 E5.75545
G1 X94.298 Y105.204 E5.77346
G1 X94.416 Y104.309 E5.79148
G1 X94.613 Y103.427 E5.80951
G1 X94.887 Y102.567 E5.82753
G1 X95.236 Y101.734 E5.84555
G1 X95.657 Y100.935 E5.86357
G1 X96.148 Y100.177 E5.8816
G1 X96.703 Y99.465 E5.89961
G1 X97.32 Y98.805 E5.91764
M204 S2000
G1 F2400 E5.11764
;MESH:Valve_Clip_x3.stl
G0 F7500 X104.864 Y105.416
G0 X104.864 Y106.495
G0 X106.58 Y106.952
G0 X107.346 Y106.685
M204 S500
;TYPE:WALL-INNER
G1 F2400 E5.91764
G1 F1481.5 X114.093 Y106.684 E6.05397
G1 F1511.3 X114.328 Y106.733 E6.05872
G1 F1526.7 X114.655 Y106.893 E6.06586
G1 F1507.5 X114.857 Y107.204 E6.07322
G1 F1500 X114.936 Y107.445 E6.07829
G1 F1519 X114.905 Y107.847 E6.08623
G1 F1507.5 X114.801 Y108.063 E6.09099
G1 F1500 X114.635 Y108.262 E6.09616
G1 F1492.5 X114.346 Y108.422 E6.10279
G1 F1496.3 X114.086 Y108.479 E6.10811
G1 F1515.2 X111.028 Y108.483 E6.16853
G1 F1519 X110.824 Y108.528 E6.17265
G1 F1526.7 X110.585 Y108.707 E6.1785
G1 F1530.6 X110.495 Y108.862 E6.18201
G1 F1519 X110.451 Y109.051 E6.18583
G1 F1507.5 X110.448 Y112.756 E6.2594
G1 F1511.3 X110.415 Y112.93 E6.2629
G1 F1519 X110.231 Y113.18 E6.26902
G1 F1522.8 X110.067 Y113.275 E6.27275
G1 X109.88 Y113.318 E6.27652
G1 F1511.3 X107.45 Y113.319 E6.32465
G1 F1195.2 X106.953 Y113.216 E6.33736
G1 F1183.4 X106.854 Y112.823 E6.34761
G1 F1481.5 X106.85 Y112.119 E6.36184
M204 S2000
G0 F7500 X107.022 Y113.147
G0 X110.278 Y113.147
G0 X110.629 Y108.451
G0 X114.116 Y108.32
G0 X114.475 Y108.209
G0 X114.743 Y107.872
G0 X114.802 Y107.511
G0 X114.633 Y107.088
G0 X114.209 Y106.846
G0 X107.022 Y106.853
G0 X106.58 Y106.952
G0 X107.346 Y106.685
M204 S500
G1 F1293.1 X106.575 Y106.741 E6.37973
G1 F1156.1 X105.669 Y106.74 E6.40319
G1 X106.449 Y107.26 E6.42746
G1 X106.794 Y107.26 E6.4364
G1 X106.822 Y107.079 E6.44114
G1 F1293.1 X107.346 Y106.685 E6.45632
M204 S2000
G1 F2400 E5.65632
G0 F7500 X106.58 Y106.952
G0 X107.022 Y106.853
G0 X114.209 Y106.846
G0 X114.633 Y107.088
G0 X114.802 Y107.511
G0 X114.743 Y107.872
G0 X114.475 Y108.209
G0 X114.116 Y108.32
G0 X110.462 Y108.606
G0 X110.35 Y112.827
G0 X110.021 Y112.826
M204 S500
;TYPE:WALL-OUTER
G1 F2400 E6.45632
G1 F1500 X109.895 Y112.915 E6.45939
G1 X107.45 Y112.919 E6.50819
G1 X107.308 Y112.861 E6.51125
G1 X107.252 Y112.754 E6.51366
G1 X107.25 Y111.719 E6.53431
G1 X106.45 Y111.719 E6.55028
G1 X106.451 Y113.718 E6.59017
G1 X109.917 Y113.716 E6.65934
G1 X110.213 Y113.649 E6.66539
G1 X110.475 Y113.497 E6.67144
G1 X110.631 Y113.341 E6.67584
G1 X110.791 Y113.087 E6.68183
G1 X110.847 Y112.793 E6.6878
G1 X110.85 Y109.07 E6.7621
G1 X110.893 Y108.955 E6.76455
G1 X111.005 Y108.886 E6.76718
G1 X114.125 Y108.877 E6.82944
G1 X114.478 Y108.806 E6.83663
G1 X114.862 Y108.613 E6.8452
G1 X115.141 Y108.28 E6.85387
G1 X115.288 Y107.967 E6.86077
G1 X115.348 Y107.619 E6.86782
G1 X115.329 Y107.37 E6.8728
G1 X115.224 Y107.034 E6.87983
G1 X115.036 Y106.739 E6.88681
G1 X114.79 Y106.499 E6.89367
G1 X114.391 Y106.329 E6.90232
G1 X114.129 Y106.284 E6.90763
G1 X104.65 Y106.281 E7.09679
G1 X104.65 Y106.612 E7.1034
G1 X106.31 Y107.719 E7.14321
G1 X107.25 Y107.719 E7.16197
G1 X107.25 Y107.227 E7.17179
G1 X107.415 Y107.083 E7.17616
G1 X114.148 Y107.085 E7.31053
G1 X114.424 Y107.246 E7.3169
G1 X114.558 Y107.539 E7.32333
G1 X114.494 Y107.807 E7.32883
G1 X114.309 Y108.011 E7.33433
G1 X114.093 Y108.078 E7.33884
G1 X110.983 Y108.085 E7.4009
G1 X110.685 Y108.153 E7.407
G1 X110.492 Y108.255 E7.41136
G1 X110.273 Y108.456 E7.41729
G1 X110.122 Y108.716 E7.42329
G1 X110.054 Y109.014 E7.42939
G1 X110.048 Y112.757 E7.50409
G1 X110.021 Y112.826 E7.50557
M104 S200
M204 S2000
G1 F2400 E6.70557
;MESH:NONMESH
G0 F300 X110.021 Y112.826 Z0.24
G0 F7500 X110.35 Y112.827
G0 X110.629 Y108.451
G0 X114.116 Y108.32
G0 X114.475 Y108.209
G0 X114.743 Y107.872
G0 X114.802 Y107.511
G0 X114.633 Y107.088
G0 X114.252 Y106.871
G0 X104.881 Y106.501
G0 X104.881 Y105.416
G0 X97.32 Y98.805
;TIME_ELAPSED:23.057486
;LAYER:1
M106 S85
M204 S500
;TYPE:SKIRT
G1 F2400 E7.50557
G1 F1116.8 X97.992 Y98.202 E7.52358
G1 X98.715 Y97.661 E7.5416
G1 X99.483 Y97.186 E7.55962
G1 X100.291 Y96.781 E7.57766
G1 X101.13 Y96.448 E7.59567
G1 X101.996 Y96.192 E7.6137
G1 X102.881 Y96.013 E7.63171
G1 X104.17 Y95.894 E7.65755
G1 X104.781 Y95.881 E7.66974
G1 X113.613 Y95.885 E7.846
G1 X114.281 Y95.894 E7.85933
G1 X115.183 Y95.946 E7.87736
G1 X115.851 Y96.037 E7.89081
G1 X116.122 Y96.083 E7.8963
G1 X117.005 Y96.273 E7.91432
G1 X118.265 Y96.694 E7.94083
G1 X118.736 Y96.886 E7.95098
G1 X119.557 Y97.263 E7.96901
G1 X120.34 Y97.712 E7.98702
G1 X121.081 Y98.228 E8.00504
G1 X121.946 Y98.969 E8.02777
G1 X122.239 Y99.25 E8.03588
G1 X122.863 Y99.904 E8.05391
G1 X123.426 Y100.61 E8.07193
G1 X123.922 Y101.346 E8.08965
G1 X124.382 Y102.123 E8.10767
G1 X124.771 Y102.938 E8.12569
G1 X125.059 Y103.702 E8.14198
G1 X125.193 Y104.105 E8.15046
G1 X125.44 Y104.973 E8.16847
G1 X125.609 Y105.861 E8.1865
G1 X125.696 Y106.674 E8.20282
G1 X125.736 Y107.577 E8.22086
G1 X125.696 Y108.479 E8.23888
G1 X125.623 Y109.087 E8.2511
G1 X125.559 Y109.513 E8.2597
G1 X125.385 Y110.4 E8.27773
G1 X125.134 Y111.267 E8.29575
G1 X124.805 Y112.114 E8.31388
G1 X124.648 Y112.47 E8.32164
G1 X124.247 Y113.279 E8.33966
G1 X123.776 Y114.05 E8.35769
G1 X123.233 Y114.784 E8.37591
G1 X122.952 Y115.13 E8.38481
G1 X122.514 Y115.634 E8.39813
G1 X121.325 Y116.916 E8.43303
G1 X119.594 Y118.855 E8.4849
G1 X118.453 Y120.183 E8.51984
G1 X117.801 Y120.868 E8.53871
G1 X117.132 Y121.476 E8.55675
G1 X116.413 Y122.022 E8.57477
G1 X115.873 Y122.37 E8.58759
G1 X115.549 Y122.565 E8.59513
G1 X114.755 Y122.996 E8.61316
G1 X113.926 Y123.355 E8.63119
G1 X113.069 Y123.64 E8.64921
G1 X112.243 Y123.843 E8.66619
G1 X111.355 Y124.007 E8.68421
G1 X110.142 Y124.103 E8.70849
G1 X109.381 Y124.116 E8.72368
G1 X106.97 Y124.118 E8.77179
G1 X106.128 Y124.108 E8.7886
G1 X105.226 Y124.057 E8.80663
G1 X104.332 Y123.926 E8.82466
G1 X103.454 Y123.716 E8.84267
G1 X102.598 Y123.43 E8.86068
G1 X101.77 Y123.068 E8.87872
G1 X100.977 Y122.636 E8.89674
G1 X100.226 Y122.134 E8.91477
G1 X99.522 Y121.568 E8.93279
G1 X98.871 Y120.943 E8.9508
G1 X98.278 Y120.262 E8.96882
G1 X97.747 Y119.531 E8.98685
G1 X97.283 Y118.756 E9.00488
G1 X96.89 Y117.943 E9.0229
G1 X96.57 Y117.099 E9.04091
G1 X96.321 Y116.211 E9.05932
G1 X96.138 Y115.421 E9.0755
G1 X95.89 Y114.281 E9.09878
G1 X95.276 Y111.792 E9.14994
G1 X94.894 Y110.426 E9.17825
G1 X94.607 Y109.354 E9.20039
G1 X94.412 Y108.472 E9.21842
G1 X94.296 Y107.576 E9.23645
G1 X94.26 Y106.732 E9.25331
G1 X94.259 Y106.106 E9.2658
G1 X94.298 Y105.204 E9.28382
G1 X94.416 Y104.309 E9.30183
G1 X94.613 Y103.427 E9.31987
G1 X94.887 Y102.567 E9.33788
G1 X95.236 Y101.734 E9.3559
G1 X95.657 Y100.935 E9.37393
G1 X96.148 Y100.177 E9.39195
G1 X96.703 Y99.465 E9.40997
G1 X97.32 Y98.805 E9.428
M204 S2000
G1 F2400 E8.628
;MESH:Valve_Clip_x3.stl
G0 F8250 X104.864 Y105.416
G0 X104.864 Y106.495
G0 X106.58 Y106.952
G0 X107.346 Y106.685
M204 S500
;TYPE:WALL-INNER
G1 F2400 E9.428
G1 F1111.2 X114.108 Y106.683 E9.56361
