;FLAVOR:Marlin
;TIME:1945
;Filament used: 0.792414m
;Layer height: 0.12
;MINX:84.516
;MINY:78.4
;MINZ:0.12
;MAXX:135.484
;MAXY:141.6
;MAXZ:10.56
;Generated with Cura_SteamEngine 5.4.0
M82 ;absolute extrusion mode
; Ender 3 S1 Start G-code
G92 E0 ; Reset Extruder
G28 ; Home all axes
M420 S1 ;Use bed leveling data
G1 Z10.0 F3000 ; Move Z Axis up little to prevent scratching of Heat Bed
G1 X0 Y0

M104 S200
M190 S60
M109 S200

G1 X0.1 Y20 Z0.3 F5000.0 ; Move to start position
G1 X0.1 Y200.0 Z0.3 F1500.0 E15 ; Draw the first line
G1 X0.4 Y200.0 Z0.3 F5000.0 ; Move to side a little
G1 X0.4 Y20 Z0.3 F1500.0 E30 ; Draw the second line
G92 E0 ; Reset Extruder
G1 Z2.0 F3000 ; Move Z Axis up little to prevent scratching of Heat Bed
G1 X5 Y20 Z0.3 F5000.0 ; Move over to prevent blob squish
G92 E0
G92 E0
G1 F2400 E-0.8
;LAYER_COUNT:88
;LAYER:0
M107
M204 S2000
G0 F7500 X93.353 Y82.638 Z0.12
M204 S500
;TYPE:SKIRT
G1 F2400 E0
G1 F1500 X94.112 Y81.838 E0.02201
G1 X95.003 Y81.068 E0.04551
G1 X95.388 Y80.773 E0.05519
G1 X96.186 Y80.217 E0.0746
G1 X96.969 Y79.766 E0.09263
G1 X97.934 Y79.323 E0.11382
G1 X99.24 Y78.885 E0.14131
G1 X99.67 Y78.772 E0.15018
G1 X100.623 Y78.567 E0.16963
G1 X101.581 Y78.447 E0.1889
G1 X102.284 Y78.414 E0.20294
G1 X103.131 Y78.401 E0.21985
G1 X116.829 Y78.4 E0.49321
G1 X117.711 Y78.413 E0.51081
G1 X118.682 Y78.472 E0.53022
G1 X119.575 Y78.604 E0.54824
G1 X120.231 Y78.75 E0.56165
G1 X120.611 Y78.847 E0.56948
G1 X121.542 Y79.132 E0.58891
G1 X122.448 Y79.498 E0.60841
G1 X123.349 Y79.962 E0.62863
G1 X123.651 Y80.137 E0.6356
G1 X124.443 Y80.642 E0.65434
G1 X125.246 Y81.261 E0.67457
G1 X125.977 Y81.939 E0.69447
G1 X126.253 Y82.22 E0.70233
G1 X126.903 Y82.946 E0.72178
G1 X127.477 Y83.714 E0.74091
G1 X127.788 Y84.196 E0.75236
G1 X128.177 Y84.851 E0.76756
G1 X128.422 Y85.294 E0.77766
G1 X128.86 Y86.179 E0.79737
G1 X129.291 Y87.331 E0.82192
G1 X130.017 Y89.692 E0.87121
G1 X130.837 Y92.124 E0.92243
G1 X131.706 Y94.48 E0.97254
G1 X132.661 Y96.855 E1.02362
G1 X133.624 Y99.147 E1.07324
G1 X133.949 Y99.988 E1.09123
G1 X134.104 Y100.426 E1.1005
G1 X134.392 Y101.322 E1.11928
G1 X134.665 Y102.29 E1.13935
G1 X134.881 Y103.19 E1.15782
G1 X135.063 Y104.097 E1.17628
G1 X135.183 Y104.804 E1.1906
G1 X135.304 Y105.668 E1.20801
G1 X135.387 Y106.476 E1.22422
G1 X135.462 Y107.695 E1.24859
G1 X135.484 Y108.591 E1.26647
G1 X135.475 Y109.365 E1.28192
G1 X135.417 Y110.528 E1.30516
G1 X135.345 Y111.354 E1.3217
G1 X135.208 Y112.436 E1.34347
G1 X135.079 Y113.227 E1.35946
G1 X134.861 Y114.297 E1.38126
G1 X134.63 Y115.242 E1.40067
G1 X134.423 Y115.979 E1.41595
G1 X134.06 Y117.099 E1.43944
G1 X133.789 Y117.84 E1.45519
G1 X133.343 Y118.924 E1.47858
G1 X133.066 Y119.536 E1.49198
G1 X132.501 Y120.661 E1.51711
G1 X131.919 Y121.712 E1.54108
G1 X130.796 Y123.621 E1.58528
G1 X129.598 Y125.794 E1.6348
G1 X128.451 Y128.023 E1.68483
G1 X127.347 Y130.325 E1.73577
G1 X126.48 Y132.258 E1.77805
G1 X126.051 Y133.24 E1.79944
G1 X125.673 Y134.018 E1.8167
G1 X125.367 Y134.575 E1.82938
G1 X124.387 Y136.249 E1.86809
G1 X123.85 Y137.06 E1.8875
G1 X123.242 Y137.821 E1.90694
G1 X122.57 Y138.527 E1.92639
G1 X121.838 Y139.169 E1.94582
G1 X121.053 Y139.744 E1.96524
G1 X120.251 Y140.231 E1.98396
G1 X119.344 Y140.675 E2.00412
G1 X118.435 Y141.023 E2.02354
G1 X117.499 Y141.291 E2.04297
G1 X116.541 Y141.474 E2.06243
G1 X115.591 Y141.571 E2.08149
G1 X115.118 Y141.588 E2.09094
G1 X114.357 Y141.599 E2.10612
G1 X105.735 Y141.6 E2.27818
G1 X104.853 Y141.587 E2.29579
G1 X103.882 Y141.528 E2.3152
G1 X102.918 Y141.382 E2.33466
G1 X101.971 Y141.151 E2.35411
G1 X101.115 Y140.863 E2.37213
G1 X100.159 Y140.444 E2.39296
G1 X99.306 Y139.973 E2.41241
G1 X98.499 Y139.428 E2.43184
G1 X97.744 Y138.815 E2.45125
G1 X97.043 Y138.137 E2.47071
G1 X96.429 Y137.427 E2.48944
G1 X95.849 Y136.623 E2.50923
G1 X95.565 Y136.17 E2.5199
G1 X94.869 Y134.986 E2.54731
G1 X94.384 Y134.119 E2.56713
G1 X93.921 Y133.188 E2.58788
G1 X92.966 Y131.001 E2.6355
G1 X91.898 Y128.721 E2.68575
G1 X90.759 Y126.462 E2.73624
G1 X89.578 Y124.279 E2.78577
G1 X88.005 Y121.576 E2.84818
G1 X87.626 Y120.898 E2.86368
G1 X87.135 Y119.952 E2.88495
G1 X86.943 Y119.556 E2.89373
G1 X86.604 Y118.8 E2.91026
G1 X86.335 Y118.153 E2.92425
G1 X86.068 Y117.46 E2.93907
G1 X85.921 Y117.046 E2.94783
G1 X85.595 Y116.031 E2.96911
G1 X85.331 Y115.091 E2.98859
G1 X85.203 Y114.577 E2.99916
G1 X84.999 Y113.636 E3.01838
G1 X84.922 Y113.23 E3.02663
G1 X84.776 Y112.327 E3.04488
G1 X84.65 Y111.317 E3.06519
G1 X84.574 Y110.415 E3.08326
G1 X84.526 Y109.408 E3.10337
G1 X84.516 Y108.465 E3.12219
G1 X84.542 Y107.613 E3.1392
G1 X84.586 Y106.822 E3.15501
G1 X84.651 Y106.066 E3.17016
G1 X84.776 Y105.076 E3.19007
G1 X84.947 Y104.035 E3.21112
G1 X85.115 Y103.201 E3.2281
G1 X85.345 Y102.256 E3.24751
G1 X85.452 Y101.86 E3.2557
G1 X85.726 Y100.939 E3.27487
G1 X86.048 Y99.996 E3.29476
G1 X86.374 Y99.149 E3.31287
G1 X87.636 Y96.13 E3.37817
G1 X88.571 Y93.737 E3.42944
G1 X89.411 Y91.395 E3.47909
G1 X90.346 Y88.51 E3.53961
G1 X90.683 Y87.41 E3.56257
G1 X90.986 Y86.559 E3.5806
G1 X91.572 Y85.325 E3.60786
G1 X92.002 Y84.551 E3.62553
G1 X92.475 Y83.782 E3.64355
G1 X93.353 Y82.638 E3.67232
M204 S2000
G0 F7500 X93.643 Y82.913
M204 S500
G1 F1500 X94.374 Y82.141 E3.69354
G1 X95.265 Y81.371 E3.71704
G1 X95.617 Y81.101 E3.72589
G1 X96.386 Y80.564 E3.74461
G1 X97.169 Y80.113 E3.76264
G1 X98.061 Y79.702 E3.78224
G1 X99.342 Y79.272 E3.80921
G1 X99.755 Y79.163 E3.81773
G1 X100.673 Y78.964 E3.83648
G1 X101.6 Y78.847 E3.85512
G1 X102.29 Y78.814 E3.86891
G1 X103.131 Y78.801 E3.8857
G1 X116.823 Y78.8 E4.15893
G1 X117.687 Y78.812 E4.17618
G1 X118.624 Y78.868 E4.19491
G1 X119.517 Y79 E4.21292
G1 X120.132 Y79.137 E4.2255
G1 X120.495 Y79.23 E4.23298
G1 X121.393 Y79.503 E4.25171
G1 X122.265 Y79.854 E4.27047
G1 X123.149 Y80.309 E4.29031
G1 X123.437 Y80.475 E4.29694
G1 X124.199 Y80.959 E4.31495
G1 X124.974 Y81.554 E4.33445
G1 X125.692 Y82.219 E4.35398
G1 X125.955 Y82.487 E4.36148
G1 X126.583 Y83.186 E4.38023
G1 X127.141 Y83.931 E4.3988
G1 X127.444 Y84.4 E4.40995
G1 X127.827 Y85.045 E4.42492
G1 X128.064 Y85.472 E4.43466
G1 X128.485 Y86.319 E4.45354
G1 X128.916 Y87.471 E4.47808
G1 X129.638 Y89.82 E4.52712
G1 X130.458 Y92.252 E4.57834
G1 X131.335 Y94.629 E4.6289
G1 X132.292 Y97.01 E4.68011
G1 X133.251 Y99.291 E4.72949
G1 X133.572 Y100.121 E4.74725
G1 X133.723 Y100.548 E4.75629
G1 X134.007 Y101.431 E4.7748
G1 X134.276 Y102.383 E4.79454
G1 X134.489 Y103.269 E4.81273
G1 X134.669 Y104.164 E4.83095
G1 X134.787 Y104.859 E4.84501
G1 X134.906 Y105.709 E4.86214
G1 X134.988 Y106.501 E4.87803
G1 X135.062 Y107.705 E4.9021
G1 X135.084 Y108.587 E4.91971
G1 X135.076 Y109.345 E4.93484
G1 X135.018 Y110.494 E4.9578
G1 X134.948 Y111.304 E4.97402
G1 X134.813 Y112.372 E4.9955
G1 X134.687 Y113.147 E5.01117
G1 X134.472 Y114.202 E5.03266
G1 X134.245 Y115.134 E5.0518
G1 X134.043 Y115.856 E5.06676
G1 X133.684 Y116.962 E5.08997
G1 X133.419 Y117.688 E5.10539
G1 X132.978 Y118.759 E5.12851
G1 X132.708 Y119.357 E5.1416
G1 X132.151 Y120.467 E5.16638
G1 X131.574 Y121.509 E5.19015
G1 X130.451 Y123.418 E5.23435
G1 X129.242 Y125.611 E5.28433
G1 X128.095 Y127.84 E5.33435
G1 X126.986 Y130.152 E5.38552
G1 X126.115 Y132.094 E5.428
G1 X125.691 Y133.065 E5.44914
G1 X125.322 Y133.826 E5.46602
G1 X125.022 Y134.373 E5.47847
G1 X124.053 Y136.029 E5.51676
G1 X123.537 Y136.811 E5.53546
G1 X122.952 Y137.546 E5.5542
G1 X122.306 Y138.227 E5.57293
G1 X121.601 Y138.847 E5.59167
G1 X120.845 Y139.402 E5.61038
G1 X120.043 Y139.889 E5.62911
G1 X119.2 Y140.302 E5.64784
G1 X118.324 Y140.639 E5.66657
G1 X117.423 Y140.898 E5.68528
G1 X116.5 Y141.076 E5.70404
G1 X115.576 Y141.171 E5.72258
G1 X115.112 Y141.188 E5.73184
G1 X114.357 Y141.199 E5.74691
G1 X105.741 Y141.2 E5.91885
G1 X104.877 Y141.188 E5.9361
G1 X103.941 Y141.132 E5.95481
G1 X103.012 Y140.993 E5.97355
G1 X102.099 Y140.772 E5.9923
G1 X101.243 Y140.484 E6.01032
G1 X100.352 Y140.094 E6.02973
G1 X99.529 Y139.641 E6.04848
G1 X98.751 Y139.117 E6.0672
G1 X98.022 Y138.527 E6.08592
G1 X97.346 Y137.875 E6.10466
G1 X96.732 Y137.165 E6.12339
G1 X96.188 Y136.411 E6.14194
G1 X95.91 Y135.967 E6.1524
G1 X95.218 Y134.791 E6.17963
G1 X94.742 Y133.941 E6.19907
G1 X94.288 Y133.028 E6.21942
G1 X93.333 Y130.841 E6.26704
G1 X92.26 Y128.551 E6.31751
G1 X91.116 Y126.282 E6.36822
G1 X89.93 Y124.089 E6.41797
G1 X88.354 Y121.381 E6.4805
G1 X87.981 Y120.714 E6.49575
G1 X87.495 Y119.777 E6.51681
G1 X87.308 Y119.392 E6.52536
G1 X86.973 Y118.646 E6.54168
G1 X86.708 Y118.009 E6.55544
G1 X86.445 Y117.326 E6.57005
G1 X86.302 Y116.923 E6.57858
G1 X85.98 Y115.923 E6.59955
G1 X85.719 Y114.994 E6.61881
G1 X85.594 Y114.492 E6.62913
G1 X85.392 Y113.562 E6.64812
G1 X85.317 Y113.166 E6.65616
G1 X85.173 Y112.277 E6.67414
G1 X85.049 Y111.283 E6.69413
G1 X84.974 Y110.396 E6.71189
G1 X84.926 Y109.404 E6.73171
G1 X84.916 Y108.477 E6.75021
G1 X84.941 Y107.636 E6.767
G1 X84.985 Y106.856 E6.78259
G1 X85.048 Y106.116 E6.79741
G1 X85.171 Y105.141 E6.81702
G1 X85.339 Y104.114 E6.83779
G1 X85.504 Y103.295 E6.85446
G1 X85.731 Y102.36 E6.87366
G1 X85.835 Y101.974 E6.88164
G1 X86.105 Y101.068 E6.90051
G1 X86.421 Y100.14 E6.92007
G1 X86.743 Y99.303 E6.93797
G1 X88.009 Y96.276 E7.00345
G1 X88.944 Y93.883 E7.05472
G1 X89.787 Y91.53 E7.1046
G1 X90.729 Y88.627 E7.1655
G1 X91.06 Y87.544 E7.1881
G1 X91.363 Y86.693 E7.20613
G1 X91.922 Y85.519 E7.23208
G1 X92.343 Y84.761 E7.24938
G1 X92.816 Y83.992 E7.2674
G1 X93.643 Y82.913 E7.29453
M204 S2000
G0 F7500 X93.934 Y83.188
M204 S500
G1 F1500 X94.636 Y82.444 E7.31494
G1 X95.527 Y81.674 E7.33844
G1 X95.846 Y81.429 E7.34647
G1 X96.586 Y80.911 E7.36449
G1 X97.369 Y80.46 E7.38253
G1 X98.188 Y80.081 E7.40053
G1 X99.445 Y79.659 E7.427
G1 X99.841 Y79.554 E7.43517
G1 X100.723 Y79.361 E7.45319
G1 X101.619 Y79.247 E7.47121
G1 X102.296 Y79.214 E7.48474
G1 X103.131 Y79.201 E7.50141
G1 X116.818 Y79.2 E7.77454
G1 X117.664 Y79.211 E7.79143
G1 X118.566 Y79.264 E7.80946
G1 X119.459 Y79.396 E7.82747
G1 X120.033 Y79.525 E7.83921
G1 X120.379 Y79.613 E7.84634
G1 X121.244 Y79.874 E7.86437
G1 X122.082 Y80.21 E7.88239
G1 X122.95 Y80.656 E7.90186
G1 X123.223 Y80.813 E7.90815
G1 X123.985 Y81.297 E7.92616
G1 X124.702 Y81.847 E7.9442
G1 X125.407 Y82.5 E7.96337
G1 X125.658 Y82.755 E7.97051
G1 X126.263 Y83.426 E7.98854
G1 X126.805 Y84.148 E8.00656
G1 X127.1 Y84.604 E8.0174
G1 X127.477 Y85.239 E8.03213
G1 X127.706 Y85.651 E8.04154
G1 X128.11 Y86.459 E8.05957
G1 X128.541 Y87.611 E8.08411
G1 X129.259 Y89.948 E8.1329
G1 X130.083 Y92.391 E8.18435
G1 X130.964 Y94.778 E8.23513
G1 X131.923 Y97.165 E8.28647
G1 X132.878 Y99.436 E8.33563
G1 X133.195 Y100.254 E8.35314
G1 X133.342 Y100.671 E8.36196
G1 X133.622 Y101.54 E8.38018
G1 X133.887 Y102.477 E8.39961
G1 X134.097 Y103.348 E8.41749
G1 X134.275 Y104.231 E8.43547
G1 X134.391 Y104.914 E8.44929
G1 X134.508 Y105.751 E8.46616
G1 X134.589 Y106.525 E8.48169
G1 X134.662 Y107.715 E8.50548
G1 X134.684 Y108.583 E8.52281
G1 X134.677 Y109.325 E8.53762
G1 X134.619 Y110.46 E8.5603
G1 X134.551 Y111.254 E8.5762
G1 X134.418 Y112.308 E8.5974
G1 X134.295 Y113.067 E8.61275
G1 X134.083 Y114.108 E8.63395
G1 X133.86 Y115.026 E8.6528
G1 X133.662 Y115.733 E8.66745
G1 X133.308 Y116.825 E8.69036
G1 X133.049 Y117.536 E8.70546
G1 X132.613 Y118.595 E8.72831
G1 X132.35 Y119.178 E8.74108
G1 X131.801 Y120.273 E8.76552
G1 X131.229 Y121.306 E8.78909
G1 X130.106 Y123.215 E8.83329
G1 X128.886 Y125.428 E8.88371
G1 X127.739 Y127.657 E8.93374
G1 X126.625 Y129.979 E8.98514
G1 X125.75 Y131.93 E9.02781
G1 X125.331 Y132.891 E9.04873
G1 X124.971 Y133.634 E9.0652
G1 X124.677 Y134.171 E9.07742
G1 X123.719 Y135.809 E9.11529
G1 X123.223 Y136.563 E9.1333
G1 X122.662 Y137.271 E9.15133
G1 X122.041 Y137.927 E9.16935
G1 X121.364 Y138.525 E9.18738
G1 X120.637 Y139.06 E9.20539
G1 X119.866 Y139.53 E9.22341
G1 X119.056 Y139.929 E9.24143
G1 X118.213 Y140.255 E9.25947
G1 X117.346 Y140.505 E9.27747
G1 X116.459 Y140.678 E9.29551
G1 X115.561 Y140.771 E9.31353
G1 X115.106 Y140.788 E9.32261
G1 X114.357 Y140.799 E9.33756
G1 X105.746 Y140.8 E9.5094
G1 X104.9 Y140.789 E9.52629
G1 X103.999 Y140.736 E9.5443
G1 X103.105 Y140.604 E9.56233
G1 X102.227 Y140.393 E9.58035
G1 X101.371 Y140.105 E9.59838
G1 X100.544 Y139.743 E9.61639
G1 X99.752 Y139.309 E9.63441
G1 X99.002 Y138.806 E9.65244
G1 X98.299 Y138.239 E9.67046
G1 X97.648 Y137.613 E9.68848
G1 X97.056 Y136.931 E9.70651
G1 X96.527 Y136.199 E9.72453
G1 X96.255 Y135.764 E9.73477
G1 X95.567 Y134.595 E9.76184
G1 X95.1 Y133.763 E9.78088
G1 X94.655 Y132.868 E9.80082
G1 X93.7 Y130.681 E9.84845
G1 X92.622 Y128.381 E9.89914
G1 X91.473 Y126.102 E9.95007
G1 X90.282 Y123.899 E10.00005
G1 X88.703 Y121.186 E10.06269
G1 X88.336 Y120.53 E10.07769
G1 X87.855 Y119.602 E10.09855
G1 X87.673 Y119.228 E10.10685
G1 X87.342 Y118.492 E10.12295
G1 X87.081 Y117.865 E10.13651
G1 X86.822 Y117.193 E10.15088
G1 X86.683 Y116.8 E10.1592
G1 X86.365 Y115.815 E10.17985
G1 X86.107 Y114.898 E10.19886
G1 X85.985 Y114.407 E10.20896
G1 X85.785 Y113.487 E10.22775
G1 X85.712 Y113.102 E10.23557
G1 X85.57 Y112.227 E10.25326
G1 X85.448 Y111.249 E10.27293
G1 X85.374 Y110.376 E10.29041
G1 X85.326 Y109.4 E10.30991
G1 X85.316 Y108.489 E10.32809
G1 X85.34 Y107.659 E10.34466
G1 X85.384 Y106.89 E10.36003
G1 X85.445 Y106.166 E10.37453
G1 X85.566 Y105.205 E10.39386
G1 X85.731 Y104.193 E10.41433
G1 X85.893 Y103.389 E10.43069
G1 X86.117 Y102.464 E10.44969
G1 X86.218 Y102.088 E10.45746
G1 X86.484 Y101.197 E10.47601
G1 X86.794 Y100.284 E10.49525
G1 X87.112 Y99.457 E10.51293
G1 X88.382 Y96.422 E10.57859
G1 X89.317 Y94.029 E10.62986
G1 X90.163 Y91.665 E10.67997
G1 X91.109 Y88.75 E10.74113
G1 X91.437 Y87.678 E10.7635
G1 X91.74 Y86.827 E10.78152
G1 X92.272 Y85.713 E10.80616
G1 X92.684 Y84.971 E10.8231
G1 X93.157 Y84.202 E10.84111
G1 X93.934 Y83.188 E10.86661
M204 S2000
G1 F2400 E10.06661
;MESH:Cylinder_Back_Lid_x3.stl
G0 F7500 X100.797 Y89.969
G0 X102.214 Y90.786
G0 X102.74 Y96.452
M204 S500
;TYPE:WALL-INNER
G1 F2400 E10.86661
G1 F1500 X103.061 Y96.263 E10.87404
G1 X103.54 Y96.009 E10.88486
G1 X104.058 Y95.758 E10.89635
G1 X104.557 Y95.541 E10.90721
G1 X105.08 Y95.336 E10.91842
G1 X105.61 Y95.152 E10.92961
G1 X106.111 Y95 E10.94006
G1 X106.696 Y94.849 E10.95212
G1 X107.175 Y94.742 E10.96191
G1 X107.771 Y94.635 E10.974
G1 X108.337 Y94.556 E10.9854
G1 X108.888 Y94.502 E10.99645
G1 X109.399 Y94.471 E11.00667
G1 X110.007 Y94.46 E11.0188
G1 X110.574 Y94.47 E11.03012
G1 X111.128 Y94.503 E11.04119
G1 X111.679 Y94.558 E11.05224
G1 X112.243 Y94.637 E11.06361
G1 X112.795 Y94.736 E11.0748
G1 X113.337 Y94.854 E11.08587
G1 X113.877 Y94.996 E11.09701
G1 X114.423 Y95.163 E11.10841
G1 X114.953 Y95.348 E11.11961
G1 X115.466 Y95.551 E11.13062
G1 X115.937 Y95.757 E11.14088
G1 X116.459 Y96.01 E11.15245
G1 X116.966 Y96.279 E11.16391
G1 X117.258 Y96.451 E11.17067
G1 X117.2 Y96.2 E11.17581
G1 X117.2 Y91.2 E11.27559
G1 X117.449 Y90.539 E11.28969
G1 X117.534 Y90.453 E11.2921
G1 X117.396 Y90.4 E11.29505
G1 X102.602 Y90.4 E11.59028
G1 X102.465 Y90.454 E11.59322
G1 X102.55 Y90.537 E11.59559
G1 X102.8 Y91.2 E11.60973
G1 X102.801 Y96.2 E11.70951
G1 X102.74 Y96.452 E11.71469
M204 S2000
G0 F7500 X100.84 Y98.005
G0 X100.562 Y98.52
M204 S500
G1 F1418.4 X100.855 Y98.313 E11.72226
G1 F1496.3 X101.426 Y97.836 E11.73714
G1 F1500 X101.992 Y97.414 E11.75123
G1 F1395.3 X102.286 Y97.172 E11.7594
G1 X103.248 Y96.616 E11.78324
G1 F1500 X103.715 Y96.369 E11.79378
G1 X104.218 Y96.124 E11.80494
G1 X104.704 Y95.913 E11.81552
G1 X105.211 Y95.714 E11.82639
G1 X105.726 Y95.535 E11.83727
G1 X106.252 Y95.376 E11.84823
G1 X106.784 Y95.24 E11.85919
G1 X107.287 Y95.128 E11.86948
G1 X107.827 Y95.031 E11.88042
G1 X108.376 Y94.954 E11.89149
G1 X108.912 Y94.901 E11.90224
G1 X109.423 Y94.87 E11.91245
G1 X110 Y94.86 E11.92397
G1 X110.55 Y94.869 E11.93495
G1 X111.089 Y94.901 E11.94572
G1 X111.624 Y94.954 E11.95645
G1 X112.173 Y95.031 E11.96751
G1 X112.71 Y95.127 E11.9784
G1 X113.235 Y95.241 E11.98912
G1 X113.76 Y95.378 E11.99995
G1 X114.292 Y95.541 E12.01105
G1 X114.807 Y95.72 E12.02193
G1 X115.306 Y95.918 E12.03265
G1 X115.798 Y96.134 E12.04337
G1 X116.272 Y96.364 E12.05388
G1 X116.764 Y96.625 E12.065
