;FLAVOR:Marlin
;TIME:569
;Filament used: 0.166003m
;Layer height: 0.12
;MINX:92.784
;MINY:82.842
;MINZ:0.12
;MAXX:127.388
;MAXY:137.144
;MAXZ:4.56
;Generated with Cura_SteamEngine 5.4.0
M82 ;absolute extrusion mode
; Ender 3 S1 Start G-code
G92 E0 ; Reset Extruder
G28 ; Home all axes
M420 S1 ;Use bed leveling data
G1 Z10.0 F3000 ; Move Z Axis up little to prevent scratching of Heat Bed
G1 X0 Y0

M104 S200
M190 S60
M109 S200

G1 X0.1 Y20 Z0.3 F5000.0 ; Move to start position
G1 X0.1 Y200.0 Z0.3 F1500.0 E15 ; Draw the first line
G1 X0.4 Y200.0 Z0.3 F5000.0 ; Move to side a little
G1 X0.4 Y20 Z0.3 F1500.0 E30 ; Draw the second line
G92 E0 ; Reset Extruder
G1 Z2.0 F3000 ; Move Z Axis up little to prevent scratching of Heat Bed
G1 X5 Y20 Z0.3 F5000.0 ; Move over to prevent blob squish
G92 E0
G92 E0
G1 F2400 E-0.8
;LAYER_COUNT:38
;LAYER:0
M107
M204 S2000
G0 F7500 X103.763 Y86.757 Z0.12
M204 S500
;TYPE:SKIRT
G1 F2400 E0
G1 F1500 X104.435 Y86.051 E0.01945
G1 X105.167 Y85.408 E0.03889
G1 X105.925 Y84.852 E0.05765
G1 X106.81 Y84.318 E0.07828
G1 X107.099 Y84.163 E0.08483
G1 X107.977 Y83.742 E0.10426
G1 X108.889 Y83.4 E0.12369
G1 X109.827 Y83.14 E0.14312
G1 X110.798 Y82.962 E0.16282
G1 X112.067 Y82.862 E0.18822
G1 X113.181 Y82.842 E0.21046
G1 X115.114 Y82.845 E0.24903
G1 X115.738 Y82.859 E0.26149
G1 X116.71 Y82.925 E0.28093
G1 X117.673 Y83.077 E0.30039
G1 X118.615 Y83.313 E0.31977
G1 X119.531 Y83.628 E0.3391
G1 X120.213 Y83.926 E0.35395
G1 X120.535 Y84.081 E0.36108
G1 X121.363 Y84.524 E0.37982
G1 X122.208 Y85.079 E0.39999
G1 X122.969 Y85.684 E0.4194
G1 X123.687 Y86.367 E0.43917
G1 X124.573 Y87.412 E0.46651
G1 X125.038 Y88.053 E0.48232
G1 X125.501 Y88.737 E0.4988
G1 X126.008 Y89.567 E0.51821
G1 X126.412 Y90.375 E0.53624
G1 X126.794 Y91.347 E0.55708
G1 X127.049 Y92.213 E0.57509
G1 X127.254 Y93.237 E0.59593
G1 X127.353 Y94.135 E0.61396
G1 X127.376 Y94.686 E0.62497
G1 X127.388 Y95.381 E0.63884
G1 X127.38 Y96.029 E0.65177
G1 X127.285 Y97.933 E0.68982
G1 X127.206 Y101.32 E0.75742
G1 X127.174 Y103.704 E0.805
G1 X127.163 Y105.687 E0.84458
G1 X127.198 Y107.715 E0.88506
G1 X127.185 Y108.745 E0.90561
G1 X127.122 Y109.718 E0.92507
G1 X126.975 Y110.676 E0.94441
G1 X126.782 Y111.484 E0.96099
G1 X126.345 Y113.047 E0.99338
G1 X125.612 Y115.879 E1.05175
G1 X125.325 Y116.808 E1.07116
G1 X124.956 Y117.71 E1.09061
G1 X124.543 Y118.513 E1.10863
G1 X124.249 Y119.003 E1.12003
G1 X122.643 Y121.525 E1.1797
G1 X121.339 Y123.712 E1.23051
G1 X120.126 Y125.881 E1.2801
G1 X118.669 Y128.687 E1.3432
G1 X117.987 Y129.851 E1.37012
G1 X116.333 Y132.301 E1.42911
G1 X115.74 Y133.095 E1.44889
G1 X115.091 Y133.822 E1.46834
G1 X114.407 Y134.464 E1.48706
G1 X113.613 Y135.087 E1.5072
G1 X112.796 Y135.617 E1.52663
G1 X111.935 Y136.072 E1.54607
G1 X111.037 Y136.451 E1.56552
G1 X110.11 Y136.747 E1.58494
G1 X109.16 Y136.96 E1.60437
G1 X108.205 Y137.088 E1.6236
G1 X107.526 Y137.129 E1.63717
G1 X106.941 Y137.144 E1.64885
G1 X105.967 Y137.125 E1.66829
G1 X105 Y137.02 E1.6877
G1 X104.113 Y136.846 E1.70574
G1 X103.1 Y136.55 E1.7268
G1 X101.901 Y136.062 E1.75263
G1 X100.951 Y135.559 E1.77408
G1 X100.103 Y135.008 E1.79427
G1 X99.392 Y134.451 E1.81229
G1 X98.63 Y133.737 E1.83313
G1 X97.981 Y133.007 E1.85262
G1 X97.375 Y132.185 E1.873
G1 X95.769 Y129.778 E1.93075
G1 X95.267 Y128.944 E1.95017
G1 X94.841 Y128.068 E1.96961
G1 X94.492 Y127.158 E1.98906
G1 X94.244 Y126.29 E2.00708
G1 X94.067 Y125.402 E2.02515
G1 X93.612 Y122.497 E2.08383
G1 X93.002 Y119.282 E2.14913
G1 X92.855 Y118.322 E2.16851
G1 X92.796 Y117.462 E2.18571
G1 X92.784 Y116.871 E2.19751
G1 X92.786 Y113.599 E2.26281
G1 X92.798 Y112.899 E2.27678
G1 X92.858 Y111.927 E2.29621
G1 X93.005 Y110.966 E2.31561
G1 X93.236 Y110.019 E2.33506
G1 X93.539 Y109.127 E2.35386
G1 X94.043 Y108.011 E2.3783
G1 X95.263 Y105.674 E2.43091
G1 X96.376 Y103.386 E2.48169
G1 X97.404 Y101.114 E2.53145
G1 X98.382 Y98.776 E2.58203
G1 X99.293 Y96.411 E2.6326
G1 X100.119 Y94.07 E2.68214
G1 X100.955 Y91.485 E2.73636
G1 X101.298 Y90.572 E2.75582
G1 X101.704 Y89.724 E2.77459
G1 X102.247 Y88.813 E2.79575
G1 X102.714 Y88.127 E2.81231
G1 X103.156 Y87.516 E2.82736
G1 X103.763 Y86.757 E2.84675
M204 S2000
G0 F7500 X104.053 Y87.032
M204 S500
G1 F1500 X104.699 Y86.351 E2.86549
G1 X105.404 Y85.731 E2.88422
G1 X106.162 Y85.175 E2.90298
G1 X107.016 Y84.661 E2.92287
G1 X107.273 Y84.523 E2.92869
G1 X108.118 Y84.116 E2.94741
G1 X108.996 Y83.785 E2.96614
G1 X109.9 Y83.533 E2.98486
G1 X110.83 Y83.361 E3.00374
G1 X112.074 Y83.262 E3.02864
G1 X113.18 Y83.242 E3.05072
G1 X115.105 Y83.245 E3.08913
G1 X115.712 Y83.258 E3.10125
G1 X116.648 Y83.32 E3.11997
G1 X117.576 Y83.465 E3.13871
G1 X118.485 Y83.691 E3.15741
G1 X119.371 Y83.995 E3.1761
G1 X120.053 Y84.293 E3.19095
G1 X120.346 Y84.434 E3.19744
G1 X121.174 Y84.877 E3.21618
G1 X121.959 Y85.392 E3.23492
G1 X122.694 Y85.975 E3.25364
G1 X123.382 Y86.626 E3.27254
G1 X124.249 Y87.647 E3.29927
G1 X124.707 Y88.278 E3.31483
G1 X125.16 Y88.946 E3.33094
G1 X125.65 Y89.746 E3.34966
G1 X126.054 Y90.554 E3.36768
G1 X126.41 Y91.46 E3.38711
G1 X126.665 Y92.326 E3.40513
G1 X126.856 Y93.281 E3.42456
G1 X126.955 Y94.179 E3.44259
G1 X126.976 Y94.693 E3.45286
G1 X126.988 Y95.377 E3.46651
G1 X126.981 Y96.009 E3.47912
G1 X126.885 Y97.924 E3.51739
G1 X126.806 Y101.311 E3.585
G1 X126.774 Y103.699 E3.63266
G1 X126.763 Y105.685 E3.67229
G1 X126.798 Y107.71 E3.71271
G1 X126.786 Y108.72 E3.73286
G1 X126.727 Y109.658 E3.75162
G1 X126.586 Y110.583 E3.77029
G1 X126.397 Y111.376 E3.78656
G1 X125.96 Y112.939 E3.81895
G1 X125.23 Y115.761 E3.87712
G1 X124.954 Y116.657 E3.89583
G1 X124.6 Y117.527 E3.91457
G1 X124.187 Y118.33 E3.93259
G1 X123.912 Y118.788 E3.94325
G1 X122.299 Y121.32 E4.00316
G1 X120.995 Y123.507 E4.05398
G1 X119.777 Y125.686 E4.10379
G1 X118.324 Y128.485 E4.16673
G1 X117.655 Y129.627 E4.19314
G1 X116.012 Y132.062 E4.25176
G1 X115.441 Y132.829 E4.27084
G1 X114.817 Y133.53 E4.28957
G1 X114.133 Y134.172 E4.30829
G1 X113.395 Y134.752 E4.32702
G1 X112.608 Y135.264 E4.34576
G1 X111.779 Y135.704 E4.36449
G1 X110.915 Y136.07 E4.38321
G1 X110.022 Y136.357 E4.40193
G1 X109.106 Y136.564 E4.42067
G1 X108.181 Y136.689 E4.4393
G1 X107.515 Y136.729 E4.45261
G1 X106.948 Y136.744 E4.46393
G1 X106.01 Y136.727 E4.48266
G1 X105.077 Y136.627 E4.50138
G1 X104.19 Y136.453 E4.51942
G1 X103.25 Y136.179 E4.53896
G1 X102.088 Y135.708 E4.56398
G1 X101.138 Y135.205 E4.58543
G1 X100.35 Y134.693 E4.60419
G1 X99.639 Y134.136 E4.62221
G1 X98.929 Y133.471 E4.64162
G1 X98.303 Y132.769 E4.66039
G1 X97.708 Y131.963 E4.68039
G1 X96.111 Y129.571 E4.73778
G1 X95.626 Y128.768 E4.7565
G1 X95.214 Y127.925 E4.77523
G1 X94.877 Y127.048 E4.79398
G1 X94.629 Y126.18 E4.81199
G1 X94.462 Y125.34 E4.82908
G1 X94.007 Y122.435 E4.88776
G1 X93.522 Y119.847 E4.94031
G1 X93.397 Y119.221 E4.95305
G1 X93.254 Y118.294 E4.97176
G1 X93.196 Y117.454 E4.98857
G1 X93.184 Y116.871 E5.0002
G1 X93.186 Y113.605 E5.06538
G1 X93.197 Y112.923 E5.07899
G1 X93.254 Y111.987 E5.09771
G1 X93.394 Y111.06 E5.11642
G1 X93.615 Y110.147 E5.13516
G1 X93.904 Y109.291 E5.15319
G1 X94.398 Y108.196 E5.17716
G1 X95.618 Y105.859 E5.22977
G1 X96.736 Y103.561 E5.28077
G1 X97.768 Y101.279 E5.33075
G1 X98.751 Y98.93 E5.38157
G1 X99.666 Y96.555 E5.43236
G1 X100.5 Y94.193 E5.48235
G1 X101.33 Y91.625 E5.53621
G1 X101.659 Y90.745 E5.55495
G1 X102.065 Y89.897 E5.57372
G1 X102.578 Y89.038 E5.59368
G1 X103.038 Y88.361 E5.61002
G1 X103.469 Y87.765 E5.62469
G1 X104.053 Y87.032 E5.6434
M204 S2000
G0 F7500 X104.343 Y87.307
M204 S500
G1 F1500 X104.964 Y86.651 E5.66142
G1 X105.641 Y86.053 E5.67945
G1 X106.368 Y85.518 E5.69746
G1 X107.206 Y85.013 E5.71699
G1 X107.447 Y84.883 E5.72245
G1 X108.26 Y84.49 E5.74047
G1 X109.104 Y84.17 E5.75849
G1 X109.974 Y83.926 E5.77652
G1 X110.862 Y83.76 E5.79455
G1 X112.081 Y83.662 E5.81895
G1 X113.179 Y83.642 E5.84087
G1 X115.097 Y83.645 E5.87914
G1 X115.686 Y83.657 E5.8909
G1 X116.587 Y83.715 E5.90892
G1 X117.48 Y83.853 E5.92695
G1 X118.356 Y84.07 E5.94496
G1 X119.211 Y84.362 E5.96299
G1 X119.88 Y84.654 E5.97756
G1 X120.158 Y84.787 E5.98371
G1 X120.955 Y85.212 E6.00173
G1 X121.711 Y85.706 E6.01975
G1 X122.42 Y86.266 E6.03778
G1 X123.077 Y86.885 E6.0558
G1 X123.944 Y87.906 E6.08253
G1 X124.376 Y88.503 E6.09723
G1 X124.819 Y89.156 E6.11298
G1 X125.292 Y89.925 E6.131
G1 X125.696 Y90.733 E6.14902
G1 X126.026 Y91.573 E6.16703
G1 X126.281 Y92.439 E6.18505
G1 X126.458 Y93.325 E6.20308
G1 X126.557 Y94.223 E6.22111
G1 X126.576 Y94.7 E6.23064
G1 X126.588 Y95.372 E6.24405
G1 X126.581 Y95.991 E6.2564
G1 X126.536 Y97.015 E6.27686
G1 X126.485 Y97.915 E6.29485
G1 X126.406 Y101.302 E6.36246
G1 X126.374 Y103.694 E6.4102
G1 X126.363 Y105.683 E6.44989
G1 X126.398 Y107.706 E6.49027
G1 X126.387 Y108.696 E6.51002
G1 X126.332 Y109.598 E6.52806
G1 X126.197 Y110.49 E6.54606
G1 X126.012 Y111.268 E6.56202
G1 X125.575 Y112.831 E6.59441
G1 X124.848 Y115.644 E6.65239
G1 X124.583 Y116.507 E6.6704
G1 X124.244 Y117.344 E6.68842
G1 X123.831 Y118.147 E6.70644
G1 X123.575 Y118.573 E6.71636
G1 X121.955 Y121.115 E6.77652
G1 X120.651 Y123.302 E6.82733
G1 X119.428 Y125.491 E6.87737
G1 X117.979 Y128.283 E6.94014
G1 X117.323 Y129.403 E6.96605
G1 X115.68 Y131.838 E7.02467
G1 X115.142 Y132.564 E7.0427
G1 X114.543 Y133.239 E7.06071
G1 X113.885 Y133.858 E7.07874
G1 X113.176 Y134.417 E7.09675
G1 X112.42 Y134.911 E7.11478
G1 X111.623 Y135.336 E7.1328
G1 X110.792 Y135.689 E7.15082
G1 X109.933 Y135.967 E7.16884
G1 X109.052 Y136.168 E7.18687
G1 X108.157 Y136.29 E7.2049
G1 X107.504 Y136.329 E7.21795
G1 X106.955 Y136.344 E7.22891
G1 X106.052 Y136.329 E7.24693
G1 X105.154 Y136.234 E7.26495
G1 X104.267 Y136.06 E7.28299
G1 X103.4 Y135.808 E7.30101
G1 X102.238 Y135.337 E7.32603
G1 X101.355 Y134.869 E7.34598
G1 X100.597 Y134.378 E7.364
G1 X99.886 Y133.821 E7.38202
G1 X99.227 Y133.204 E7.40004
G1 X98.625 Y132.531 E7.41806
G1 X98.041 Y131.741 E7.43766
G1 X96.453 Y129.364 E7.49471
G1 X95.985 Y128.592 E7.51273
G1 X95.587 Y127.781 E7.53075
G1 X95.262 Y126.938 E7.54878
G1 X95.014 Y126.07 E7.5668
G1 X94.857 Y125.278 E7.58291
G1 X94.402 Y122.373 E7.64159
G1 X93.915 Y119.773 E7.69438
G1 X93.792 Y119.159 E7.70688
G1 X93.653 Y118.266 E7.72491
G1 X93.596 Y117.446 E7.74131
G1 X93.584 Y116.871 E7.75279
G1 X93.586 Y113.611 E7.81785
G1 X93.596 Y112.947 E7.8311
G1 X93.65 Y112.046 E7.84911
G1 X93.783 Y111.153 E7.86713
G1 X93.994 Y110.275 E7.88515
G1 X94.283 Y109.419 E7.90318
G1 X94.753 Y108.381 E7.92592
G1 X95.973 Y106.044 E7.97853
G1 X97.096 Y103.736 E8.02975
G1 X98.132 Y101.444 E8.07995
G1 X99.12 Y99.084 E8.131
G1 X100.039 Y96.699 E8.18201
G1 X100.881 Y94.316 E8.23245
G1 X101.705 Y91.764 E8.28596
G1 X102.02 Y90.917 E8.304
G1 X102.409 Y90.102 E8.32202
G1 X102.909 Y89.263 E8.34151
G1 X103.362 Y88.595 E8.35762
G1 X103.782 Y88.014 E8.37192
G1 X104.343 Y87.307 E8.38993
M204 S2000
G1 F2400 E7.58993
;MESH:Crank_Shaft.stl
G0 F7500 X111.438 Y93.685
G0 X112.326 Y94.305
G0 X112.405 Y95.011
G0 X112.631 Y95.777
M204 S500
;TYPE:WALL-INNER
G1 F2400 E8.38993
G1 F1273.9 X112.637 Y100.497 E8.50085
M204 S2000
G0 F7500 X112.838 Y101.293
G0 X113.887 Y101.853
G0 X113.925 Y101.853
M204 S500
G1 F1492.5 X113.851 Y101.896 E8.50256
G1 X113.925 Y101.939 E8.50428
G1 X113.951 Y101.896 E8.50529
M204 S2000
G0 F7500 X113.887 Y101.896
G0 X113.842 Y108.465
G0 X113.66 Y110.452
G0 X113.396 Y111.038
G0 X113.114 Y111.404
G0 X112.683 Y111.779
G0 X112.076 Y112.056
G0 X110.422 Y112.261
G0 X109.189 Y112.272
G0 X109.064 Y116.322
G0 X108.05 Y116.333
G0 X107.707 Y122.528
G0 X106.901 Y122.8
G0 X106.901 Y123.477
M204 S500
G1 F1500 X107.102 Y123.158 E8.51281
G1 X107.266 Y123.1 E8.51628
G1 X108.279 Y123.1 E8.5365
G1 X108.278 Y117.049 E8.65725
G1 X108.401 Y116.795 E8.66288
G1 X108.52 Y116.679 E8.6662
G1 X108.878 Y116.561 E8.67372
G1 X109.418 Y116.561 E8.6845
G1 X109.417 Y113.1 E8.75357
G1 X109.537 Y112.739 E8.76116
G1 F1321.6 X109.904 Y112.455 E8.77167
G1 F1190.5 X111.482 Y112.45 E8.81135
G1 F1162.8 X111.973 Y112.433 E8.824
G1 F1232 X112.239 Y112.478 E8.83055
G1 F1425.2 X112.668 Y112.498 E8.83957
G1 F1500 X114.38 Y112.5 E8.87374
G1 X114.38 Y109.629 E8.93103
G1 X114.454 Y109.174 E8.94023
G1 X114.719 Y108.723 E8.95067
G1 X115.015 Y108.412 E8.95924
G1 X115.263 Y108.239 E8.96527
G1 X114.682 Y108.238 E8.97686
G1 X114.39 Y108.091 E8.98339
G1 X114.265 Y107.936 E8.98736
G1 F1348.3 X114.144 Y107.694 E8.99337
G1 F1229.5 X114.144 Y102.362 E9.12318
G1 F1351.4 X114.295 Y102.015 E9.13157
G1 F1442.3 X114.458 Y101.842 E9.1365
G1 F1369.9 X114.717 Y101.742 E9.14257
G1 F1209.7 X115.008 Y101.69 E9.14988
G1 F1100.9 X115.529 Y101.689 E9.16405
G1 X115.529 Y101.501 E9.16916
G1 X115.473 Y101.486 E9.17074
G1 X115.236 Y101.268 E9.17949
G1 X115.158 Y101.104 E9.18443
G1 X115.128 Y100.9 E9.19004
G1 F1178.8 X115.163 Y100.496 E9.20033
G1 X115.065 Y100.888 E9.21059
G1 F1165 X114.801 Y101.241 E9.22192
G1 F1315.8 X114.351 Y101.418 E9.23292
G1 F1418.4 X114.195 Y101.496 E9.2366
G1 F1445.8 X113.633 Y101.493 E9.24824
G1 F1369.9 X113.155 Y101.311 E9.25941
G1 F1185.8 X112.933 Y101.184 E9.26587
G1 F1094.9 X112.734 Y100.889 E9.2756
G1 F1132.1 X112.643 Y100.561 E9.2846
G1 X112.675 Y100.9 E9.2936
G1 F1094.9 X112.609 Y101.228 E9.30275
G1 X112.329 Y101.49 E9.31324
G1 X112.275 Y101.504 E9.31476
G1 X112.275 Y101.686 E9.31974
G1 X112.799 Y101.686 E9.33406
G1 F1160.5 X113.297 Y101.804 E9.34726
G1 F1354.4 X113.505 Y102.016 E9.35383
G1 X113.658 Y102.362 E9.36219
G1 F1229.5 X113.657 Y107.694 E9.492
G1 F1348.3 X113.537 Y107.936 E9.498
G1 F1500 X113.41 Y108.091 E9.502
G1 X113.099 Y108.238 E9.50886
G1 X112.572 Y108.24 E9.51938
G1 X112.94 Y108.556 E9.52906
G1 F1503.8 X113.19 Y108.883 E9.53725
G1 X113.362 Y109.265 E9.54559
G1 X113.422 Y109.683 E9.554
G1 F1500 X113.422 Y110.403 E9.56837
G1 X113.192 Y110.91 E9.57948
G1 X112.939 Y111.243 E9.58782
G1 F1463.4 X112.567 Y111.564 E9.59788
G1 F1388.9 X112.094 Y111.81 E9.60937
G1 F1232 X111.934 Y111.904 E9.61387
G1 F1156.1 X111.58 Y111.944 E9.6231
G1 F1183.4 X109.861 Y111.952 E9.66658
G1 F1321.6 X109.117 Y111.898 E9.68348
G1 F1500 X106.421 Y111.9 E9.73728
G1 X106.421 Y112.074 E9.74075
G1 X106.368 Y112.322 E9.74581
G1 X106.181 Y112.722 E9.75462
G1 X105.94 Y113.043 E9.76263
G1 X105.547 Y113.379 E9.77295
G1 X105.008 Y113.626 E9.78478
G1 X104.385 Y113.72 E9.79736
G1 X104.384 Y116.561 E9.85405
G1 X104.923 Y116.561 E9.86481
G1 X105.244 Y116.653 E9.87147
G1 X105.4 Y116.795 E9.87568
G1 X105.524 Y117.051 E9.88136
G1 X105.522 Y123.1 E10.00207
G1 X106.534 Y123.1 E10.02227
G1 X106.7 Y123.158 E10.02578
G1 X106.901 Y123.477 E10.0333
M204 S2000
G0 F7500 X106.929 Y122.797
M204 S500
G1 F1500 X107.205 Y122.7 E10.03914
G1 X107.879 Y122.7 E10.05259
G1 X107.878 Y117.161 E10.16313
G1 X107.908 Y116.913 E10.16811
G1 X108.084 Y116.552 E10.17613
G1 X108.281 Y116.358 E10.18164
G1 X108.878 Y116.161 E10.19419
G1 X109.018 Y116.161 E10.19698
G1 X109.017 Y113.1 E10.25807
G1 X109.217 Y112.498 E10.27073
G1 X109.547 Y112.297 E10.27844
G1 X106.772 Y112.299 E10.33382
G1 X106.732 Y112.487 E10.33765
G1 X106.544 Y112.901 E10.34673
G1 X106.235 Y113.315 E10.35704
G1 X105.758 Y113.723 E10.36956
G1 X105.251 Y113.954 E10.38068
G1 X104.984 Y114.035 E10.38625
G1 X104.785 Y114.065 E10.39027
G1 X104.784 Y116.161 E10.43209
G1 X104.923 Y116.161 E10.43487
G1 X105.457 Y116.315 E10.44596
G1 X105.624 Y116.446 E10.45019
G1 X105.814 Y116.706 E10.45662
G1 X105.893 Y116.913 E10.46104
G1 X105.924 Y117.161 E10.46603
G1 X105.922 Y122.7 E10.57657
G1 X106.597 Y122.7 E10.59004
G1 X106.873 Y122.797 E10.59587
G1 X106.901 Y122.843 E10.59695
G1 X106.929 Y122.797 E10.59802
M204 S2000
G0 F7500 X107.707 Y122.528
G0 X108.05 Y116.333
G0 X109.19 Y116.333
G0 X109.189 Y112.272
G0 X112.373 Y112.098
M204 S500
G1 F1500 X113.98 Y112.1 E10.63009
G1 X113.98 Y111.101 E10.65003
G1 F1411.8 X113.955 Y110.74 E10.6577
G1 F1171.9 X113.893 Y110.461 E10.665
G1 F1232 X113.467 Y111.21 E10.68594
G1 F1500 X113.232 Y111.518 E10.69367
G1 X112.878 Y111.824 E10.70301
G1 X112.642 Y111.976 E10.70861
G1 X112.373 Y112.098 E10.7145
M204 S2000
G0 F7500 X112.972 Y111.537
G0 X113.893 Y110.461
M204 S500
G1 F1060.1 X113.901 Y110.274 E10.71979
G1 F1049 X113.901 Y109.507 E10.74168
G1 F1054.5 X114.013 Y108.994 E10.75658
