;FLAVOR:Marlin
;TIME:6410
;Filament used: 4.92833m
;Layer height: 0.2
;MINX:48.568
;MINY:48.612
;MINZ:0.2
;MAXX:171.396
;MAXY:171.398
;MAXZ:9.8
;Generated with Cura_SteamEngine 5.2.2
M82 ;absolute extrusion mode
; Ender 3 S1 Start G-code
G92 E0 ; Reset Extruder
G28 ; Home all axes
G1 Z10.0 F3000 ; Move Z Axis up little to prevent scratching of Heat Bed
G1 X0 Y0

M104 S200
M190 S60
M109 S200

G1 X0.1 Y20 Z0.3 F5000.0 ; Move to start position
G1 X0.1 Y200.0 Z0.3 F1500.0 E15 ; Draw the first line
G1 X0.4 Y200.0 Z0.3 F5000.0 ; Move to side a little
G1 X0.4 Y20 Z0.3 F1500.0 E30 ; Draw the second line
G92 E0 ; Reset Extruder
G1 Z2.0 F3000 ; Move Z Axis up little to prevent scratching of Heat Bed
G1 X5 Y20 Z0.3 F5000.0 ; Move over to prevent blob squish

G92 E0
G92 E0
G1 F2400 E-0.8
;LAYER_COUNT:50
;LAYER:0
M107
M204 S2000
G0 F7500 X65.903 Y67.281 Z0.2
M204 S500
;TYPE:SKIRT
G1 F2400 E0
G1 F1500 X67.305 Y65.881 E0.0659
G1 X67.615 Y65.584 E0.08018
G1 X69.066 Y64.244 E0.14587
G1 X69.392 Y63.955 E0.16036
G1 X70.878 Y62.688 E0.22531
G1 X71.204 Y62.42 E0.23935
G1 X72.788 Y61.171 E0.30644
G1 X73.133 Y60.91 E0.32083
G1 X74.662 Y59.799 E0.38369
G1 X75.007 Y59.559 E0.39767
G1 X76.724 Y58.409 E0.4664
G1 X77.097 Y58.17 E0.48114
G1 X78.766 Y57.147 E0.54624
G1 X79.141 Y56.927 E0.56071
G1 X80.879 Y55.954 E0.62695
G1 X81.252 Y55.754 E0.64103
G1 X83.002 Y54.861 E0.70638
G1 X83.398 Y54.669 E0.72101
G1 X85.197 Y53.84 E0.7869
G1 X85.586 Y53.67 E0.80102
G1 X87.418 Y52.91 E0.86698
G1 X87.827 Y52.749 E0.8816
G1 X89.69 Y52.062 E0.94764
G1 X90.1 Y51.92 E0.96208
G1 X91.958 Y51.317 E1.02705
G1 X92.377 Y51.19 E1.04161
G1 X94.33 Y50.641 E1.10908
G1 X94.744 Y50.534 E1.12331
G1 X96.664 Y50.074 E1.18897
G1 X97.083 Y49.982 E1.20324
G1 X99 Y49.601 E1.26825
G1 X99.425 Y49.525 E1.28261
G1 X101.416 Y49.21 E1.34965
G1 X101.842 Y49.151 E1.36396
G1 X103.734 Y48.927 E1.42732
G1 X104.153 Y48.886 E1.44133
G1 X106.148 Y48.727 E1.50789
G1 X106.583 Y48.701 E1.52238
G1 X108.588 Y48.621 E1.58912
G1 X109.033 Y48.612 E1.60393
G1 X111.017 Y48.613 E1.66992
G1 X111.449 Y48.622 E1.68429
G1 X113.406 Y48.7 E1.74943
G1 X113.84 Y48.726 E1.76389
G1 X115.827 Y48.884 E1.83019
G1 X116.249 Y48.925 E1.84429
G1 X118.191 Y49.155 E1.90933
G1 X118.623 Y49.215 E1.92384
G1 X120.606 Y49.53 E1.99062
G1 X121.03 Y49.606 E2.00495
G1 X122.982 Y49.995 E2.07115
G1 X123.392 Y50.085 E2.08511
G1 X125.26 Y50.532 E2.14899
G1 X125.681 Y50.642 E2.16346
G1 X127.631 Y51.191 E2.23084
G1 X128.045 Y51.316 E2.24523
G1 X129.928 Y51.927 E2.31107
G1 X130.341 Y52.07 E2.32561
G1 X132.165 Y52.743 E2.39027
G1 X132.566 Y52.9 E2.40459
G1 X134.401 Y53.66 E2.47065
G1 X134.801 Y53.835 E2.48518
G1 X136.619 Y54.674 E2.55177
G1 X137.006 Y54.862 E2.56608
G1 X138.732 Y55.742 E2.63052
G1 X139.114 Y55.946 E2.64492
G1 X140.836 Y56.911 E2.71058
G1 X141.209 Y57.13 E2.72496
G1 X142.947 Y58.196 E2.79278
G1 X143.3 Y58.422 E2.80672
G1 X144.919 Y59.502 E2.87145
G1 X145.277 Y59.751 E2.88595
G1 X146.871 Y60.908 E2.95146
G1 X147.213 Y61.167 E2.96573
G1 X148.797 Y62.414 E3.03278
G1 X149.138 Y62.693 E3.04743
G1 X150.606 Y63.947 E3.11165
G1 X150.921 Y64.227 E3.12567
G1 X152.409 Y65.6 E3.19301
G1 X152.733 Y65.911 E3.20795
G1 X154.133 Y67.313 E3.27384
G1 X154.429 Y67.622 E3.28808
G1 X155.749 Y69.051 E3.35278
G1 X156.038 Y69.377 E3.36727
G1 X157.337 Y70.9 E3.43385
G1 X157.609 Y71.231 E3.4481
G1 X158.826 Y72.776 E3.51351
G1 X159.084 Y73.118 E3.52776
G1 X160.25 Y74.723 E3.59374
G1 X160.496 Y75.075 E3.60803
G1 X161.595 Y76.719 E3.6738
G1 X161.826 Y77.079 E3.68802
G1 X162.858 Y78.761 E3.75366
G1 X163.077 Y79.135 E3.76807
G1 X164.053 Y80.876 E3.83446
G1 X164.257 Y81.257 E3.84883
G1 X165.145 Y82.998 E3.91383
G1 X165.335 Y83.39 E3.92832
G1 X166.177 Y85.216 E3.9952
G1 X166.351 Y85.613 E4.00962
G1 X167.096 Y87.412 E4.07438
G1 X167.256 Y87.821 E4.08899
G1 X167.962 Y89.739 E4.15697
G1 X168.104 Y90.151 E4.17146
G1 X168.703 Y92.001 E4.23614
G1 X168.826 Y92.408 E4.25028
G1 X169.357 Y94.294 E4.31545
G1 X169.466 Y94.712 E4.32981
G1 X169.931 Y96.653 E4.3962
G1 X170.022 Y97.065 E4.41023
G1 X170.404 Y98.981 E4.47521
G1 X170.481 Y99.412 E4.48977
G1 X170.802 Y101.44 E4.55807
G1 X170.86 Y101.863 E4.57227
G1 X171.079 Y103.708 E4.63406
G1 X171.122 Y104.137 E4.6484
G1 X171.283 Y106.172 E4.7163
G1 X171.308 Y106.603 E4.73066
G1 X171.387 Y108.59 E4.7968
G1 X171.396 Y109.033 E4.81153
G1 X171.395 Y111.011 E4.87732
G1 X171.386 Y111.445 E4.89176
G1 X171.307 Y113.42 E4.9575
G1 X171.281 Y113.851 E4.97186
G1 X171.12 Y115.878 E5.03949
G1 X171.078 Y116.309 E5.0539
G1 X170.851 Y118.214 E5.11771
G1 X170.792 Y118.639 E5.13198
G1 X170.482 Y120.589 E5.19765
G1 X170.407 Y121.004 E5.21168
G1 X170.02 Y122.953 E5.27777
G1 X169.928 Y123.377 E5.2922
G1 X169.46 Y125.328 E5.35893
G1 X169.349 Y125.75 E5.37344
G1 X168.815 Y127.642 E5.43883
G1 X168.69 Y128.054 E5.45315
G1 X168.088 Y129.906 E5.51792
G1 X167.948 Y130.31 E5.53214
G1 X167.254 Y132.193 E5.59889
G1 X167.094 Y132.602 E5.61349
G1 X166.336 Y134.43 E5.67931
G1 X166.161 Y134.83 E5.69383
G1 X165.322 Y136.646 E5.76037
G1 X165.132 Y137.037 E5.77483
G1 X164.231 Y138.801 E5.84071
G1 X164.029 Y139.179 E5.85496
G1 X163.086 Y140.86 E5.91907
G1 X162.871 Y141.225 E5.93316
G1 X161.822 Y142.937 E5.99994
G1 X161.589 Y143.301 E6.01431
G1 X160.504 Y144.925 E6.07927
G1 X160.257 Y145.28 E6.09366
G1 X159.074 Y146.908 E6.16059
G1 X158.817 Y147.247 E6.17474
G1 X157.598 Y148.795 E6.24028
G1 X157.321 Y149.133 E6.25481
G1 X156.035 Y150.639 E6.32068
G1 X155.754 Y150.956 E6.33477
G1 X154.44 Y152.38 E6.39921
G1 X154.129 Y152.704 E6.41415
G1 X152.686 Y154.145 E6.48198
G1 X152.375 Y154.443 E6.4963
G1 X150.966 Y155.744 E6.56009
G1 X150.64 Y156.033 E6.57458
G1 X149.095 Y157.35 E6.6421
G1 X148.765 Y157.62 E6.65628
G1 X147.192 Y158.859 E6.72288
G1 X146.843 Y159.124 E6.73746
G1 X145.243 Y160.284 E6.80319
G1 X144.9 Y160.523 E6.81709
G1 X143.313 Y161.584 E6.88059
G1 X142.947 Y161.818 E6.89503
G1 X141.211 Y162.882 E6.96276
G1 X140.836 Y163.102 E6.97722
G1 X139.112 Y164.067 E7.04293
G1 X138.736 Y164.268 E7.05711
G1 X137.014 Y165.146 E7.1214
G1 X136.62 Y165.337 E7.13596
G1 X134.799 Y166.176 E7.20265
G1 X134.402 Y166.349 E7.21705
G1 X132.57 Y167.107 E7.28299
G1 X132.17 Y167.264 E7.29729
G1 X130.326 Y167.944 E7.36265
G1 X129.92 Y168.084 E7.37694
G1 X128.034 Y168.697 E7.4429
G1 X127.616 Y168.824 E7.45743
G1 X125.709 Y169.361 E7.52332
G1 X125.287 Y169.471 E7.53783
G1 X123.34 Y169.937 E7.60441
G1 X122.933 Y170.026 E7.61827
G1 X121.049 Y170.402 E7.68217
G1 X120.624 Y170.478 E7.69653
G1 X118.625 Y170.796 E7.76385
G1 X118.189 Y170.857 E7.77849
G1 X116.236 Y171.088 E7.8439
G1 X115.813 Y171.13 E7.85804
G1 X113.845 Y171.286 E7.9237
G1 X113.404 Y171.312 E7.9384
G1 X111.403 Y171.39 E8.005
G1 X110.969 Y171.398 E8.01944
G1 X108.989 Y171.397 E8.08529
G1 X108.556 Y171.388 E8.0997
G1 X106.605 Y171.31 E8.16464
G1 X106.174 Y171.285 E8.179
G1 X104.157 Y171.125 E8.24629
G1 X103.734 Y171.083 E8.26043
G1 X101.842 Y170.859 E8.3238
G1 X101.42 Y170.8 E8.33797
G1 X99.437 Y170.487 E8.40474
G1 X99.011 Y170.412 E8.41913
G1 X97.066 Y170.026 E8.48508
G1 X96.643 Y169.933 E8.49949
G1 X94.695 Y169.466 E8.56612
G1 X94.275 Y169.356 E8.58056
G1 X92.37 Y168.819 E8.64639
G1 X91.956 Y168.694 E8.66077
G1 X90.084 Y168.086 E8.72623
G1 X89.67 Y167.942 E8.74081
G1 X87.794 Y167.249 E8.80733
G1 X87.389 Y167.091 E8.82179
G1 X85.594 Y166.346 E8.88643
G1 X85.202 Y166.174 E8.90067
G1 X83.386 Y165.336 E8.96719
G1 X82.996 Y165.147 E8.9816
G1 X81.271 Y164.267 E9.04601
G1 X80.898 Y164.067 E9.06009
G1 X79.17 Y163.1 E9.12595
G1 X78.799 Y162.883 E9.14024
G1 X77.087 Y161.835 E9.20701
G1 X76.718 Y161.599 E9.22157
G1 X75.075 Y160.501 E9.2873
G1 X74.725 Y160.257 E9.30149
G1 X73.116 Y159.089 E9.36762
G1 X72.771 Y158.828 E9.38201
G1 X71.211 Y157.599 E9.44806
G1 X70.878 Y157.326 E9.46238
G1 X69.399 Y156.064 E9.52705
G1 X69.077 Y155.778 E9.54137
G1 X67.593 Y154.408 E9.60855
G1 X67.266 Y154.093 E9.62365
G1 X65.856 Y152.679 E9.69007
G1 X65.565 Y152.377 E9.70402
G1 X64.266 Y150.971 E9.76768
G1 X63.975 Y150.642 E9.78229
G1 X62.664 Y149.104 E9.84951
G1 X62.396 Y148.778 E9.86354
G1 X61.182 Y147.238 E9.92877
G1 X60.923 Y146.895 E9.94306
G1 X59.753 Y145.285 E10.00926
G1 X59.507 Y144.933 E10.02354
G1 X58.415 Y143.3 E10.08888
G1 X58.183 Y142.938 E10.10318
G1 X57.165 Y141.279 E10.16792
G1 X56.949 Y140.91 E10.18214
G1 X55.947 Y139.125 E10.25022
G1 X55.737 Y138.732 E10.26504
G1 X54.851 Y136.992 E10.32999
G1 X54.662 Y136.604 E10.34434
G1 X53.836 Y134.811 E10.41
G1 X53.664 Y134.417 E10.4243
G1 X52.912 Y132.601 E10.48967
G1 X52.753 Y132.193 E10.50424
G1 X52.06 Y130.311 E10.57094
G1 X51.917 Y129.898 E10.58548
G1 X51.308 Y128.017 E10.65124
G1 X51.184 Y127.609 E10.66542
G1 X50.644 Y125.69 E10.73173
G1 X50.536 Y125.275 E10.74599
G1 X50.074 Y123.348 E10.8119
G1 X49.982 Y122.929 E10.82617
G1 X49.599 Y121.004 E10.89145
G1 X49.524 Y120.58 E10.90577
G1 X49.21 Y118.599 E10.97248
G1 X49.15 Y118.168 E10.98695
G1 X48.922 Y116.238 E11.05159
G1 X48.88 Y115.814 E11.06576
G1 X48.723 Y113.828 E11.13202
G1 X48.604 Y111.609 E11.20593
G1 X48.571 Y110.435 E11.245
G1 X48.568 Y109.961 E11.26076
G1 X48.592 Y108.653 E11.30427
G1 X48.633 Y107.73 E11.335
G1 X48.724 Y106.145 E11.38781
G1 X48.881 Y104.161 E11.454
G1 X48.924 Y103.733 E11.46831
G1 X49.153 Y101.803 E11.53295
G1 X49.212 Y101.372 E11.54742
G1 X49.522 Y99.422 E11.61309
G1 X49.597 Y99.007 E11.62712
G1 X49.984 Y97.058 E11.69321
G1 X50.076 Y96.634 E11.70764
G1 X50.538 Y94.708 E11.77351
G1 X50.648 Y94.287 E11.78799
G1 X51.181 Y92.398 E11.85327
G1 X51.308 Y91.982 E11.86773
G1 X51.93 Y90.07 E11.93461
G1 X52.073 Y89.658 E11.94911
G1 X52.763 Y87.792 E12.01528
G1 X52.918 Y87.396 E12.02943
G1 X53.658 Y85.61 E12.09373
G1 X53.83 Y85.217 E12.108
G1 X54.671 Y83.392 E12.17483
G1 X54.861 Y83 E12.18932
G1 X55.77 Y81.217 E12.25588
G1 X55.971 Y80.84 E12.27009
G1 X56.908 Y79.166 E12.3339
G1 X57.129 Y78.789 E12.34843
G1 X58.183 Y77.07 E12.4155
G1 X58.417 Y76.706 E12.42989
G1 X59.525 Y75.049 E12.49619
G1 X59.771 Y74.695 E12.51053
G1 X60.91 Y73.128 E12.57496
G1 X61.168 Y72.787 E12.58918
G1 X62.41 Y71.211 E12.65592
G1 X62.687 Y70.874 E12.67043
G1 X63.973 Y69.369 E12.73627
G1 X64.257 Y69.049 E12.7505
G1 X65.597 Y67.599 E12.81617
G1 X65.903 Y67.281 E12.83085
M204 S2000
G0 F7500 X66.186 Y67.564
M204 S500
G1 F1500 X67.588 Y66.164 E12.89675
G1 X67.886 Y65.878 E12.91049
G1 X69.337 Y64.538 E12.97618
G1 X69.652 Y64.259 E12.99017
G1 X71.138 Y62.992 E13.05512
G1 X71.452 Y62.734 E13.06864
G1 X73.036 Y61.485 E13.13573
G1 X73.368 Y61.234 E13.14958
G1 X74.897 Y60.123 E13.21244
G1 X75.229 Y59.891 E13.22591
G1 X76.946 Y58.741 E13.29464
G1 X77.306 Y58.511 E13.30885
G1 X78.975 Y57.488 E13.37396
G1 X79.336 Y57.276 E13.38788
G1 X81.074 Y56.303 E13.45413
G1 X81.434 Y56.11 E13.46772
G1 X83.184 Y55.217 E13.53306
G1 X83.566 Y55.032 E13.54718
G1 X85.365 Y54.203 E13.61306
G1 X85.739 Y54.039 E13.62665
G1 X87.571 Y53.279 E13.69261
G1 X87.966 Y53.125 E13.70671
G1 X89.829 Y52.438 E13.77276
G1 X90.224 Y52.301 E13.78666
G1 X92.082 Y51.698 E13.85163
G1 X92.485 Y51.576 E13.86564
G1 X94.438 Y51.027 E13.93311
G1 X94.837 Y50.923 E13.94683
G1 X96.757 Y50.463 E14.01249
G1 X97.161 Y50.374 E14.02625
G1 X99.078 Y49.993 E14.09126
G1 X99.488 Y49.92 E14.10511
G1 X101.479 Y49.605 E14.17216
G1 X101.889 Y49.549 E14.18592
G1 X103.781 Y49.325 E14.24929
G1 X104.185 Y49.285 E14.26279
G1 X106.18 Y49.126 E14.32935
G1 X106.599 Y49.1 E14.34332
G1 X108.604 Y49.02 E14.41006
G1 X109.032 Y49.012 E14.42429
G1 X111.016 Y49.013 E14.49028
G1 X111.433 Y49.021 E14.50415
G1 X113.39 Y49.099 E14.5693
G1 X113.808 Y49.124 E14.58322
G1 X115.795 Y49.282 E14.64952
G1 X116.202 Y49.323 E14.66312
G1 X118.144 Y49.553 E14.72817
G1 X118.56 Y49.61 E14.74213
G1 X120.543 Y49.925 E14.80891
G1 X120.952 Y49.998 E14.82273
G1 X122.904 Y50.387 E14.88893
G1 X123.299 Y50.474 E14.90239
G1 X125.167 Y50.921 E14.96627
G1 X125.573 Y51.027 E14.98023
G1 X127.523 Y51.576 E15.04761
G1 X127.922 Y51.697 E15.06147
G1 X129.805 Y52.308 E15.12732
G1 X130.202 Y52.445 E15.14128
G1 X132.026 Y53.118 E15.20595
G1 X132.413 Y53.27 E15.21978
G1 X134.248 Y54.03 E15.28584
G1 X134.634 Y54.198 E15.29984
G1 X136.452 Y55.037 E15.36643
G1 X136.825 Y55.219 E15.38024
G1 X138.551 Y56.099 E15.44468
G1 X138.918 Y56.295 E15.45851
G1 X140.64 Y57.26 E15.52417
G1 X141 Y57.471 E15.53805
G1 X142.738 Y58.537 E15.60586
G1 X143.078 Y58.755 E15.61929
G1 X144.697 Y59.835 E15.68402
G1 X145.042 Y60.075 E15.698
G1 X146.636 Y61.232 E15.76351
G1 X146.966 Y61.481 E15.77726
G1 X148.55 Y62.728 E15.84431
G1 X148.878 Y62.997 E15.85842
G1 X150.346 Y64.251 E15.92264
G1 X150.649 Y64.521 E15.93614
G1 X152.137 Y65.894 E16.00348
G1 X152.45 Y66.194 E16.0179
G1 X153.85 Y67.596 E16.08379
G1 X154.135 Y67.894 E16.09751
G1 X155.455 Y69.323 E16.16221
G1 X155.734 Y69.636 E16.17616
G1 X157.033 Y71.159 E16.24274
G1 X157.295 Y71.479 E16.25649
G1 X158.512 Y73.024 E16.32191
G1 X158.761 Y73.353 E16.33563
G1 X159.927 Y74.958 E16.40161
G1 X160.163 Y75.297 E16.41535
G1 X161.262 Y76.941 E16.48112
G1 X161.485 Y77.289 E16.49487
G1 X162.517 Y78.971 E16.5605
G1 X162.728 Y79.331 E16.57438
G1 X163.704 Y81.072 E16.64077
G1 X163.901 Y81.439 E16.65462
G1 X164.789 Y83.18 E16.71962
G1 X164.972 Y83.557 E16.73356
G1 X165.814 Y85.383 E16.80044
G1 X165.981 Y85.766 E16.81434
G1 X166.726 Y87.565 E16.8791
G1 X166.88 Y87.959 E16.89317
G1 X167.586 Y89.877 E16.96115
G1 X167.724 Y90.274 E16.97513
G1 X168.323 Y92.124 E17.0398
G1 X168.441 Y92.516 E17.05342
G1 X168.972 Y94.402 E17.11859
G1 X169.077 Y94.805 E17.13244
G1 X169.542 Y96.746 E17.19882
G1 X169.629 Y97.143 E17.21234
G1 X170.011 Y99.059 E17.27732
G1 X170.086 Y99.475 E17.29138
G1 X170.407 Y101.503 E17.35967
G1 X170.463 Y101.911 E17.37337
G1 X170.682 Y103.756 E17.43516
G1 X170.723 Y104.169 E17.44897
G1 X170.884 Y106.204 E17.51686
G1 X170.909 Y106.619 E17.53069
G1 X170.988 Y108.606 E17.59683
G1 X170.996 Y109.032 E17.611
G1 X170.995 Y111.01 E17.67679
G1 X170.987 Y111.429 E17.69073
G1 X170.908 Y113.404 E17.75647
G1 X170.883 Y113.819 E17.7703
G1 X170.722 Y115.846 E17.83793
G1 X170.681 Y116.261 E17.8518
G1 X170.454 Y118.166 E17.91561
G1 X170.397 Y118.576 E17.92938
G1 X170.087 Y120.526 E17.99505
G1 X170.015 Y120.926 E18.00857
G1 X169.628 Y122.875 E18.07466
G1 X169.539 Y123.284 E18.08858
G1 X169.071 Y125.235 E18.15531
G1 X168.964 Y125.641 E18.16927
G1 X168.43 Y127.533 E18.23466
G1 X168.31 Y127.931 E18.24849
G1 X167.708 Y129.783 E18.31326
G1 X167.573 Y130.172 E18.32695
G1 X166.879 Y132.055 E18.3937
G1 X166.725 Y132.449 E18.40777
G1 X165.967 Y134.277 E18.47359
G1 X165.798 Y134.663 E18.4876
G1 X164.959 Y136.479 E18.55414
G1 X164.776 Y136.855 E18.56805
G1 X163.875 Y138.619 E18.63393
G1 X163.68 Y138.983 E18.64766
G1 X162.737 Y140.664 E18.71177
G1 X162.53 Y141.016 E18.72535
G1 X161.481 Y142.728 E18.79213
G1 X161.257 Y143.079 E18.80598
G1 X160.172 Y144.703 E18.87094
G1 X159.933 Y145.045 E18.88482
G1 X158.75 Y146.673 E18.95175
G1 X158.503 Y147 E18.96538
G1 X157.284 Y148.548 E19.03092
G1 X157.017 Y148.873 E19.04491
G1 X155.731 Y150.379 E19.11077
G1 X155.46 Y150.684 E19.12434
G1 X154.146 Y152.108 E19.18879
G1 X153.846 Y152.421 E19.20321
G1 X152.403 Y153.862 E19.27104
G1 X152.104 Y154.149 E19.28482
G1 X150.695 Y155.45 E19.34861
G1 X150.38 Y155.729 E19.3626
G1 X148.835 Y157.046 E19.43013
G1 X148.518 Y157.306 E19.44376
G1 X146.945 Y158.545 E19.51036
G1 X146.608 Y158.8 E19.52442
G1 X145.008 Y159.96 E19.59015
G1 X144.677 Y160.19 E19.60355
G1 X143.09 Y161.251 E19.66705
G1 X142.738 Y161.477 E19.68096
G1 X141.002 Y162.541 E19.74868
G1 X140.64 Y162.753 E19.76263
G1 X138.916 Y163.718 E19.82835
G1 X138.554 Y163.911 E19.84199
G1 X136.832 Y164.789 E19.90628
G1 X136.453 Y164.973 E19.92029
G1 X134.632 Y165.812 E19.98698
G1 X134.249 Y165.98 E20.00089
G1 X132.417 Y166.738 E20.06683
G1 X132.031 Y166.888 E20.0806
G1 X130.187 Y167.568 E20.14597
G1 X129.797 Y167.704 E20.15971
G1 X127.911 Y168.317 E20.22567
G1 X127.507 Y168.439 E20.23971
G1 X125.6 Y168.976 E20.3056
G1 X125.194 Y169.082 E20.31956
G1 X123.247 Y169.548 E20.38614
G1 X122.855 Y169.634 E20.39949
G1 X120.971 Y170.01 E20.46339
G1 X120.561 Y170.083 E20.47724
G1 X118.562 Y170.401 E20.54456
G1 X118.142 Y170.46 E20.55867
