;FLAVOR:Marlin
;TIME:4692
;Filament used: 3.81354m
;Layer height: 0.2
;MINX:49.084
;MINY:49.116
;MINZ:0.2
;MAXX:170.89
;MAXY:170.895
;MAXZ:20.113
;Generated with Cura_SteamEngine 5.2.2
M82 ;absolute extrusion mode
; Ender 3 S1 Start G-code
G92 E0 ; Reset Extruder
G28 ; Home all axes
G1 Z10.0 F3000 ; Move Z Axis up little to prevent scratching of Heat Bed
G1 X0 Y0

M104 S200
M190 S60
M109 S200

G1 X0.1 Y20 Z0.3 F5000.0 ; Move to start position
G1 X0.1 Y200.0 Z0.3 F1500.0 E15 ; Draw the first line
G1 X0.4 Y200.0 Z0.3 F5000.0 ; Move to side a little
G1 X0.4 Y20 Z0.3 F1500.0 E30 ; Draw the second line
G92 E0 ; Reset Extruder
G1 Z2.0 F3000 ; Move Z Axis up little to prevent scratching of Heat Bed
G1 X5 Y20 Z0.3 F5000.0 ; Move over to prevent blob squish

G92 E0
G92 E0
G1 F2400 E-0.8
;LAYER_COUNT:100
;LAYER:0
M107
M204 S2000
G1 F300 Z0.4
G0 F7500 X66.251 Y67.646 Z0.4
M204 S500
;TYPE:SKIRT
G1 F300 Z0.2
G1 F2400 E0
G1 F1500 X67.652 Y66.246 E0.06588
G1 X67.959 Y65.951 E0.08004
G1 X69.394 Y64.624 E0.14504
G1 X69.721 Y64.333 E0.1596
G1 X71.208 Y63.064 E0.22462
G1 X71.547 Y62.787 E0.23918
G1 X73.105 Y61.561 E0.30512
G1 X73.447 Y61.302 E0.31939
G1 X75.025 Y60.157 E0.38424
G1 X75.369 Y59.917 E0.39819
G1 X76.97 Y58.846 E0.46225
G1 X77.343 Y58.607 E0.47699
G1 X79.042 Y57.567 E0.54324
G1 X79.402 Y57.356 E0.55712
G1 X81.086 Y56.411 E0.62135
G1 X81.473 Y56.204 E0.63594
G1 X83.217 Y55.315 E0.70105
G1 X83.608 Y55.126 E0.7155
G1 X85.417 Y54.292 E0.78175
G1 X85.808 Y54.12 E0.79596
G1 X87.58 Y53.385 E0.85976
G1 X87.99 Y53.225 E0.8744
G1 X89.838 Y52.544 E0.93991
G1 X90.25 Y52.401 E0.95441
G1 X92.129 Y51.792 E1.02011
G1 X92.535 Y51.669 E1.03422
G1 X94.418 Y51.138 E1.09929
G1 X94.837 Y51.029 E1.11369
G1 X96.766 Y50.566 E1.17967
G1 X97.193 Y50.472 E1.19421
G1 X99.069 Y50.1 E1.25782
G1 X99.479 Y50.027 E1.27167
G1 X101.426 Y49.717 E1.33725
G1 X101.861 Y49.656 E1.35186
G1 X103.827 Y49.423 E1.4177
G1 X104.254 Y49.381 E1.43198
G1 X106.161 Y49.23 E1.4956
G1 X106.593 Y49.205 E1.50999
G1 X108.611 Y49.125 E1.57716
G1 X109.053 Y49.116 E1.59187
G1 X111 Y49.117 E1.65663
G1 X111.424 Y49.125 E1.67073
G1 X113.343 Y49.2 E1.73461
G1 X113.78 Y49.226 E1.74917
G1 X115.779 Y49.384 E1.81586
G1 X116.21 Y49.427 E1.83027
G1 X118.129 Y49.655 E1.89454
G1 X118.554 Y49.714 E1.90881
G1 X120.484 Y50.02 E1.97381
G1 X120.9 Y50.094 E1.98786
G1 X122.807 Y50.472 E2.05252
G1 X123.237 Y50.566 E2.06716
G1 X125.177 Y51.032 E2.13352
G1 X125.592 Y51.14 E2.14778
G1 X127.469 Y51.669 E2.21265
G1 X127.876 Y51.793 E2.2268
G1 X129.74 Y52.397 E2.29197
G1 X130.152 Y52.539 E2.30646
G1 X131.984 Y53.214 E2.3714
G1 X132.397 Y53.376 E2.38615
G1 X134.226 Y54.135 E2.45202
G1 X134.617 Y54.306 E2.46621
G1 X136.384 Y55.121 E2.53093
G1 X136.773 Y55.31 E2.54532
G1 X138.503 Y56.192 E2.6099
G1 X138.883 Y56.395 E2.62423
G1 X140.627 Y57.372 E2.69072
G1 X141 Y57.591 E2.70511
G1 X142.636 Y58.594 E2.76893
G1 X142.995 Y58.824 E2.78311
G1 X144.641 Y59.923 E2.84894
G1 X144.995 Y60.169 E2.86328
G1 X146.557 Y61.303 E2.92748
G1 X146.895 Y61.559 E2.94158
G1 X148.45 Y62.782 E3.00738
G1 X148.788 Y63.059 E3.02191
G1 X150.29 Y64.34 E3.08757
G1 X150.628 Y64.64 E3.1026
G1 X152.042 Y65.95 E3.16671
G1 X152.344 Y66.241 E3.18066
G1 X153.763 Y67.66 E3.24741
G1 X154.062 Y67.971 E3.26176
G1 X155.383 Y69.4 E3.32648
G1 X155.673 Y69.726 E3.34099
G1 X156.942 Y71.213 E3.40601
G1 X157.219 Y71.552 E3.42057
G1 X158.445 Y73.11 E3.48651
G1 X158.704 Y73.452 E3.50078
G1 X159.849 Y75.03 E3.56563
G1 X160.09 Y75.375 E3.57963
G1 X161.174 Y76.996 E3.64448
G1 X161.41 Y77.366 E3.65908
G1 X162.423 Y79.02 E3.72359
G1 X162.639 Y79.388 E3.73778
G1 X163.61 Y81.121 E3.80385
G1 X163.814 Y81.501 E3.8182
G1 X164.688 Y83.215 E3.88219
G1 X164.875 Y83.602 E3.89649
G1 X165.705 Y85.4 E3.96235
G1 X165.883 Y85.807 E3.97713
G1 X166.631 Y87.616 E4.04224
G1 X166.787 Y88.014 E4.05645
G1 X167.468 Y89.861 E4.12193
G1 X167.61 Y90.271 E4.13636
G1 X168.211 Y92.123 E4.20112
G1 X168.335 Y92.533 E4.21537
G1 X168.867 Y94.42 E4.28057
G1 X168.976 Y94.837 E4.29491
G1 X169.435 Y96.749 E4.36031
G1 X169.527 Y97.166 E4.37451
G1 X169.909 Y99.082 E4.43949
G1 X169.986 Y99.515 E4.45412
G1 X170.291 Y101.444 E4.51908
G1 X170.349 Y101.86 E4.53305
G1 X170.581 Y103.806 E4.59823
G1 X170.624 Y104.246 E4.61293
G1 X170.777 Y106.192 E4.67786
G1 X170.802 Y106.618 E4.69205
G1 X170.881 Y108.61 E4.75836
G1 X170.89 Y109.052 E4.77306
G1 X170.889 Y110.998 E4.83778
G1 X170.88 Y111.432 E4.85222
G1 X170.8 Y113.431 E4.91876
G1 X170.774 Y113.867 E4.93329
G1 X170.622 Y115.769 E4.99675
G1 X170.58 Y116.19 E5.01082
G1 X170.348 Y118.144 E5.07627
G1 X170.29 Y118.563 E5.09034
G1 X169.987 Y120.482 E5.15496
G1 X169.912 Y120.905 E5.16925
G1 X169.534 Y122.812 E5.23391
G1 X169.441 Y123.238 E5.24841
G1 X168.978 Y125.169 E5.31446
G1 X168.869 Y125.587 E5.32882
G1 X168.337 Y127.475 E5.39406
G1 X168.212 Y127.886 E5.40835
G1 X167.607 Y129.751 E5.47356
G1 X167.467 Y130.157 E5.48785
G1 X166.794 Y131.985 E5.55264
G1 X166.631 Y132.402 E5.56753
G1 X165.871 Y134.233 E5.63347
G1 X165.697 Y134.629 E5.64785
G1 X164.883 Y136.391 E5.71241
G1 X164.699 Y136.771 E5.72645
G1 X163.804 Y138.528 E5.79203
G1 X163.596 Y138.915 E5.80665
G1 X162.646 Y140.609 E5.87124
G1 X162.429 Y140.98 E5.88554
G1 X161.403 Y142.653 E5.95081
G1 X161.178 Y143.005 E5.96471
G1 X160.087 Y144.641 E6.03011
G1 X159.832 Y145.006 E6.04492
G1 X158.695 Y146.57 E6.10923
G1 X158.446 Y146.9 E6.12298
G1 X157.215 Y148.466 E6.18923
G1 X156.931 Y148.812 E6.20412
G1 X155.66 Y150.3 E6.26921
G1 X155.374 Y150.623 E6.28356
G1 X154.054 Y152.051 E6.34824
G1 X153.751 Y152.365 E6.36275
G1 X152.357 Y153.758 E6.4283
G1 X152.047 Y154.057 E6.44262
G1 X150.602 Y155.392 E6.50806
G1 X150.275 Y155.681 E6.52257
G1 X148.793 Y156.945 E6.58735
G1 X148.463 Y157.216 E6.60156
G1 X146.902 Y158.446 E6.66766
G1 X146.557 Y158.707 E6.68205
G1 X145.02 Y159.823 E6.74522
G1 X144.676 Y160.063 E6.75917
G1 X143.012 Y161.177 E6.82577
G1 X142.639 Y161.416 E6.84051
G1 X140.987 Y162.428 E6.90494
G1 X140.618 Y162.644 E6.91917
G1 X138.885 Y163.615 E6.98524
G1 X138.505 Y163.819 E6.99958
G1 X136.791 Y164.693 E7.06357
G1 X136.402 Y164.881 E7.07794
G1 X134.603 Y165.711 E7.14384
G1 X134.2 Y165.887 E7.15847
G1 X132.392 Y166.635 E7.22354
G1 X131.992 Y166.792 E7.23784
G1 X130.145 Y167.473 E7.30331
G1 X129.735 Y167.615 E7.31774
G1 X127.883 Y168.216 E7.3825
G1 X127.471 Y168.341 E7.39682
G1 X125.583 Y168.873 E7.46206
G1 X125.168 Y168.981 E7.47632
G1 X123.256 Y169.44 E7.54172
G1 X122.838 Y169.532 E7.55596
G1 X120.911 Y169.916 E7.62131
G1 X120.481 Y169.993 E7.63584
G1 X118.548 Y170.299 E7.70093
G1 X118.126 Y170.357 E7.7151
G1 X116.208 Y170.585 E7.77934
G1 X115.777 Y170.628 E7.79375
G1 X113.792 Y170.785 E7.85998
G1 X113.355 Y170.811 E7.87454
G1 X111.414 Y170.887 E7.93915
G1 X110.978 Y170.895 E7.95365
G1 X109.008 Y170.894 E8.01917
G1 X108.574 Y170.885 E8.03361
G1 X106.575 Y170.805 E8.10015
G1 X106.139 Y170.779 E8.11468
G1 X104.211 Y170.625 E8.17901
G1 X103.788 Y170.583 E8.19314
G1 X101.863 Y170.354 E8.25762
G1 X101.443 Y170.296 E8.27172
G1 X99.515 Y169.991 E8.33665
G1 X99.085 Y169.914 E8.35118
G1 X97.122 Y169.523 E8.41775
G1 X96.7 Y169.43 E8.43212
G1 X94.795 Y168.972 E8.49729
G1 X94.385 Y168.865 E8.51138
G1 X92.556 Y168.35 E8.57458
G1 X92.138 Y168.224 E8.5891
G1 X90.23 Y167.604 E8.65583
G1 X89.823 Y167.462 E8.67016
G1 X88.02 Y166.797 E8.73408
G1 X87.609 Y166.637 E8.74875
G1 X85.773 Y165.875 E8.81487
G1 X85.383 Y165.704 E8.82903
G1 X83.618 Y164.89 E8.89368
G1 X83.224 Y164.699 E8.90824
G1 X81.492 Y163.815 E8.97291
G1 X81.118 Y163.614 E8.98704
G1 X79.388 Y162.645 E9.05299
G1 X79.021 Y162.43 E9.06713
G1 X77.361 Y161.414 E9.13187
G1 X76.991 Y161.178 E9.14646
G1 X75.342 Y160.076 E9.21243
G1 X74.988 Y159.829 E9.22679
G1 X73.412 Y158.684 E9.29158
G1 X73.071 Y158.426 E9.3058
G1 X71.545 Y157.224 E9.37041
G1 X71.208 Y156.947 E9.38492
G1 X69.707 Y155.665 E9.45057
G1 X69.388 Y155.382 E9.46476
G1 X67.95 Y154.054 E9.52986
G1 X67.632 Y153.748 E9.54454
G1 X66.275 Y152.39 E9.60839
G1 X65.982 Y152.086 E9.62243
G1 X64.62 Y150.614 E9.68913
G1 X64.324 Y150.28 E9.70398
G1 X63.056 Y148.793 E9.76898
G1 X62.778 Y148.453 E9.78358
G1 X61.533 Y146.869 E9.85059
G1 X61.282 Y146.538 E9.86441
G1 X60.182 Y145.024 E9.92665
G1 X59.936 Y144.671 E9.94096
G1 X58.827 Y143.012 E10.00734
G1 X58.595 Y142.65 E10.02164
G1 X57.569 Y140.977 E10.08691
G1 X57.35 Y140.604 E10.1013
G1 X56.399 Y138.907 E10.166
G1 X56.196 Y138.527 E10.18033
G1 X55.306 Y136.782 E10.24548
G1 X55.115 Y136.388 E10.26004
G1 X54.29 Y134.598 E10.3256
G1 X54.113 Y134.193 E10.3403
G1 X53.353 Y132.353 E10.40651
G1 X53.194 Y131.945 E10.42108
G1 X52.524 Y130.12 E10.48574
G1 X52.387 Y129.723 E10.49971
G1 X51.794 Y127.895 E10.56362
G1 X51.669 Y127.483 E10.57794
G1 X51.135 Y125.587 E10.64346
G1 X51.026 Y125.169 E10.65783
G1 X50.568 Y123.258 E10.72319
G1 X50.477 Y122.844 E10.73728
G1 X50.096 Y120.932 E10.80213
G1 X50.02 Y120.508 E10.81646
G1 X49.709 Y118.551 E10.88236
G1 X49.65 Y118.122 E10.89676
G1 X49.422 Y116.202 E10.96107
G1 X49.379 Y115.771 E10.97548
G1 X49.222 Y113.784 E11.04177
G1 X49.118 Y111.777 E11.10862
G1 X49.084 Y110.099 E11.16444
G1 X49.084 Y109.682 E11.17831
G1 X49.111 Y108.405 E11.22079
G1 X49.204 Y106.475 E11.28506
G1 X49.372 Y104.286 E11.35808
G1 X49.414 Y103.86 E11.37231
G1 X49.647 Y101.888 E11.43836
G1 X49.706 Y101.46 E11.45273
G1 X50.016 Y99.501 E11.5187
G1 X50.092 Y99.075 E11.53309
G1 X50.472 Y97.164 E11.59789
G1 X50.567 Y96.732 E11.61261
G1 X51.026 Y94.827 E11.67778
G1 X51.133 Y94.418 E11.69184
G1 X51.663 Y92.539 E11.75678
G1 X51.789 Y92.125 E11.77117
G1 X52.39 Y90.276 E11.83583
G1 X52.529 Y89.874 E11.84998
G1 X53.223 Y87.99 E11.91676
G1 X53.383 Y87.58 E11.9314
G1 X54.122 Y85.797 E11.99559
G1 X54.296 Y85.4 E12.01001
G1 X55.127 Y83.599 E12.07598
G1 X55.312 Y83.218 E12.09007
G1 X56.191 Y81.491 E12.15452
G1 X56.396 Y81.106 E12.16903
G1 X57.348 Y79.406 E12.23383
G1 X57.566 Y79.035 E12.24814
G1 X58.597 Y77.352 E12.31379
G1 X58.835 Y76.981 E12.32845
G1 X59.947 Y75.319 E12.39496
G1 X60.193 Y74.966 E12.40927
G1 X61.292 Y73.455 E12.47141
G1 X61.545 Y73.121 E12.48535
G1 X62.784 Y71.547 E12.55197
G1 X63.066 Y71.203 E12.56677
G1 X64.338 Y69.715 E12.63188
G1 X64.62 Y69.397 E12.64601
G1 X65.947 Y67.961 E12.71105
G1 X66.251 Y67.646 E12.72561
M204 S2000
G0 F7500 X66.533 Y67.929
M204 S500
G1 F1500 X67.934 Y66.529 E12.79148
G1 X68.23 Y66.245 E12.80512
G1 X69.665 Y64.918 E12.87013
G1 X69.981 Y64.637 E12.8842
G1 X71.468 Y63.368 E12.94922
G1 X71.794 Y63.101 E12.96323
G1 X73.352 Y61.875 E13.02917
G1 X73.682 Y61.626 E13.04292
G1 X75.26 Y60.481 E13.10777
G1 X75.591 Y60.25 E13.12119
G1 X77.192 Y59.179 E13.18526
G1 X77.552 Y58.948 E13.19948
G1 X79.251 Y57.908 E13.26574
G1 X79.598 Y57.705 E13.27911
G1 X81.282 Y56.76 E13.34334
G1 X81.655 Y56.56 E13.35741
G1 X83.399 Y55.671 E13.42252
G1 X83.775 Y55.489 E13.43641
G1 X85.584 Y54.655 E13.50267
G1 X85.961 Y54.49 E13.51636
G1 X87.733 Y53.755 E13.58016
G1 X88.129 Y53.6 E13.59431
G1 X89.977 Y52.919 E13.65981
G1 X90.374 Y52.781 E13.67379
G1 X92.253 Y52.172 E13.73949
G1 X92.644 Y52.054 E13.75307
G1 X94.527 Y51.523 E13.81814
G1 X94.93 Y51.418 E13.83199
G1 X96.859 Y50.955 E13.89797
G1 X97.271 Y50.864 E13.91201
G1 X99.147 Y50.492 E13.97562
G1 X99.542 Y50.422 E13.98896
G1 X101.489 Y50.112 E14.05453
G1 X101.908 Y50.054 E14.0686
G1 X103.874 Y49.821 E14.13445
G1 X104.285 Y49.78 E14.14819
G1 X106.192 Y49.629 E14.21181
G1 X106.609 Y49.604 E14.22571
G1 X108.627 Y49.524 E14.29288
G1 X109.052 Y49.516 E14.30702
G1 X110.999 Y49.517 E14.37178
G1 X111.408 Y49.525 E14.38538
G1 X113.327 Y49.6 E14.44926
G1 X113.748 Y49.625 E14.46328
G1 X115.747 Y49.783 E14.52998
G1 X116.163 Y49.824 E14.54388
G1 X118.082 Y50.052 E14.60816
G1 X118.491 Y50.109 E14.62189
G1 X120.421 Y50.415 E14.68688
G1 X120.822 Y50.486 E14.70043
G1 X122.729 Y50.864 E14.76509
G1 X123.144 Y50.955 E14.77922
G1 X125.084 Y51.421 E14.84558
G1 X125.483 Y51.525 E14.8593
G1 X127.36 Y52.054 E14.92416
G1 X127.753 Y52.173 E14.93781
G1 X129.617 Y52.777 E15.00298
G1 X130.014 Y52.915 E15.01696
G1 X131.846 Y53.59 E15.0819
G1 X132.244 Y53.746 E15.09612
G1 X134.073 Y54.505 E15.16198
G1 X134.45 Y54.67 E15.17567
G1 X136.217 Y55.485 E15.24039
G1 X136.592 Y55.666 E15.25424
G1 X138.322 Y56.548 E15.31883
G1 X138.688 Y56.744 E15.33263
G1 X140.432 Y57.721 E15.39912
G1 X140.791 Y57.932 E15.41297
G1 X142.427 Y58.935 E15.4768
G1 X142.773 Y59.156 E15.49045
G1 X144.419 Y60.255 E15.55628
G1 X144.76 Y60.493 E15.57011
G1 X146.322 Y61.627 E15.63431
G1 X146.648 Y61.873 E15.6479
G1 X148.203 Y63.096 E15.71369
G1 X148.528 Y63.363 E15.72768
G1 X150.03 Y64.644 E15.79334
G1 X150.356 Y64.933 E15.80783
G1 X151.77 Y66.243 E15.87194
G1 X152.061 Y66.524 E15.8854
G1 X153.48 Y67.943 E15.95214
G1 X153.769 Y68.243 E15.966
G1 X155.09 Y69.672 E16.03072
G1 X155.369 Y69.986 E16.04469
G1 X156.638 Y71.473 E16.10971
G1 X156.905 Y71.799 E16.12373
G1 X158.131 Y73.357 E16.18967
G1 X158.38 Y73.687 E16.20342
G1 X159.525 Y75.265 E16.26826
G1 X159.757 Y75.598 E16.28176
G1 X160.841 Y77.219 E16.34662
G1 X161.069 Y77.575 E16.36068
G1 X162.082 Y79.229 E16.42519
G1 X162.29 Y79.584 E16.43888
G1 X163.261 Y81.317 E16.50495
G1 X163.457 Y81.683 E16.51876
G1 X164.331 Y83.397 E16.58275
G1 X164.512 Y83.769 E16.59651
G1 X165.342 Y85.567 E16.66237
G1 X165.514 Y85.96 E16.67664
G1 X166.262 Y87.769 E16.74175
G1 X166.412 Y88.152 E16.75543
G1 X167.093 Y89.999 E16.8209
G1 X167.229 Y90.394 E16.8348
G1 X167.83 Y92.246 E16.89956
G1 X167.95 Y92.642 E16.91332
G1 X168.482 Y94.529 E16.97853
G1 X168.587 Y94.931 E16.99235
G1 X169.046 Y96.843 E17.05775
G1 X169.134 Y97.244 E17.0714
G1 X169.516 Y99.16 E17.13638
G1 X169.591 Y99.578 E17.15051
G1 X169.896 Y101.507 E17.21547
G1 X169.951 Y101.907 E17.22889
G1 X170.183 Y103.853 E17.29408
G1 X170.225 Y104.277 E17.30825
G1 X170.378 Y106.223 E17.37317
G1 X170.403 Y106.634 E17.38687
G1 X170.482 Y108.626 E17.45317
G1 X170.49 Y109.051 E17.46731
G1 X170.489 Y110.997 E17.53204
G1 X170.481 Y111.416 E17.54597
G1 X170.401 Y113.415 E17.61252
G1 X170.375 Y113.835 E17.62651
G1 X170.223 Y115.737 E17.68997
G1 X170.183 Y116.143 E17.70354
G1 X169.951 Y118.097 E17.76899
G1 X169.895 Y118.5 E17.78252
G1 X169.592 Y120.419 E17.84714
G1 X169.52 Y120.827 E17.86092
G1 X169.142 Y122.734 E17.92558
G1 X169.052 Y123.145 E17.93957
G1 X168.589 Y125.076 E18.00562
G1 X168.484 Y125.479 E18.01947
G1 X167.952 Y127.367 E18.08471
G1 X167.832 Y127.763 E18.09847
G1 X167.227 Y129.628 E18.16369
G1 X167.091 Y130.019 E18.17745
G1 X166.418 Y131.847 E18.24224
G1 X166.261 Y132.249 E18.2566
G1 X165.501 Y134.08 E18.32254
G1 X165.334 Y134.461 E18.33637
G1 X164.52 Y136.223 E18.40093
G1 X164.342 Y136.589 E18.41446
G1 X163.447 Y138.346 E18.48005
G1 X163.247 Y138.72 E18.49415
G1 X162.297 Y140.414 E18.55875
G1 X162.088 Y140.771 E18.57251
G1 X161.062 Y142.444 E18.63778
G1 X160.845 Y142.783 E18.65117
G1 X159.754 Y144.419 E18.71657
G1 X159.509 Y144.771 E18.73084
G1 X158.372 Y146.335 E18.79515
G1 X158.131 Y146.653 E18.80842
G1 X156.9 Y148.219 E18.87467
G1 X156.627 Y148.553 E18.88902
G1 X155.356 Y150.041 E18.95411
G1 X155.08 Y150.351 E18.96791
G1 X153.76 Y151.779 E19.03259
G1 X153.469 Y152.082 E19.04657
G1 X152.075 Y153.475 E19.11211
G1 X151.775 Y153.763 E19.12594
G1 X150.33 Y155.098 E19.19138
G1 X150.016 Y155.377 E19.20535
G1 X148.534 Y156.641 E19.27013
G1 X148.215 Y156.902 E19.28384
G1 X146.654 Y158.132 E19.34994
G1 X146.322 Y158.383 E19.36378
G1 X144.785 Y159.499 E19.42696
G1 X144.454 Y159.73 E19.44038
G1 X142.79 Y160.844 E19.50699
G1 X142.43 Y161.075 E19.52121
G1 X140.778 Y162.087 E19.58565
G1 X140.422 Y162.295 E19.59936
G1 X138.689 Y163.266 E19.66543
G1 X138.323 Y163.462 E19.67924
G1 X136.609 Y164.336 E19.74323
G1 X136.235 Y164.518 E19.75707
G1 X134.436 Y165.348 E19.82296
G1 X134.047 Y165.518 E19.83708
G1 X132.239 Y166.266 E19.90216
G1 X131.854 Y166.417 E19.91592
G1 X130.007 Y167.098 E19.98139
G1 X129.612 Y167.234 E19.99528
G1 X127.76 Y167.835 E20.06004
G1 X127.363 Y167.956 E20.07385
G1 X125.475 Y168.488 E20.13909
G1 X125.074 Y168.592 E20.15287
G1 X123.162 Y169.051 E20.21827
G1 X122.76 Y169.14 E20.23196
G1 X120.833 Y169.524 E20.29731
G1 X120.418 Y169.598 E20.31133
G1 X118.485 Y169.904 E20.37643
G1 X118.079 Y169.96 E20.39006
