;FLAVOR:Marlin
;TIME:3663
;Filament used: 1.4456m
;Layer height: 0.12
;MINX:90.262
;MINY:49.551
;MINZ:0.12
;MAXX:129.673
;MAXY:171.756
;MAXZ:2.4
;Generated with Cura_SteamEngine 5.2.2
M82 ;absolute extrusion mode
; Ender 3 S1 Start G-code
G92 E0 ; Reset Extruder
G28 ; Home all axes
G1 Z10.0 F3000 ; Move Z Axis up little to prevent scratching of Heat Bed
G1 X0 Y0

M104 S200
M190 S60
M109 S200

G1 X0.1 Y20 Z0.3 F5000.0 ; Move to start position
G1 X0.1 Y200.0 Z0.3 F1500.0 E15 ; Draw the first line
G1 X0.4 Y200.0 Z0.3 F5000.0 ; Move to side a little
G1 X0.4 Y20 Z0.3 F1500.0 E30 ; Draw the second line
G92 E0 ; Reset Extruder
G1 Z2.0 F3000 ; Move Z Axis up little to prevent scratching of Heat Bed
G1 X5 Y20 Z0.3 F5000.0 ; Move over to prevent blob squish

G92 E0
G92 E0
G1 F2400 E-0.8
;LAYER_COUNT:20
;LAYER:0
M107
M204 S2000
G0 F7500 X91.752 Y55.047 Z0.12
M204 S500
;TYPE:SKIRT
G1 F2400 E0
G1 F1500 X92.256 Y54.256 E0.01872
G1 X92.826 Y53.511 E0.03744
G1 X93.457 Y52.818 E0.05614
G1 X94.145 Y52.18 E0.07487
G1 X94.885 Y51.604 E0.09358
G1 X95.671 Y51.092 E0.1123
G1 X96.498 Y50.65 E0.13101
G1 X97.359 Y50.279 E0.14972
G1 X98.249 Y49.983 E0.16844
G1 X99.161 Y49.764 E0.18716
G1 X100.089 Y49.624 E0.20588
G1 X100.963 Y49.564 E0.22337
G1 X101.592 Y49.551 E0.23592
G1 X106.108 Y49.552 E0.32604
G1 X107.478 Y49.571 E0.35339
G1 X108.926 Y49.612 E0.38229
G1 X111.477 Y49.614 E0.4332
G1 X113.597 Y49.567 E0.47552
G1 X118.124 Y49.568 E0.56586
G1 X118.822 Y49.578 E0.57979
G1 X119.758 Y49.632 E0.5985
G1 X120.686 Y49.764 E0.61721
G1 X121.6 Y49.976 E0.63593
G1 X122.492 Y50.265 E0.65464
G1 X123.357 Y50.628 E0.67336
G1 X124.187 Y51.064 E0.69207
G1 X124.978 Y51.569 E0.7108
G1 X125.722 Y52.14 E0.72952
G1 X126.415 Y52.772 E0.74823
G1 X127.052 Y53.46 E0.76695
G1 X127.627 Y54.201 E0.78566
G1 X128.138 Y54.987 E0.80437
G1 X128.58 Y55.815 E0.8231
G1 X128.949 Y56.677 E0.84181
G1 X129.244 Y57.567 E0.86053
G1 X129.462 Y58.479 E0.87924
G1 X129.602 Y59.407 E0.89797
G1 X129.659 Y60.253 E0.91489
G1 X129.673 Y60.882 E0.92744
G1 X129.672 Y159.975 E2.90495
G1 X129.662 Y160.708 E2.91958
G1 X129.609 Y161.644 E2.93829
G1 X129.477 Y162.573 E2.95701
G1 X129.266 Y163.487 E2.97573
G1 X128.978 Y164.379 E2.99444
G1 X128.615 Y165.244 E3.01316
G1 X128.18 Y166.075 E3.03188
G1 X127.675 Y166.865 E3.05059
G1 X127.105 Y167.61 E3.06931
G1 X126.474 Y168.304 E3.08803
G1 X125.785 Y168.941 E3.10675
G1 X125.045 Y169.517 E3.12547
G1 X124.259 Y170.028 E3.14418
G1 X123.432 Y170.47 E3.16289
G1 X122.57 Y170.841 E3.18162
G1 X121.68 Y171.136 E3.20033
G1 X120.768 Y171.355 E3.21905
G1 X119.841 Y171.495 E3.23775
G1 X118.887 Y171.556 E3.25683
G1 X115.48 Y171.625 E3.32484
G1 X113.235 Y171.733 E3.36969
G1 X112.37 Y171.756 E3.38696
G1 X107.851 Y171.755 E3.47714
G1 X106.829 Y171.736 E3.49754
G1 X105.947 Y171.697 E3.51516
G1 X104.692 Y171.627 E3.54024
G1 X102.133 Y171.555 E3.59133
G1 X101.102 Y171.539 E3.6119
G1 X100.166 Y171.484 E3.63062
G1 X99.238 Y171.35 E3.64933
G1 X98.324 Y171.138 E3.66805
G1 X97.432 Y170.848 E3.68677
G1 X96.568 Y170.484 E3.70548
G1 X95.738 Y170.047 E3.7242
G1 X94.948 Y169.541 E3.74292
G1 X94.205 Y168.97 E3.76162
G1 X93.512 Y168.338 E3.78034
G1 X92.876 Y167.648 E3.79906
G1 X92.301 Y166.907 E3.81778
G1 X91.791 Y166.12 E3.8365
G1 X91.351 Y165.292 E3.85521
G1 X90.982 Y164.43 E3.87392
G1 X90.688 Y163.539 E3.89264
G1 X90.471 Y162.627 E3.91135
G1 X90.332 Y161.699 E3.93008
G1 X90.275 Y160.839 E3.94728
G1 X90.262 Y160.209 E3.95985
G1 X90.263 Y61.096 E5.93776
G1 X90.272 Y60.415 E5.95135
G1 X90.324 Y59.478 E5.97008
G1 X90.456 Y58.55 E5.98878
G1 X90.667 Y57.636 E6.0075
G1 X90.954 Y56.743 E6.02622
G1 X91.317 Y55.878 E6.04494
G1 X91.752 Y55.047 E6.06366
M204 S2000
G0 F7500 X92.149 Y55.16
M204 S500
G1 F1500 X92.652 Y54.389 E6.08203
G1 X93.22 Y53.665 E6.1004
G1 X93.849 Y52.992 E6.11878
G1 X94.534 Y52.376 E6.13716
G1 X95.269 Y51.823 E6.15552
G1 X96.05 Y51.335 E6.1739
G1 X96.87 Y50.917 E6.19226
G1 X97.724 Y50.571 E6.21065
G1 X98.604 Y50.301 E6.22902
G1 X99.504 Y50.108 E6.24739
G1 X100.418 Y49.994 E6.26577
G1 X100.974 Y49.964 E6.27688
G1 X101.592 Y49.951 E6.28922
G1 X105.955 Y49.951 E6.37629
G1 X107.631 Y49.974 E6.40974
G1 X108.95 Y50.012 E6.43607
G1 X111.487 Y50.014 E6.4867
G1 X113.597 Y49.967 E6.52882
G1 X118.118 Y49.968 E6.61904
G1 X118.816 Y49.978 E6.63297
G1 X119.735 Y50.031 E6.65134
G1 X120.646 Y50.164 E6.66971
G1 X121.542 Y50.375 E6.68808
G1 X122.416 Y50.663 E6.70644
G1 X123.263 Y51.026 E6.72483
G1 X124.074 Y51.461 E6.7432
G1 X124.844 Y51.965 E6.76157
G1 X125.568 Y52.534 E6.77994
G1 X126.24 Y53.164 E6.79832
G1 X126.855 Y53.849 E6.81669
G1 X127.408 Y54.585 E6.83507
G1 X127.895 Y55.366 E6.85343
G1 X128.312 Y56.187 E6.87181
G1 X128.657 Y57.041 E6.89019
G1 X128.926 Y57.921 E6.90855
G1 X129.118 Y58.822 E6.92694
G1 X129.231 Y59.735 E6.9453
G1 X129.259 Y60.264 E6.95587
G1 X129.273 Y60.882 E6.9682
G1 X129.272 Y159.97 E8.94561
G1 X129.262 Y160.703 E8.96024
G1 X129.209 Y161.622 E8.97861
G1 X129.077 Y162.533 E8.99698
G1 X128.867 Y163.429 E9.01535
G1 X128.579 Y164.304 E9.03373
G1 X128.217 Y165.15 E9.05209
G1 X127.782 Y165.962 E9.07048
G1 X127.279 Y166.733 E9.08885
G1 X126.711 Y167.457 E9.10721
G1 X126.082 Y168.129 E9.12558
G1 X125.397 Y168.744 E9.14395
G1 X124.661 Y169.298 E9.16233
G1 X123.88 Y169.785 E9.1807
G1 X123.06 Y170.203 E9.19907
G1 X122.206 Y170.548 E9.21745
G1 X121.326 Y170.818 E9.23582
G1 X120.426 Y171.01 E9.25418
G1 X119.512 Y171.124 E9.27257
G1 X118.879 Y171.156 E9.28521
G1 X115.489 Y171.225 E9.35288
G1 X113.216 Y171.334 E9.39829
G1 X112.37 Y171.356 E9.41518
G1 X107.857 Y171.355 E9.50524
G1 X107.152 Y171.345 E9.51931
G1 X105.969 Y171.298 E9.54294
G1 X104.689 Y171.227 E9.56852
G1 X102.148 Y171.155 E9.61925
G1 X101.109 Y171.139 E9.63999
G1 X100.189 Y171.085 E9.65838
G1 X99.279 Y170.951 E9.67673
G1 X98.383 Y170.739 E9.69511
G1 X97.509 Y170.45 E9.71348
G1 X96.663 Y170.086 E9.73186
G1 X95.852 Y169.65 E9.75023
G1 X95.082 Y169.146 E9.7686
G1 X94.359 Y168.576 E9.78697
G1 X93.687 Y167.946 E9.80535
G1 X93.073 Y167.26 E9.82373
G1 X92.521 Y166.523 E9.8421
G1 X92.035 Y165.741 E9.86048
G1 X91.618 Y164.92 E9.87885
G1 X91.275 Y164.066 E9.89722
G1 X91.006 Y163.186 E9.91558
G1 X90.816 Y162.285 E9.93396
G1 X90.704 Y161.371 E9.95233
G1 X90.675 Y160.828 E9.96318
G1 X90.662 Y160.209 E9.97554
G1 X90.663 Y61.101 E11.95335
G1 X90.672 Y60.42 E11.96694
G1 X90.724 Y59.501 E11.98531
G1 X90.856 Y58.59 E12.00368
G1 X91.066 Y57.693 E12.02206
G1 X91.353 Y56.819 E12.04042
G1 X91.715 Y55.972 E12.0588
G1 X92.149 Y55.16 E12.07718
M204 S2000
G0 F7500 X92.547 Y55.275
M204 S500
G1 F1500 X93.048 Y54.524 E12.09519
G1 X93.614 Y53.821 E12.1132
G1 X94.241 Y53.17 E12.13124
G1 X94.922 Y52.577 E12.14926
G1 X95.653 Y52.047 E12.16728
G1 X96.428 Y51.583 E12.1853
G1 X97.241 Y51.19 E12.20333
G1 X98.085 Y50.87 E12.22134
G1 X98.955 Y50.626 E12.23937
G1 X99.843 Y50.46 E12.2574
G1 X100.985 Y50.364 E12.28027
G1 X101.592 Y50.351 E12.29238
G1 X105.955 Y50.351 E12.37945
G1 X107.62 Y50.374 E12.41268
G1 X108.938 Y50.412 E12.439
G1 X111.496 Y50.414 E12.49004
G1 X113.597 Y50.367 E12.53198
G1 X118.112 Y50.368 E12.62208
G1 X118.81 Y50.378 E12.63601
G1 X119.712 Y50.431 E12.65405
G1 X120.605 Y50.563 E12.67206
G1 X121.483 Y50.774 E12.69008
G1 X122.339 Y51.062 E12.7081
G1 X123.166 Y51.424 E12.72612
G1 X123.958 Y51.859 E12.74415
G1 X124.709 Y52.361 E12.76218
G1 X125.412 Y52.928 E12.7802
G1 X126.062 Y53.555 E12.79822
G1 X126.654 Y54.237 E12.81625
G1 X127.184 Y54.968 E12.83427
G1 X127.646 Y55.744 E12.85229
G1 X128.039 Y56.557 E12.87031
G1 X128.357 Y57.402 E12.88833
G1 X128.6 Y58.272 E12.90635
G1 X128.765 Y59.16 E12.92438
G1 X128.86 Y60.276 E12.94673
G1 X128.873 Y60.882 E12.95882
G1 X128.872 Y159.964 E14.93611
G1 X128.862 Y160.697 E14.95074
G1 X128.81 Y161.599 E14.96877
G1 X128.678 Y162.492 E14.98679
G1 X128.468 Y163.37 E15.0048
G1 X128.18 Y164.227 E15.02284
G1 X127.819 Y165.054 E15.04085
G1 X127.385 Y165.846 E15.05887
G1 X126.883 Y166.597 E15.0769
G1 X126.317 Y167.301 E15.09493
G1 X125.69 Y167.951 E15.11295
G1 X125.009 Y168.544 E15.13097
G1 X124.278 Y169.074 E15.14899
G1 X123.502 Y169.537 E15.16702
G1 X122.689 Y169.93 E15.18504
G1 X121.844 Y170.249 E15.20307
G1 X120.975 Y170.493 E15.22108
G1 X120.087 Y170.658 E15.2391
G1 X118.871 Y170.756 E15.26345
G1 X115.46 Y170.825 E15.33153
G1 X113.01 Y170.942 E15.38048
G1 X112.37 Y170.956 E15.39326
G1 X107.862 Y170.955 E15.48322
G1 X106.864 Y170.937 E15.50314
G1 X106.12 Y170.905 E15.518
G1 X104.721 Y170.827 E15.54596
G1 X102.167 Y170.755 E15.59695
G1 X101.115 Y170.739 E15.61795
G1 X100.213 Y170.685 E15.63598
G1 X99.32 Y170.552 E15.654
G1 X98.442 Y170.34 E15.67202
G1 X97.586 Y170.051 E15.69005
G1 X96.759 Y169.688 E15.70807
G1 X95.968 Y169.253 E15.72609
G1 X95.218 Y168.75 E15.74411
G1 X94.516 Y168.182 E15.76213
G1 X93.866 Y167.555 E15.78015
G1 X93.275 Y166.872 E15.79818
G1 X92.746 Y166.14 E15.8162
G1 X92.284 Y165.364 E15.83422
G1 X91.892 Y164.55 E15.85225
G1 X91.574 Y163.705 E15.87027
G1 X91.333 Y162.835 E15.88829
G1 X91.168 Y161.947 E15.90631
G1 X91.075 Y160.817 E15.92894
G1 X91.062 Y160.209 E15.94107
G1 X91.063 Y61.106 E17.91878
G1 X91.072 Y60.425 E17.93237
G1 X91.124 Y59.524 E17.95038
G1 X91.255 Y58.63 E17.96841
G1 X91.465 Y57.752 E17.98643
G1 X91.752 Y56.895 E18.00447
G1 X92.113 Y56.068 E18.02247
G1 X92.547 Y55.275 E18.04051
M204 S2000
G1 F2400 E17.24051
;MESH:Pilal1.stl(1)
G0 F7500 X100.597 Y60.971
G0 X101.682 Y60.971
G0 X102.434 Y159.379
G0 X105.662 Y159.551
M204 S500
;TYPE:WALL-INNER
G1 F2400 E18.04051
G1 F1500 X105.662 Y63.251 E19.96228
G1 X105.662 Y61.551 E19.99621
G1 X102.262 Y61.551 E20.06406
G1 X102.262 Y159.551 E22.01976
G1 X105.662 Y159.551 E22.08761
M204 S2000
G0 F7500 X106.062 Y159.951
M204 S500
G1 F1500 X106.062 Y63.251 E24.01736
G1 X106.062 Y61.151 E24.05927
G1 X101.862 Y61.151 E24.14308
G1 X101.862 Y159.951 E26.11474
G1 X106.062 Y159.951 E26.19856
M204 S2000
G0 F7500 X106.462 Y160.351
M204 S500
;TYPE:WALL-OUTER
G1 F1500 X106.462 Y63.251 E28.13629
G1 X106.462 Y60.751 E28.18618
G1 X101.462 Y60.751 E28.28597
G1 X101.462 Y160.351 E30.27359
G1 X106.462 Y160.351 E30.37337
M204 S2000
G0 F7500 X106.192 Y160.081
G0 X105.562 Y159.191
G0 X105.302 Y159.191
M204 S500
;TYPE:SKIN
G1 F1500 X105.302 Y63.251 E32.28796
G1 X105.302 Y61.911 E32.3147
G1 X102.622 Y61.911 E32.36818
G1 X102.622 Y159.191 E34.30951
G1 X105.302 Y159.191 E34.36299
M204 S2000
G0 F7500 X105.562 Y159.191
G0 X102.987 Y159.451
G0 X102.987 Y158.99
M204 S500
G1 F1500 X102.821 Y158.824 E34.36768
M204 S2000
G0 F7500 X102.821 Y158.258
M204 S500
G1 F1500 X103.552 Y158.99 E34.38832
M204 S2000
G0 F7500 X104.118 Y158.99
M204 S500
G1 F1500 X102.821 Y157.693 E34.42492
M204 S2000
G0 F7500 X102.821 Y157.127
M204 S500
G1 F1500 X104.684 Y158.99 E34.4775
M204 S2000
G0 F7500 X105.101 Y158.841
M204 S500
G1 F1500 X102.821 Y156.561 E34.54185
M204 S2000
G0 F7500 X102.821 Y155.996
M204 S500
G1 F1500 X105.101 Y158.275 E34.60618
M204 S2000
G0 F7500 X105.101 Y157.71
M204 S500
G1 F1500 X102.821 Y155.43 E34.67053
M204 S2000
G0 F7500 X102.821 Y154.864
M204 S500
G1 F1500 X105.101 Y157.144 E34.73487
M204 S2000
G0 F7500 X105.101 Y156.578
M204 S500
G1 F1500 X102.821 Y154.299 E34.79921
M204 S2000
G0 F7500 X102.821 Y153.733
M204 S500
G1 F1500 X105.101 Y156.013 E34.86355
M204 S2000
G0 F7500 X105.101 Y155.447
M204 S500
G1 F1500 X102.821 Y153.167 E34.9279
M204 S2000
G0 F7500 X102.821 Y152.602
M204 S500
G1 F1500 X105.101 Y154.881 E34.99223
M204 S2000
G0 F7500 X105.101 Y154.316
M204 S500
G1 F1500 X102.821 Y152.036 E35.05658
M204 S2000
G0 F7500 X102.821 Y151.47
M204 S500
G1 F1500 X105.101 Y153.75 E35.12093
M204 S2000
G0 F7500 X105.101 Y153.184
M204 S500
G1 F1500 X102.821 Y150.905 E35.18526
M204 S2000
G0 F7500 X102.821 Y150.339
M204 S500
G1 F1500 X105.101 Y152.619 E35.2496
M204 S2000
G0 F7500 X105.101 Y152.053
M204 S500
G1 F1500 X102.821 Y149.773 E35.31395
M204 S2000
G0 F7500 X102.821 Y149.208
M204 S500
G1 F1500 X105.101 Y151.487 E35.37828
M204 S2000
G0 F7500 X105.101 Y150.922
M204 S500
G1 F1500 X102.821 Y148.642 E35.44263
M204 S2000
G0 F7500 X102.821 Y148.076
M204 S500
G1 F1500 X105.101 Y150.356 E35.50698
M204 S2000
G0 F7500 X105.101 Y149.79
M204 S500
G1 F1500 X102.821 Y147.51 E35.57132
M204 S2000
G0 F7500 X102.821 Y146.945
M204 S500
G1 F1500 X105.101 Y149.224 E35.63566
M204 S2000
G0 F7500 X105.101 Y148.659
M204 S500
G1 F1500 X102.821 Y146.379 E35.7
M204 S2000
G0 F7500 X102.821 Y145.813
M204 S500
G1 F1500 X105.101 Y148.093 E35.76435
M204 S2000
G0 F7500 X105.101 Y147.527
M204 S500
G1 F1500 X102.821 Y145.248 E35.82868
M204 S2000
G0 F7500 X102.821 Y144.682
M204 S500
G1 F1500 X105.101 Y146.962 E35.89303
M204 S2000
G0 F7500 X105.101 Y146.396
M204 S500
G1 F1500 X102.821 Y144.116 E35.95737
M204 S2000
G0 F7500 X102.821 Y143.551
M204 S500
G1 F1500 X105.101 Y145.83 E36.02171
M204 S2000
G0 F7500 X105.101 Y145.265
M204 S500
G1 F1500 X102.821 Y142.985 E36.08605
M204 S2000
G0 F7500 X102.821 Y142.419
M204 S500
G1 F1500 X105.101 Y144.699 E36.1504
M204 S2000
G0 F7500 X105.101 Y144.133
M204 S500
G1 F1500 X102.821 Y141.854 E36.21473
M204 S2000
G0 F7500 X102.821 Y141.288
M204 S500
G1 F1500 X105.101 Y143.568 E36.27908
M204 S2000
G0 F7500 X105.101 Y143.002
M204 S500
G1 F1500 X102.821 Y140.722 E36.34342
M204 S2000
G0 F7500 X102.821 Y140.157
M204 S500
G1 F1500 X105.101 Y142.436 E36.40776
M204 S2000
G0 F7500 X105.101 Y141.871
M204 S500
G1 F1500 X102.821 Y139.591 E36.4721
M204 S2000
G0 F7500 X102.821 Y139.025
M204 S500
G1 F1500 X105.101 Y141.305 E36.53645
M204 S2000
G0 F7500 X105.101 Y140.739
M204 S500
G1 F1500 X102.821 Y138.459 E36.6008
M204 S2000
G0 F7500 X102.821 Y137.894
M204 S500
G1 F1500 X105.101 Y140.174 E36.66514
M204 S2000
G0 F7500 X105.101 Y139.608
M204 S500
G1 F1500 X102.821 Y137.328 E36.72949
M204 S2000
G0 F7500 X102.821 Y136.762
M204 S500
G1 F1500 X105.101 Y139.042 E36.79384
M204 S2000
G0 F7500 X105.101 Y138.476
M204 S500
G1 F1500 X102.821 Y136.197 E36.85817
M204 S2000
G0 F7500 X102.821 Y135.631
M204 S500
G1 F1500 X105.101 Y137.911 E36.92252
M204 S2000
G0 F7500 X105.101 Y137.345
M204 S500
G1 F1500 X102.821 Y135.065 E36.98686
M204 S2000
G0 F7500 X102.821 Y134.5
M204 S500
G1 F1500 X105.101 Y136.779 E37.05119
M204 S2000
G0 F7500 X105.101 Y136.214
M204 S500
G1 F1500 X102.821 Y133.934 E37.11554
M204 S2000
G0 F7500 X102.821 Y133.368
M204 S500
G1 F1500 X105.101 Y135.648 E37.17989
M204 S2000
G0 F7500 X105.101 Y135.082
M204 S500
G1 F1500 X102.821 Y132.803 E37.24422
M204 S2000
G0 F7500 X102.821 Y132.237
M204 S500
G1 F1500 X105.101 Y134.517 E37.30857
M204 S2000
G0 F7500 X105.101 Y133.951
M204 S500
G1 F1500 X102.821 Y131.671 E37.37291
M204 S2000
G0 F7500 X102.821 Y131.106
M204 S500
G1 F1500 X105.101 Y133.385 E37.43725
M204 S2000
G0 F7500 X105.101 Y132.82
M204 S500
G1 F1500 X102.821 Y130.54 E37.50159
M204 S2000
G0 F7500 X102.821 Y129.974
M204 S500
G1 F1500 X105.101 Y132.254 E37.56594
M204 S2000
G0 F7500 X105.101 Y131.688
M204 S500
G1 F1500 X102.821 Y129.409 E37.63027
M204 S2000
G0 F7500 X102.821 Y128.843
M204 S500
G1 F1500 X105.101 Y131.123 E37.69462
M204 S2000
G0 F7500 X105.101 Y130.557
M204 S500
G1 F1500 X102.821 Y128.277 E37.75896
M204 S2000
G0 F7500 X102.821 Y127.711
M204 S500
G1 F1500 X105.101 Y129.991 E37.82331
M204 S2000
G0 F7500 X105.101 Y129.425
M204 S500
G1 F1500 X102.821 Y127.146 E37.88764
M204 S2000
G0 F7500 X102.821 Y126.58
M204 S500
G1 F1500 X105.101 Y128.86 E37.95199
M204 S2000
G0 F7500 X105.101 Y128.294
M204 S500
G1 F1500 X102.821 Y126.014 E38.01634
M204 S2000
G0 F7500 X102.821 Y125.449
M204 S500
G1 F1500 X105.101 Y127.728 E38.08067
M204 S2000
G0 F7500 X105.101 Y127.163
M204 S500
G1 F1500 X102.821 Y124.883 E38.14501
M204 S2000
G0 F7500 X102.821 Y124.317
M204 S500
G1 F1500 X105.101 Y126.597 E38.20936
M204 S2000
G0 F7500 X105.101 Y126.031
M204 S500
G1 F1500 X102.821 Y123.752 E38.27369
M204 S2000
G0 F7500 X102.821 Y123.186
M204 S500
G1 F1500 X105.101 Y125.466 E38.33804
M204 S2000
G0 F7500 X105.101 Y124.9
M204 S500
G1 F1500 X102.821 Y122.62 E38.40239
M204 S2000
G0 F7500 X102.821 Y122.055
M204 S500
G1 F1500 X105.101 Y124.334 E38.46672
M204 S2000
G0 F7500 X105.101 Y123.769
M204 S500
G1 F1500 X102.821 Y121.489 E38.53107
M204 S2000
G0 F7500 X102.821 Y120.923
M204 S500
