;FLAVOR:Marlin
;TIME:4528
;Filament used: 1.74757m
;Layer height: 0.12
;MINX:74.018
;MINY:74.692
;MINZ:0.12
;MAXX:145.993
;MAXY:146.664
;MAXZ:9.96
;Generated with Cura_SteamEngine 5.2.2
M82 ;absolute extrusion mode
; Ender 3 S1 Start G-code
G92 E0 ; Reset Extruder
G28 ; Home all axes
G1 Z10.0 F3000 ; Move Z Axis up little to prevent scratching of Heat Bed
G1 X0 Y0

M104 S228
M190 S0
M109 S228

G1 X0.1 Y20 Z0.3 F5000.0 ; Move to start position
G1 X0.1 Y200.0 Z0.3 F1500.0 E15 ; Draw the first line
G1 X0.4 Y200.0 Z0.3 F5000.0 ; Move to side a little
G1 X0.4 Y20 Z0.3 F1500.0 E30 ; Draw the second line
G92 E0 ; Reset Extruder
G1 Z2.0 F3000 ; Move Z Axis up little to prevent scratching of Heat Bed
G1 X5 Y20 Z0.3 F5000.0 ; Move over to prevent blob squish

G92 E0
G92 E0
G1 F2400 E-0.8
;LAYER_COUNT:83
;LAYER:0
M107
M204 S2000
G0 F7500 X84.405 Y85.384 Z0.12
M204 S500
;TYPE:SKIRT
G1 F2400 E0
G1 F1500 X85.067 Y84.732 E0.01854
G1 X85.749 Y84.092 E0.03721
G1 X86.647 Y83.301 E0.06109
G1 X87.657 Y82.469 E0.0872
G1 X88.57 Y81.768 E0.11017
G1 X89.366 Y81.196 E0.12973
G1 X90.368 Y80.517 E0.15389
G1 X91.159 Y80.017 E0.17256
G1 X91.874 Y79.59 E0.18918
G1 X93.04 Y78.939 E0.21583
G1 X94.132 Y78.378 E0.24033
G1 X94.954 Y77.988 E0.25849
G1 X96.04 Y77.509 E0.28218
G1 X96.629 Y77.266 E0.29489
G1 X97.727 Y76.849 E0.31833
G1 X98.997 Y76.415 E0.34511
G1 X100.119 Y76.073 E0.36852
G1 X101.038 Y75.825 E0.38752
G1 X102.165 Y75.554 E0.41065
G1 X103.172 Y75.343 E0.43118
G1 X104.027 Y75.189 E0.44852
G1 X104.928 Y75.048 E0.46672
G1 X106.121 Y74.9 E0.49071
G1 X107.07 Y74.809 E0.50973
G1 X108.6 Y74.716 E0.54032
G1 X109.207 Y74.697 E0.55244
G1 X110.436 Y74.692 E0.57697
G1 X111.705 Y74.729 E0.6023
G1 X112.914 Y74.805 E0.62648
G1 X113.86 Y74.895 E0.64544
G1 X115.076 Y75.046 E0.66989
G1 X115.976 Y75.186 E0.68807
G1 X116.797 Y75.334 E0.70472
G1 X117.766 Y75.535 E0.72447
G1 X118.962 Y75.822 E0.74901
G1 X120.226 Y76.171 E0.77518
G1 X121.313 Y76.512 E0.79791
G1 X122.202 Y76.82 E0.81669
G1 X123.39 Y77.27 E0.84204
G1 X124.196 Y77.607 E0.85947
G1 X125.029 Y77.977 E0.87766
G1 X125.875 Y78.377 E0.89634
G1 X126.965 Y78.935 E0.92078
G1 X127.776 Y79.381 E0.93925
G1 X129.111 Y80.178 E0.97027
G1 X129.624 Y80.505 E0.98241
G1 X130.905 Y81.378 E1.01335
G1 X131.628 Y81.909 E1.03125
G1 X132.625 Y82.685 E1.05646
G1 X133.357 Y83.294 E1.07547
G1 X133.995 Y83.852 E1.09238
G1 X134.716 Y84.514 E1.11191
G1 X135.537 Y85.314 E1.13479
G1 X136.426 Y86.243 E1.16045
G1 X137.037 Y86.92 E1.17865
G1 X137.67 Y87.659 E1.19807
G1 X138.586 Y88.807 E1.22738
G1 X139.149 Y89.566 E1.24624
G1 X139.86 Y90.581 E1.27097
G1 X140.384 Y91.383 E1.29008
G1 X141.004 Y92.394 E1.31375
G1 X141.315 Y92.931 E1.32613
G1 X141.857 Y93.925 E1.34873
G1 X142.283 Y94.76 E1.36744
G1 X142.443 Y95.09 E1.37475
G1 X142.979 Y96.257 E1.40038
G1 X143.211 Y96.799 E1.41215
G1 X143.653 Y97.913 E1.43606
G1 X143.987 Y98.829 E1.45552
G1 X144.349 Y99.926 E1.47857
G1 X144.625 Y100.847 E1.49776
G1 X144.945 Y102.053 E1.52266
G1 X145.226 Y103.281 E1.5478
G1 X145.437 Y104.374 E1.57002
G1 X145.609 Y105.427 E1.59131
G1 X145.722 Y106.262 E1.60812
G1 X145.823 Y107.167 E1.62629
G1 X145.94 Y108.706 E1.6571
G1 X145.979 Y109.67 E1.67635
G1 X145.993 Y110.557 E1.69405
G1 X145.984 Y111.516 E1.71319
G1 X145.918 Y113.013 E1.74309
G1 X145.842 Y113.98 E1.76245
G1 X145.755 Y114.815 E1.77921
G1 X145.577 Y116.131 E1.80571
G1 X145.378 Y117.306 E1.82949
G1 X145.188 Y118.248 E1.84867
G1 X145.008 Y119.042 E1.86491
G1 X144.677 Y120.32 E1.89126
G1 X144.324 Y121.512 E1.91607
G1 X144.036 Y122.384 E1.93439
G1 X143.74 Y123.211 E1.95192
G1 X143.271 Y124.407 E1.97756
G1 X142.8 Y125.497 E2.00126
G1 X142.399 Y126.353 E2.02012
G1 X141.991 Y127.171 E2.03836
G1 X141.571 Y127.963 E2.05625
G1 X140.959 Y129.034 E2.08087
G1 X140.462 Y129.848 E2.0999
G1 X139.793 Y130.87 E2.12428
G1 X139.286 Y131.601 E2.14203
G1 X138.539 Y132.607 E2.16704
G1 X137.744 Y133.604 E2.19248
G1 X136.957 Y134.526 E2.21667
G1 X136.357 Y135.186 E2.23447
G1 X135.715 Y135.858 E2.25302
G1 X135.039 Y136.53 E2.27204
G1 X134.173 Y137.341 E2.29572
G1 X133.434 Y137.993 E2.31539
G1 X132.567 Y138.714 E2.33789
G1 X131.808 Y139.309 E2.35714
G1 X130.546 Y140.227 E2.38828
G1 X130.031 Y140.578 E2.40072
G1 X129.011 Y141.236 E2.42494
G1 X128.212 Y141.719 E2.44357
G1 X126.863 Y142.472 E2.4744
G1 X126.035 Y142.897 E2.49297
G1 X124.937 Y143.421 E2.51725
G1 X124.078 Y143.799 E2.53598
G1 X123.272 Y144.131 E2.55338
G1 X122.396 Y144.465 E2.57209
G1 X120.899 Y144.975 E2.60365
G1 X119.981 Y145.253 E2.62279
G1 X118.9 Y145.549 E2.64515
G1 X118.001 Y145.764 E2.6636
G1 X116.732 Y146.03 E2.68948
G1 X116.127 Y146.14 E2.70175
G1 X114.937 Y146.324 E2.72578
G1 X113.68 Y146.476 E2.75104
G1 X112.452 Y146.581 E2.77564
G1 X111.519 Y146.632 E2.79429
G1 X110.683 Y146.658 E2.81098
G1 X109.723 Y146.664 E2.83014
G1 X108.475 Y146.632 E2.85505
G1 X107.562 Y146.582 E2.8733
G1 X106.051 Y146.446 E2.90357
G1 X105.044 Y146.32 E2.92383
G1 X103.861 Y146.136 E2.94772
G1 X102.946 Y145.966 E2.96629
G1 X102.165 Y145.8 E2.98222
G1 X101.215 Y145.574 E3.00171
G1 X100.044 Y145.258 E3.02592
G1 X99.12 Y144.979 E3.04518
G1 X97.958 Y144.587 E3.06965
G1 X96.812 Y144.157 E3.09408
G1 X95.653 Y143.678 E3.1191
G1 X95.083 Y143.424 E3.13156
G1 X93.982 Y142.899 E3.1559
G1 X93.214 Y142.507 E3.17311
G1 X92.092 Y141.888 E3.19868
G1 X91.006 Y141.239 E3.22392
G1 X90.306 Y140.793 E3.24049
G1 X89.24 Y140.068 E3.26622
G1 X88.253 Y139.346 E3.29062
G1 X87.489 Y138.75 E3.30996
G1 X86.829 Y138.207 E3.32701
G1 X86.092 Y137.569 E3.34647
G1 X85.241 Y136.788 E3.36952
G1 X84.523 Y136.089 E3.38951
G1 X83.696 Y135.232 E3.41328
G1 X82.859 Y134.303 E3.43823
G1 X82.082 Y133.379 E3.46233
G1 X81.467 Y132.601 E3.48212
G1 X80.958 Y131.922 E3.49905
G1 X80.405 Y131.144 E3.5181
G1 X79.554 Y129.856 E3.54891
G1 X79.065 Y129.055 E3.56764
G1 X78.636 Y128.313 E3.58474
G1 X78.17 Y127.458 E3.60417
G1 X78.01 Y127.15 E3.6111
G1 X77.479 Y126.077 E3.63499
G1 X77.091 Y125.228 E3.65362
G1 X76.74 Y124.408 E3.67142
G1 X76.399 Y123.551 E3.68982
G1 X75.878 Y122.1 E3.72059
G1 X75.684 Y121.503 E3.73312
G1 X75.351 Y120.38 E3.75649
G1 X75.026 Y119.134 E3.78219
G1 X74.826 Y118.26 E3.80008
G1 X74.638 Y117.332 E3.81898
G1 X74.434 Y116.134 E3.84323
G1 X74.267 Y114.902 E3.86804
G1 X74.142 Y113.67 E3.89275
G1 X74.079 Y112.768 E3.9108
G1 X74.027 Y111.5 E3.93612
G1 X74.018 Y110.573 E3.95462
G1 X74.029 Y109.777 E3.97051
G1 X74.067 Y108.78 E3.99042
G1 X74.157 Y107.505 E4.01593
G1 X74.243 Y106.644 E4.03319
G1 X74.401 Y105.435 E4.05753
G1 X74.452 Y105.097 E4.06435
G1 X74.613 Y104.158 E4.08336
G1 X74.843 Y103.011 E4.10671
G1 X75.067 Y102.048 E4.12644
G1 X75.374 Y100.886 E4.15042
G1 X75.65 Y99.961 E4.16968
G1 X76.011 Y98.864 E4.19273
G1 X76.229 Y98.256 E4.20562
G1 X76.662 Y97.139 E4.22953
G1 X77.045 Y96.228 E4.24925
G1 X77.65 Y94.92 E4.27801
G1 X78.091 Y94.047 E4.29753
G1 X78.533 Y93.224 E4.31617
G1 X79.161 Y92.136 E4.34124
G1 X79.822 Y91.078 E4.36613
G1 X80.295 Y90.37 E4.38313
G1 X81.022 Y89.344 E4.40822
G1 X81.585 Y88.601 E4.42682
G1 X82.358 Y87.639 E4.45145
G1 X82.959 Y86.936 E4.46991
G1 X83.791 Y86.019 E4.49462
G1 X84.405 Y85.384 E4.51224
M204 S2000
G0 F7500 X84.471 Y85.886
M204 S500
G1 F1500 X85.348 Y85.017 E4.53688
G1 X86.022 Y84.385 E4.55532
G1 X87.138 Y83.409 E4.58491
G1 X87.902 Y82.785 E4.60459
G1 X88.553 Y82.281 E4.62102
G1 X89.591 Y81.526 E4.64664
G1 X90.583 Y80.854 E4.67055
G1 X91.364 Y80.36 E4.68899
G1 X92.079 Y79.933 E4.70561
G1 X92.933 Y79.451 E4.72518
G1 X94.018 Y78.882 E4.74963
G1 X94.831 Y78.486 E4.76768
G1 X96.192 Y77.879 E4.79741
G1 X97.106 Y77.508 E4.8171
G1 X97.867 Y77.223 E4.83332
G1 X98.817 Y76.894 E4.85338
G1 X99.914 Y76.55 E4.87632
G1 X100.824 Y76.294 E4.89519
G1 X102.249 Y75.945 E4.92447
G1 X103.243 Y75.737 E4.94473
G1 X104.098 Y75.583 E4.96207
G1 X105.312 Y75.4 E4.98657
G1 X106.477 Y75.264 E5.00998
G1 X107.426 Y75.183 E5.02898
G1 X108.307 Y75.13 E5.0466
G1 X109.219 Y75.097 E5.06481
G1 X110.743 Y75.096 E5.09522
G1 X111.682 Y75.128 E5.11397
G1 X112.563 Y75.18 E5.13158
G1 X113.812 Y75.292 E5.15661
G1 X115.017 Y75.442 E5.18084
G1 X115.906 Y75.58 E5.19879
G1 X117.047 Y75.791 E5.22195
G1 X118 Y75.998 E5.24141
G1 X118.867 Y76.21 E5.25922
G1 X119.798 Y76.462 E5.27847
G1 X120.885 Y76.793 E5.30115
G1 X121.787 Y77.096 E5.32013
G1 X122.891 Y77.504 E5.34362
G1 X123.238 Y77.64 E5.35106
G1 X124.034 Y77.973 E5.36828
G1 X124.867 Y78.343 E5.38647
G1 X125.702 Y78.738 E5.4049
G1 X126.001 Y78.887 E5.41157
G1 X127.064 Y79.443 E5.43551
G1 X127.859 Y79.891 E5.45372
G1 X128.896 Y80.515 E5.47787
G1 X129.677 Y81.019 E5.49642
G1 X130.401 Y81.512 E5.5139
G1 X131.143 Y82.045 E5.53213
G1 X132.111 Y82.787 E5.55647
G1 X132.851 Y83.389 E5.57551
G1 X133.956 Y84.355 E5.6048
G1 X134.444 Y84.807 E5.61807
G1 X135.488 Y85.834 E5.6473
G1 X136.129 Y86.511 E5.6659
G1 X136.962 Y87.442 E5.69083
G1 X137.554 Y88.148 E5.70922
G1 X138.266 Y89.047 E5.73211
G1 X138.822 Y89.796 E5.75072
G1 X139.349 Y90.543 E5.76897
G1 X139.865 Y91.314 E5.78748
G1 X140.502 Y92.334 E5.81148
G1 X140.969 Y93.132 E5.82993
G1 X141.643 Y94.379 E5.85822
G1 X142.08 Y95.258 E5.87781
G1 X142.484 Y96.13 E5.89698
G1 X142.843 Y96.957 E5.91498
G1 X143.396 Y98.365 E5.94516
G1 X143.707 Y99.247 E5.96383
G1 X144.061 Y100.345 E5.98685
G1 X144.332 Y101.287 E6.00641
G1 X144.627 Y102.435 E6.03006
G1 X144.834 Y103.358 E6.04894
G1 X145.043 Y104.44 E6.07093
G1 X145.212 Y105.48 E6.09196
G1 X145.361 Y106.611 E6.11473
G1 X145.454 Y107.53 E6.13316
G1 X145.54 Y108.724 E6.15705
G1 X145.579 Y109.677 E6.17608
G1 X145.593 Y110.564 E6.19379
G1 X145.584 Y111.51 E6.21266
G1 X145.519 Y112.984 E6.24211
G1 X145.444 Y113.938 E6.26121
G1 X145.319 Y115.092 E6.28437
G1 X145.183 Y116.066 E6.304
G1 X145.043 Y116.912 E6.32111
G1 X144.798 Y118.16 E6.34649
G1 X144.618 Y118.954 E6.36274
G1 X144.293 Y120.208 E6.38859
G1 X143.944 Y121.388 E6.41314
G1 X143.659 Y122.249 E6.43124
G1 X143.253 Y123.37 E6.45504
G1 X142.903 Y124.25 E6.47393
G1 X142.437 Y125.329 E6.49739
G1 X142.041 Y126.174 E6.51601
G1 X141.633 Y126.992 E6.53425
G1 X141.218 Y127.774 E6.55192
G1 X140.447 Y129.112 E6.58274
G1 X140.122 Y129.638 E6.59508
G1 X139.459 Y130.649 E6.6192
G1 X138.76 Y131.645 E6.64349
G1 X138.02 Y132.624 E6.66798
G1 X137.439 Y133.346 E6.68647
G1 X136.871 Y134.017 E6.70402
G1 X136.283 Y134.677 E6.72166
G1 X135.196 Y135.815 E6.75306
G1 X134.759 Y136.245 E6.7653
G1 X133.643 Y137.28 E6.79567
G1 X132.964 Y137.867 E6.81358
G1 X132.052 Y138.614 E6.83711
G1 X131.302 Y139.189 E6.85597
G1 X130.584 Y139.711 E6.87368
G1 X129.806 Y140.247 E6.89254
G1 X128.795 Y140.899 E6.91654
G1 X127.753 Y141.522 E6.94077
G1 X126.966 Y141.962 E6.95876
G1 X126.138 Y142.398 E6.97744
G1 X125.072 Y142.917 E7.0011
G1 X124.199 Y143.312 E7.02022
G1 X123.119 Y143.761 E7.04356
G1 X122.796 Y143.888 E7.05049
G1 X121.966 Y144.194 E7.06814
G1 X121.084 Y144.495 E7.08674
G1 X120.161 Y144.784 E7.10604
G1 X118.804 Y145.16 E7.13414
G1 X117.918 Y145.373 E7.15233
G1 X116.976 Y145.574 E7.17155
G1 X116.055 Y145.746 E7.19025
G1 X114.571 Y145.97 E7.2202
G1 X113.644 Y146.077 E7.23882
G1 X112.428 Y146.182 E7.26317
G1 X111.507 Y146.232 E7.28158
G1 X110.671 Y146.258 E7.29827
G1 X109.723 Y146.264 E7.31719
G1 X108.17 Y146.218 E7.3482
G1 X107.267 Y146.159 E7.36626
G1 X106.403 Y146.081 E7.38357
G1 X105.104 Y145.925 E7.40968
G1 X103.932 Y145.743 E7.43335
G1 X103.029 Y145.574 E7.45168
G1 X101.963 Y145.344 E7.47344
G1 X100.986 Y145.102 E7.49353
G1 X99.846 Y144.784 E7.51715
G1 X98.927 Y144.496 E7.53637
G1 X97.784 Y144.1 E7.56051
G1 X96.963 Y143.787 E7.57804
G1 X95.815 Y143.312 E7.60283
G1 X94.966 Y142.929 E7.62142
G1 X94.155 Y142.539 E7.63938
G1 X93.398 Y142.152 E7.65634
G1 X92.287 Y141.539 E7.68167
G1 X91.221 Y140.902 E7.70645
G1 X90.521 Y140.456 E7.72301
G1 X89.739 Y139.93 E7.74182
G1 X88.498 Y139.03 E7.77241
G1 X87.743 Y138.441 E7.79152
G1 X87.083 Y137.898 E7.80858
G1 X86.355 Y137.267 E7.8278
G1 X85.28 Y136.272 E7.85704
G1 X84.573 Y135.57 E7.87692
G1 X83.985 Y134.955 E7.8939
G1 X83.38 Y134.291 E7.91182
G1 X82.595 Y133.374 E7.93591
G1 X81.984 Y132.615 E7.95536
G1 X81.094 Y131.428 E7.98496
G1 X80.552 Y130.651 E8.00387
G1 X79.895 Y129.646 E8.02783
G1 X79.411 Y128.855 E8.04634
G1 X78.982 Y128.113 E8.06344
G1 X78.368 Y126.972 E8.0893
G1 X77.842 Y125.909 E8.11297
G1 X77.459 Y125.07 E8.13137
G1 X76.984 Y123.946 E8.15572
G1 X76.665 Y123.121 E8.17338
G1 X76.259 Y121.976 E8.19762
G1 X75.973 Y121.081 E8.21637
G1 X75.651 Y119.964 E8.23957
G1 X75.416 Y119.045 E8.2585
G1 X75.216 Y118.171 E8.27639
G1 X75.03 Y117.255 E8.29504
G1 X74.829 Y116.069 E8.31905
G1 X74.703 Y115.175 E8.33707
G1 X74.57 Y113.962 E8.36142
G1 X74.498 Y113.067 E8.37934
G1 X74.427 Y111.494 E8.41076
G1 X74.418 Y110.579 E8.42902
G1 X74.429 Y109.783 E8.44491
G1 X74.487 Y108.446 E8.47161
G1 X74.556 Y107.535 E8.48984
G1 X74.641 Y106.685 E8.50689
G1 X74.847 Y105.163 E8.53754
G1 X75.006 Y104.236 E8.55631
G1 X75.174 Y103.383 E8.57366
G1 X75.372 Y102.487 E8.59197
G1 X75.454 Y102.149 E8.59891
G1 X75.758 Y100.998 E8.62267
G1 X76.03 Y100.085 E8.64168
G1 X76.388 Y98.999 E8.6645
G1 X76.713 Y98.105 E8.68348
G1 X77.034 Y97.285 E8.70106
G1 X77.413 Y96.385 E8.72055
G1 X78.008 Y95.099 E8.74882
G1 X78.294 Y94.525 E8.76162
G1 X79.043 Y93.131 E8.7932
G1 X79.501 Y92.347 E8.81132
G1 X80.156 Y91.298 E8.836
G1 X80.623 Y90.599 E8.85278
G1 X81.148 Y89.851 E8.87101
G1 X81.898 Y88.85 E8.89597
G1 X82.663 Y87.898 E8.92035
G1 X83.257 Y87.203 E8.93859
G1 X84.079 Y86.295 E8.96303
G1 X84.471 Y85.886 E8.97434
M204 S2000
G0 F7500 X84.76 Y86.163
M204 S500
G1 F1500 X85.629 Y85.302 E8.99875
G1 X86.294 Y84.678 E9.01695
G1 X87.393 Y83.717 E9.04608
G1 X88.147 Y83.102 E9.0655
G1 X89.041 Y82.415 E9.088
G1 X89.817 Y81.856 E9.10709
G1 X90.551 Y81.355 E9.12482
G1 X91.297 Y80.872 E9.14256
G1 X92.536 Y80.131 E9.17137
G1 X93.408 Y79.649 E9.19125
G1 X94.202 Y79.237 E9.2091
G1 X95.005 Y78.846 E9.22692
G1 X96.088 Y78.359 E9.25062
G1 X96.934 Y78.006 E9.26892
G1 X97.247 Y77.883 E9.27563
G1 X98.285 Y77.499 E9.29771
G1 X99.233 Y77.179 E9.31768
G1 X100.332 Y76.844 E9.34061
G1 X101.227 Y76.602 E9.35911
G1 X102.072 Y76.396 E9.37647
G1 X102.968 Y76.199 E9.39477
G1 X104.447 Y75.93 E9.42477
G1 X105.047 Y75.839 E9.43688
G1 X106.217 Y75.694 E9.46041
G1 X107.45 Y75.582 E9.48512
G1 X108.331 Y75.529 E9.50273
G1 X109.551 Y75.492 E9.52709
G1 X110.732 Y75.496 E9.55066
G1 X111.353 Y75.514 E9.56306
G1 X112.843 Y75.602 E9.59284
G1 X113.765 Y75.689 E9.61132
G1 X114.661 Y75.797 E9.62933
G1 X115.542 Y75.925 E9.6471
G1 X116.656 Y76.122 E9.66968
G1 X117.6 Y76.317 E9.68891
G1 X118.772 Y76.599 E9.71297
G1 X119.691 Y76.848 E9.73197
G1 X120.767 Y77.175 E9.75441
G1 X121.923 Y77.569 E9.77878
G1 X123.085 Y78.009 E9.80358
G1 X123.872 Y78.338 E9.8206
G1 X124.705 Y78.708 E9.83879
G1 X125.817 Y79.242 E9.86341
G1 X126.87 Y79.792 E9.88712
G1 X127.387 Y80.08 E9.89893
G1 X128.681 Y80.853 E9.92901
G1 X129.452 Y81.35 E9.94731
G1 X130.176 Y81.843 E9.96479
G1 X130.907 Y82.369 E9.98276
G1 X132.116 Y83.303 E10.01325
G1 X132.83 Y83.896 E10.03177
G1 X133.468 Y84.454 E10.04869
G1 X134.172 Y85.101 E10.06777
G1 X135.199 Y86.111 E10.09651
G1 X135.832 Y86.779 E10.11488
G1 X136.443 Y87.456 E10.13308
G1 X137.059 Y88.176 E10.15199
G1 X137.946 Y89.287 E10.18036
G1 X138.496 Y90.027 E10.19876
G1 X139.023 Y90.774 E10.217
G1 X139.532 Y91.535 E10.23527
G1 X140.312 Y92.795 E10.26485
G1 X140.623 Y93.332 E10.27723
G1 X141.153 Y94.305 E10.29934
G1 X141.569 Y95.12 E10.3176
G1 X142.121 Y96.298 E10.34356
G1 X142.475 Y97.114 E10.36131
G1 X143.02 Y98.5 E10.39103
G1 X143.234 Y99.098 E10.40371
G1 X143.589 Y100.174 E10.42632
G1 X143.858 Y101.073 E10.44505
G1 X144.237 Y102.525 E10.47499
G1 X144.441 Y103.435 E10.4936
G1 X144.648 Y104.506 E10.51537
G1 X144.816 Y105.534 E10.53616
G1 X144.929 Y106.369 E10.55297
G1 X145.056 Y107.561 E10.5769
G1 X145.141 Y108.742 E10.60053
G1 X145.179 Y109.683 E10.61932
G1 X145.193 Y110.57 E10.63702
G1 X145.184 Y111.504 E10.65566
G1 X145.137 Y112.665 E10.67885
G1 X145.074 Y113.584 E10.69723
G1 X144.923 Y115.038 E10.72641
G1 X144.834 Y115.698 E10.7397
G1 X144.593 Y117.151 E10.76909
G1 X144.408 Y118.071 E10.78781
G1 X144.228 Y118.865 E10.80406
G1 X143.992 Y119.795 E10.82321
G1 X143.655 Y120.967 E10.84755
G1 X143.379 Y121.83 E10.86563
