;FLAVOR:Marlin
;TIME:5168
;Filament used: 2.02249m
;Layer height: 0.12
;MINX:74.013
;MINY:78.505
;MINZ:0.12
;MAXX:145.987
;MAXY:150.479
;MAXZ:15
;Generated with Cura_SteamEngine 5.2.2
M82 ;absolute extrusion mode
; Ender 3 S1 Start G-code
G92 E0 ; Reset Extruder
G28 ; Home all axes
G1 Z10.0 F3000 ; Move Z Axis up little to prevent scratching of Heat Bed
G1 X0 Y0

M104 S228
M190 S0
M109 S228

G1 X0.1 Y20 Z0.3 F5000.0 ; Move to start position
G1 X0.1 Y200.0 Z0.3 F1500.0 E15 ; Draw the first line
G1 X0.4 Y200.0 Z0.3 F5000.0 ; Move to side a little
G1 X0.4 Y20 Z0.3 F1500.0 E30 ; Draw the second line
G92 E0 ; Reset Extruder
G1 Z2.0 F3000 ; Move Z Axis up little to prevent scratching of Heat Bed
G1 X5 Y20 Z0.3 F5000.0 ; Move over to prevent blob squish

G92 E0
G92 E0
G1 F2400 E-0.8
;LAYER_COUNT:125
;LAYER:0
M107
M204 S2000
G0 F7500 X85.263 Y88.354 Z0.12
M204 S500
;TYPE:SKIRT
G1 F2400 E0
G1 F1500 X85.936 Y87.733 E0.01827
G1 X86.875 Y86.92 E0.04306
G1 X87.621 Y86.31 E0.06229
G1 X88.574 Y85.578 E0.08627
G1 X89.305 Y85.05 E0.10427
G1 X90.387 Y84.321 E0.1303
G1 X91.184 Y83.816 E0.14913
G1 X91.485 Y83.634 E0.15615
G1 X92.5 Y83.046 E0.17956
G1 X92.992 Y82.777 E0.19075
G1 X94.161 Y82.18 E0.21695
G1 X95.048 Y81.758 E0.23655
G1 X96.425 Y81.163 E0.26648
G1 X97.311 Y80.816 E0.28547
G1 X98.432 Y80.414 E0.30924
G1 X99.331 Y80.123 E0.32809
G1 X100.555 Y79.766 E0.35354
G1 X101.427 Y79.542 E0.37151
G1 X102.689 Y79.255 E0.39733
G1 X103.291 Y79.135 E0.40958
G1 X104.481 Y78.931 E0.43368
G1 X105.377 Y78.803 E0.45174
G1 X106.653 Y78.661 E0.47736
G1 X107.599 Y78.584 E0.4963
G1 X107.948 Y78.563 E0.50328
G1 X109.139 Y78.514 E0.52707
G1 X110.041 Y78.505 E0.54507
G1 X110.99 Y78.519 E0.56401
G1 X111.966 Y78.558 E0.5835
G1 X113.132 Y78.641 E0.60683
G1 X114.035 Y78.731 E0.62494
G1 X115.336 Y78.903 E0.65113
G1 X116.279 Y79.056 E0.67019
G1 X117.51 Y79.297 E0.69522
G1 X118.327 Y79.481 E0.71194
G1 X119.561 Y79.799 E0.73737
G1 X120.461 Y80.059 E0.75606
G1 X121.643 Y80.44 E0.78084
G1 X122.818 Y80.865 E0.80578
G1 X123.973 Y81.329 E0.83062
G1 X124.84 Y81.708 E0.8495
G1 X125.939 Y82.227 E0.87376
G1 X126.779 Y82.657 E0.89259
G1 X127.924 Y83.286 E0.91866
G1 X128.685 Y83.737 E0.93631
G1 X129.67 Y84.356 E0.95953
G1 X130.465 Y84.891 E0.97865
G1 X131.547 Y85.668 E1.00523
G1 X132.249 Y86.208 E1.02291
G1 X132.951 Y86.775 E1.04092
G1 X133.656 Y87.372 E1.05935
G1 X134.573 Y88.2 E1.08401
G1 X135.242 Y88.841 E1.1025
G1 X136.136 Y89.753 E1.12798
G1 X136.77 Y90.439 E1.14663
G1 X137.578 Y91.372 E1.17126
G1 X138.148 Y92.069 E1.18922
G1 X138.932 Y93.092 E1.21494
G1 X139.439 Y93.792 E1.23219
G1 X140.157 Y94.854 E1.25778
G1 X140.347 Y95.148 E1.26476
G1 X140.842 Y95.95 E1.28357
G1 X141.303 Y96.741 E1.30184
G1 X141.731 Y97.515 E1.31949
G1 X141.898 Y97.833 E1.32666
G1 X142.44 Y98.914 E1.35079
G1 X142.873 Y99.849 E1.37135
G1 X143.321 Y100.898 E1.39412
G1 X143.663 Y101.77 E1.41281
G1 X144.091 Y102.961 E1.43806
G1 X144.28 Y103.537 E1.45016
G1 X144.631 Y104.71 E1.4746
G1 X144.949 Y105.915 E1.49947
G1 X145.237 Y107.181 E1.52538
G1 X145.417 Y108.115 E1.54436
G1 X145.608 Y109.278 E1.56788
G1 X145.729 Y110.191 E1.58626
G1 X145.831 Y111.147 E1.60544
G1 X145.908 Y112.088 E1.62428
G1 X145.929 Y112.44 E1.63132
G1 X145.978 Y113.63 E1.65509
G1 X145.987 Y114.531 E1.67307
G1 X145.973 Y115.482 E1.69205
G1 X145.934 Y116.461 E1.7116
G1 X145.85 Y117.637 E1.73513
G1 X145.761 Y118.528 E1.753
G1 X145.589 Y119.829 E1.77919
G1 X145.438 Y120.756 E1.79793
G1 X145.202 Y121.969 E1.82259
G1 X145.018 Y122.794 E1.83946
G1 X144.934 Y123.137 E1.84651
G1 X144.606 Y124.368 E1.87193
G1 X144.327 Y125.297 E1.89129
G1 X144.05 Y126.141 E1.90902
G1 X143.743 Y127.002 E1.92726
G1 X143.293 Y128.153 E1.95192
G1 X142.92 Y129.03 E1.97094
G1 X142.418 Y130.117 E1.99483
G1 X142.263 Y130.436 E2.00191
G1 X141.829 Y131.284 E2.02092
G1 X141.247 Y132.346 E2.04509
G1 X140.766 Y133.16 E2.06396
G1 X140.107 Y134.209 E2.08868
G1 X139.771 Y134.713 E2.10077
G1 X139.029 Y135.762 E2.12641
G1 X138.294 Y136.73 E2.15066
G1 X137.515 Y137.688 E2.1753
G1 X136.878 Y138.423 E2.19471
G1 X136.06 Y139.312 E2.21882
G1 X135.412 Y139.974 E2.23731
G1 X134.491 Y140.862 E2.26284
G1 X133.799 Y141.487 E2.28145
G1 X133.12 Y142.07 E2.29931
G1 X132.41 Y142.652 E2.31763
G1 X131.17 Y143.595 E2.34872
G1 X130.407 Y144.134 E2.36736
G1 X129.61 Y144.666 E2.38648
G1 X128.816 Y145.169 E2.40524
G1 X128.515 Y145.351 E2.41226
G1 X127.507 Y145.935 E2.43551
G1 X126.7 Y146.37 E2.4538
G1 X125.536 Y146.954 E2.47979
G1 X124.643 Y147.366 E2.49942
G1 X123.584 Y147.818 E2.52239
G1 X122.716 Y148.158 E2.541
G1 X121.509 Y148.59 E2.56658
G1 X120.622 Y148.876 E2.58518
G1 X119.756 Y149.132 E2.6032
G1 X118.898 Y149.363 E2.62093
G1 X117.633 Y149.661 E2.64687
G1 X116.719 Y149.848 E2.66549
G1 X115.584 Y150.044 E2.68847
G1 X114.622 Y150.182 E2.70787
G1 X113.37 Y150.322 E2.73301
G1 X112.411 Y150.4 E2.75221
G1 X111.168 Y150.46 E2.77704
G1 X110.278 Y150.479 E2.79481
G1 X108.995 Y150.466 E2.82041
G1 X108.089 Y150.429 E2.83851
G1 X106.836 Y150.34 E2.86357
G1 X105.937 Y150.25 E2.8816
G1 X104.713 Y150.089 E2.90624
G1 X104.357 Y150.035 E2.91343
G1 X103.439 Y149.875 E2.93202
G1 X102.22 Y149.63 E2.95684
G1 X101.344 Y149.424 E2.97479
G1 X100.113 Y149.095 E3.00022
G1 X99.189 Y148.817 E3.01948
G1 X98.382 Y148.553 E3.03642
G1 X97.501 Y148.24 E3.05508
G1 X96.331 Y147.782 E3.08015
G1 X96.014 Y147.651 E3.087
G1 X95.151 Y147.273 E3.1058
G1 X94.061 Y146.758 E3.12986
G1 X93.221 Y146.328 E3.14869
G1 X92.076 Y145.699 E3.17476
G1 X91.315 Y145.248 E3.19241
G1 X90.33 Y144.629 E3.21563
G1 X89.535 Y144.094 E3.23475
G1 X88.459 Y143.321 E3.26119
G1 X87.762 Y142.786 E3.27873
G1 X86.802 Y142.005 E3.30342
G1 X86.068 Y141.369 E3.32281
G1 X85.433 Y140.791 E3.33994
G1 X84.517 Y139.903 E3.3654
G1 X83.631 Y138.984 E3.39088
G1 X83.003 Y138.289 E3.40957
G1 X82.421 Y137.611 E3.4274
G1 X81.84 Y136.902 E3.44569
G1 X80.895 Y135.659 E3.47685
G1 X80.353 Y134.893 E3.49558
G1 X79.651 Y133.833 E3.52095
G1 X79.161 Y133.039 E3.53957
G1 X78.704 Y132.256 E3.55766
G1 X78.253 Y131.439 E3.57629
G1 X77.703 Y130.366 E3.60035
G1 X77.265 Y129.443 E3.62074
G1 X76.795 Y128.365 E3.6442
G1 X76.442 Y127.489 E3.66305
G1 X76.032 Y126.378 E3.68668
G1 X75.725 Y125.463 E3.70594
G1 X75.271 Y123.929 E3.73787
G1 X75.043 Y123.041 E3.75617
G1 X74.831 Y122.118 E3.77506
G1 X74.654 Y121.26 E3.79255
G1 X74.434 Y119.98 E3.81847
G1 X74.268 Y118.773 E3.84278
G1 X74.168 Y117.831 E3.86168
G1 X74.092 Y116.889 E3.88054
G1 X74.024 Y115.431 E3.90967
G1 X74.013 Y114.413 E3.92999
G1 X74.027 Y113.497 E3.94827
G1 X74.066 Y112.527 E3.96764
G1 X74.149 Y111.36 E3.99099
G1 X74.28 Y110.115 E4.01597
G1 X74.408 Y109.174 E4.03492
G1 X74.614 Y107.941 E4.05987
G1 X74.87 Y106.672 E4.08571
G1 X75.068 Y105.836 E4.10285
G1 X75.308 Y104.923 E4.12169
G1 X75.572 Y104.012 E4.14062
G1 X75.941 Y102.871 E4.16455
G1 X76.263 Y101.965 E4.18374
G1 X76.704 Y100.838 E4.20789
G1 X77.236 Y99.607 E4.23465
G1 X77.59 Y98.851 E4.25131
G1 X78.024 Y97.98 E4.27073
G1 X78.603 Y96.903 E4.29513
G1 X78.78 Y96.589 E4.30232
G1 X79.233 Y95.825 E4.32005
G1 X79.897 Y94.771 E4.34491
G1 X80.427 Y93.986 E4.36381
G1 X80.946 Y93.257 E4.38167
G1 X81.508 Y92.507 E4.40037
G1 X82.268 Y91.557 E4.42465
G1 X82.488 Y91.293 E4.43151
G1 X83.123 Y90.561 E4.45085
G1 X83.943 Y89.669 E4.47503
G1 X84.604 Y88.994 E4.49388
G1 X85.263 Y88.354 E4.51221
M204 S2000
G0 F7500 X85.542 Y88.641
M204 S500
G1 F1500 X86.206 Y88.028 E4.53024
G1 X87.136 Y87.223 E4.55479
G1 X87.873 Y86.62 E4.57379
G1 X88.816 Y85.896 E4.59752
G1 X89.538 Y85.375 E4.61529
G1 X90.61 Y84.653 E4.64108
G1 X91.396 Y84.155 E4.65965
G1 X92.435 Y83.542 E4.68372
G1 X93.184 Y83.128 E4.7008
G1 X94.341 Y82.536 E4.72674
G1 X95.218 Y82.12 E4.74611
G1 X96.275 Y81.658 E4.76913
G1 X97.448 Y81.192 E4.79432
G1 X98.251 Y80.9 E4.81137
G1 X99.143 Y80.601 E4.83014
G1 X100.335 Y80.243 E4.85498
G1 X100.657 Y80.153 E4.86165
G1 X101.517 Y79.932 E4.87937
G1 X102.767 Y79.648 E4.90495
G1 X103.692 Y79.468 E4.92376
G1 X104.547 Y79.325 E4.94106
G1 X105.431 Y79.199 E4.95888
G1 X106.696 Y79.059 E4.98428
G1 X107.629 Y78.983 E5.00296
G1 X108.843 Y78.923 E5.02721
G1 X109.71 Y78.905 E5.04452
G1 X110.984 Y78.919 E5.06994
G1 X111.948 Y78.958 E5.0892
G1 X113.102 Y79.04 E5.11228
G1 X113.993 Y79.129 E5.13015
G1 X115.282 Y79.3 E5.1561
G1 X116.213 Y79.451 E5.17492
G1 X116.55 Y79.513 E5.18176
G1 X117.721 Y79.752 E5.20561
G1 X118.547 Y79.947 E5.22255
G1 X119.459 Y80.186 E5.24136
G1 X120.66 Y80.539 E5.26635
G1 X121.518 Y80.82 E5.28436
G1 X122.374 Y81.125 E5.3025
G1 X123.513 Y81.571 E5.32691
G1 X124.398 Y81.948 E5.3461
G1 X125.759 Y82.584 E5.37608
G1 X126.588 Y83.008 E5.39467
G1 X127.722 Y83.631 E5.42049
G1 X128.474 Y84.076 E5.43792
G1 X129.188 Y84.521 E5.45471
G1 X129.956 Y85.026 E5.47306
G1 X131.03 Y85.784 E5.49929
G1 X131.757 Y86.33 E5.51743
G1 X132.699 Y87.086 E5.54154
G1 X133.396 Y87.676 E5.55976
G1 X134.303 Y88.495 E5.58415
G1 X135.195 Y89.359 E5.60893
G1 X136.073 Y90.269 E5.63416
G1 X136.691 Y90.954 E5.65258
G1 X137.464 Y91.86 E5.67634
G1 X137.838 Y92.321 E5.68819
G1 X138.613 Y93.334 E5.71364
G1 X139.305 Y94.302 E5.73739
G1 X140.008 Y95.36 E5.76274
G1 X140.496 Y96.152 E5.7813
G1 X141.097 Y97.19 E5.80524
G1 X141.542 Y98.014 E5.82393
G1 X141.946 Y98.813 E5.84179
G1 X142.364 Y99.692 E5.86122
G1 X142.838 Y100.777 E5.88485
G1 X143.287 Y101.907 E5.90911
G1 X143.711 Y103.085 E5.9341
G1 X143.994 Y103.964 E5.95252
G1 X144.33 Y105.116 E5.97647
G1 X144.56 Y106.005 E5.9948
G1 X144.844 Y107.258 E6.02044
G1 X145.023 Y108.181 E6.0392
G1 X145.166 Y109.033 E6.05644
G1 X145.291 Y109.903 E6.07398
G1 X145.433 Y111.189 E6.0998
G1 X145.509 Y112.119 E6.11842
G1 X145.569 Y113.336 E6.14274
G1 X145.587 Y114.2 E6.15998
G1 X145.564 Y115.79 E6.19172
G1 X145.535 Y116.444 E6.20478
G1 X145.451 Y117.606 E6.22803
G1 X145.363 Y118.486 E6.24568
G1 X145.144 Y120.094 E6.27806
G1 X144.986 Y121.008 E6.29657
G1 X144.81 Y121.891 E6.31454
G1 X144.547 Y123.036 E6.33799
G1 X144.223 Y124.254 E6.36314
G1 X144.041 Y124.87 E6.37596
G1 X143.565 Y126.319 E6.40639
G1 X143.255 Y127.162 E6.42432
G1 X142.798 Y128.301 E6.44881
G1 X142.427 Y129.15 E6.4673
G1 X141.906 Y130.255 E6.49168
G1 X141.477 Y131.094 E6.51048
G1 X140.901 Y132.144 E6.53438
G1 X140.427 Y132.948 E6.55301
G1 X139.774 Y133.987 E6.5775
G1 X139.25 Y134.764 E6.5962
G1 X138.511 Y135.791 E6.62145
G1 X137.983 Y136.479 E6.63876
G1 X137.419 Y137.178 E6.65668
G1 X136.786 Y137.922 E6.67617
G1 X135.773 Y139.034 E6.70619
G1 X135.133 Y139.687 E6.72444
G1 X134.459 Y140.342 E6.74319
G1 X133.782 Y140.967 E6.76158
G1 X132.859 Y141.766 E6.78594
G1 X131.884 Y142.556 E6.81099
G1 X130.937 Y143.27 E6.83465
G1 X130.185 Y143.801 E6.85303
G1 X129.135 Y144.497 E6.87817
G1 X128.314 Y145.006 E6.89744
G1 X127.565 Y145.443 E6.91475
G1 X126.822 Y145.854 E6.93169
G1 X125.66 Y146.449 E6.95774
G1 X124.783 Y146.865 E6.97711
G1 X123.715 Y147.331 E7.00037
G1 X122.883 Y147.666 E7.01827
G1 X121.694 Y148.103 E7.04355
G1 X120.809 Y148.399 E7.06217
G1 X119.345 Y148.832 E7.09264
G1 X118.471 Y149.057 E7.11065
G1 X117.233 Y149.338 E7.13598
G1 X116.641 Y149.456 E7.14803
G1 X115.517 Y149.649 E7.17079
G1 X114.567 Y149.786 E7.18994
G1 X114.227 Y149.828 E7.19678
G1 X113.002 Y149.954 E7.22135
G1 X112.051 Y150.021 E7.24038
G1 X111.15 Y150.061 E7.25838
G1 X109.932 Y150.08 E7.28269
G1 X109.001 Y150.066 E7.30127
G1 X108.107 Y150.03 E7.31912
G1 X106.866 Y149.941 E7.34395
G1 X105.979 Y149.853 E7.36174
G1 X104.767 Y149.693 E7.38614
G1 X104.424 Y149.641 E7.39306
G1 X103.517 Y149.483 E7.41143
G1 X102.309 Y149.24 E7.43602
G1 X101.446 Y149.037 E7.45371
G1 X100.227 Y148.712 E7.47889
G1 X99.313 Y148.437 E7.49794
G1 X98.506 Y148.173 E7.51488
G1 X97.637 Y147.864 E7.53329
G1 X96.173 Y147.284 E7.56471
G1 X95.32 Y146.911 E7.58329
G1 X94.54 Y146.547 E7.60047
G1 X93.693 Y146.124 E7.61936
G1 X92.575 Y145.522 E7.6447
G1 X91.526 Y144.909 E7.66895
G1 X90.812 Y144.464 E7.68574
G1 X90.044 Y143.959 E7.70408
G1 X88.97 Y143.201 E7.73031
G1 X88.013 Y142.475 E7.75428
G1 X87.062 Y141.701 E7.77875
G1 X86.338 Y141.073 E7.79788
G1 X85.458 Y140.265 E7.82172
G1 X84.804 Y139.624 E7.84
G1 X83.926 Y138.714 E7.86523
G1 X83.524 Y138.274 E7.87712
G1 X82.725 Y137.35 E7.9015
G1 X81.936 Y136.376 E7.92652
G1 X81.22 Y135.427 E7.95024
G1 X80.875 Y134.945 E7.96207
G1 X79.99 Y133.622 E7.99383
G1 X79.506 Y132.837 E8.01224
G1 X78.898 Y131.787 E8.03645
G1 X78.604 Y131.248 E8.0487
G1 X78.06 Y130.185 E8.07253
G1 X77.494 Y128.977 E8.09915
G1 X77.162 Y128.207 E8.11589
G1 X76.813 Y127.341 E8.13452
G1 X76.408 Y126.241 E8.15791
G1 X76.105 Y125.338 E8.17692
G1 X75.744 Y124.136 E8.20197
G1 X75.513 Y123.277 E8.21972
G1 X75.221 Y122.029 E8.2453
G1 X75.046 Y121.181 E8.26257
G1 X74.828 Y119.915 E8.28821
G1 X74.706 Y119.056 E8.30553
G1 X74.566 Y117.789 E8.33096
G1 X74.471 Y116.541 E8.35594
G1 X74.424 Y115.424 E8.37825
G1 X74.413 Y114.419 E8.39831
G1 X74.427 Y113.503 E8.41659
G1 X74.485 Y112.227 E8.44208
G1 X74.576 Y111.074 E8.46516
G1 X74.638 Y110.486 E8.47696
G1 X74.805 Y109.228 E8.50229
G1 X74.953 Y108.313 E8.52078
G1 X75.188 Y107.1 E8.54544
G1 X75.26 Y106.762 E8.55234
G1 X75.455 Y105.938 E8.56923
G1 X75.695 Y105.025 E8.58807
G1 X76.051 Y103.819 E8.61317
G1 X76.423 Y102.699 E8.63672
G1 X76.639 Y102.101 E8.64941
G1 X77.203 Y100.679 E8.67993
G1 X77.598 Y99.777 E8.69959
G1 X77.952 Y99.021 E8.71624
G1 X78.381 Y98.16 E8.73544
G1 X78.955 Y97.093 E8.75962
G1 X79.572 Y96.037 E8.78403
G1 X80.23 Y94.993 E8.80865
G1 X80.753 Y94.218 E8.82731
G1 X81.456 Y93.238 E8.85138
G1 X82.028 Y92.491 E8.87016
G1 X82.791 Y91.554 E8.89427
G1 X83.419 Y90.83 E8.9134
G1 X84.23 Y89.947 E8.93732
G1 X84.883 Y89.281 E8.95594
G1 X85.542 Y88.641 E8.97427
M204 S2000
G0 F7500 X86.047 Y88.714
M204 S500
G1 F1500 X86.475 Y88.323 E8.98584
G1 X87.396 Y87.527 E9.01013
G1 X88.125 Y86.931 E9.02892
G1 X89.058 Y86.215 E9.05239
G1 X89.77 Y85.701 E9.06991
G1 X90.832 Y84.986 E9.09546
G1 X91.888 Y84.325 E9.12033
G1 X92.884 Y83.748 E9.1433
G1 X93.661 Y83.329 E9.16091
G1 X94.804 Y82.756 E9.18643
G1 X95.664 Y82.358 E9.20534
G1 X96.72 Y81.907 E9.22825
G1 X97.584 Y81.568 E9.24678
G1 X98.682 Y81.174 E9.27006
G1 X99.558 Y80.89 E9.28843
G1 X100.758 Y80.539 E9.31338
G1 X101.607 Y80.321 E9.33088
G1 X102.541 Y80.105 E9.35001
G1 X103.447 Y79.92 E9.36846
G1 X104.905 Y79.675 E9.39796
G1 X105.486 Y79.595 E9.40967
G1 X106.738 Y79.457 E9.4348
G1 X107.984 Y79.362 E9.45974
G1 X109.152 Y79.314 E9.48307
G1 X110.029 Y79.305 E9.50057
G1 X111.289 Y79.328 E9.52572
G1 X111.93 Y79.357 E9.53853
G1 X113.072 Y79.439 E9.56138
G1 X113.951 Y79.527 E9.579
G1 X115.228 Y79.696 E9.60471
G1 X116.147 Y79.845 E9.62329
G1 X117.352 Y80.082 E9.6478
G1 X118.148 Y80.261 E9.66408
G1 X119.358 Y80.573 E9.68902
G1 X120.235 Y80.826 E9.70723
G1 X121.691 Y81.303 E9.73781
G1 X122.523 Y81.609 E9.7555
G1 X123.656 Y82.063 E9.77986
G1 X124.502 Y82.433 E9.79828
G1 X125.287 Y82.799 E9.81557
G1 X126.126 Y83.218 E9.83428
G1 X127.234 Y83.815 E9.8594
G1 X128.025 Y84.272 E9.87763
G1 X128.976 Y84.861 E9.89995
G1 X129.734 Y85.359 E9.91805
G1 X130.798 Y86.11 E9.94404
G1 X131.062 Y86.304 E9.95058
G1 X131.746 Y86.83 E9.9678
G1 X132.664 Y87.576 E9.9914
G1 X133.385 Y88.2 E10.01043
G1 X134.253 Y88.997 E10.03395
G1 X134.908 Y89.638 E10.05224
G1 X135.777 Y90.539 E10.07722
G1 X136.388 Y91.214 E10.09539
G1 X136.971 Y91.893 E10.11325
G1 X137.527 Y92.573 E10.13078
G1 X138.295 Y93.576 E10.15599
G1 X138.788 Y94.258 E10.17278
G1 X139.492 Y95.299 E10.19786
G1 X140.151 Y96.353 E10.22267
G1 X140.612 Y97.144 E10.24094
G1 X141.185 Y98.194 E10.26481
G1 X141.589 Y98.993 E10.28267
G1 X142.002 Y99.862 E10.30188
G1 X142.578 Y101.195 E10.33085
G1 X142.912 Y102.044 E10.34906
G1 X143.224 Y102.901 E10.36726
G1 X143.52 Y103.786 E10.38588
G1 X143.864 Y104.937 E10.40986
G1 X144.094 Y105.789 E10.42747
G1 X144.384 Y107.02 E10.45271
G1 X144.574 Y107.951 E10.47167
G1 X144.771 Y109.1 E10.49493
G1 X144.933 Y110.276 E10.51862
G1 X145.063 Y111.535 E10.54388
G1 X145.13 Y112.475 E10.56269
G1 X145.178 Y113.643 E10.58602
G1 X145.187 Y114.519 E10.6035
G1 X145.173 Y115.47 E10.62248
G1 X145.135 Y116.426 E10.64157
G1 X145.052 Y117.576 E10.66458
G1 X144.965 Y118.444 E10.68199
G1 X144.796 Y119.721 E10.7077
G1 X144.649 Y120.624 E10.72595
G1 X144.417 Y121.813 E10.75013
