;FLAVOR:Marlin
;TIME:2182
;Filament used: 0.80622m
;Layer height: 0.12
;MINX:83.915
;MINY:80.528
;MINZ:0.12
;MAXX:136.072
;MAXY:139.485
;MAXZ:6.48
;Generated with Cura_SteamEngine 5.4.0
M82 ;absolute extrusion mode
; Ender 3 S1 Start G-code
G92 E0 ; Reset Extruder
G28 ; Home all axes
M420 S1 ;Use bed leveling data
G1 Z10.0 F3000 ; Move Z Axis up little to prevent scratching of Heat Bed
G1 X0 Y0

M104 S200
M190 S60
M109 S200

G1 X0.1 Y20 Z0.3 F5000.0 ; Move to start position
G1 X0.1 Y200.0 Z0.3 F1500.0 E15 ; Draw the first line
G1 X0.4 Y200.0 Z0.3 F5000.0 ; Move to side a little
G1 X0.4 Y20 Z0.3 F1500.0 E30 ; Draw the second line
G92 E0 ; Reset Extruder
G1 Z2.0 F3000 ; Move Z Axis up little to prevent scratching of Heat Bed
G1 X5 Y20 Z0.3 F5000.0 ; Move over to prevent blob squish
G92 E0
G92 E0
G1 F2400 E-0.8
;LAYER_COUNT:54
;LAYER:0
M107
M204 S2000
G0 F7500 X96.215 Y84.809 Z0.12
M204 S500
;TYPE:SKIRT
G1 F2400 E0
G1 F1500 X96.625 Y84.37 E0.01199
G1 X97.189 Y83.8 E0.02799
G1 X97.906 Y83.138 E0.04746
G1 X98.676 Y82.545 E0.06686
G1 X99.497 Y82.02 E0.08631
G1 X100.361 Y81.571 E0.10574
G1 X101.262 Y81.2 E0.12518
G1 X102.192 Y80.909 E0.14463
G1 X103.143 Y80.703 E0.16405
G1 X104.039 Y80.587 E0.18208
G1 X104.799 Y80.547 E0.19727
G1 X105.918 Y80.528 E0.2196
G1 X114.304 Y80.528 E0.38695
G1 X115.188 Y80.541 E0.40459
G1 X116.16 Y80.6 E0.42403
G1 X117.123 Y80.746 E0.44346
G1 X118.07 Y80.977 E0.46292
G1 X118.926 Y81.265 E0.48094
G1 X119.882 Y81.683 E0.50176
G1 X120.704 Y82.135 E0.52048
G1 X121.552 Y82.705 E0.54087
G1 X122.476 Y83.473 E0.56485
G1 X123.072 Y84.031 E0.58114
G1 X123.944 Y84.955 E0.6065
G1 X124.279 Y85.357 E0.61694
G1 X124.995 Y86.328 E0.64102
G1 X125.406 Y86.958 E0.65603
G1 X126.278 Y88.338 E0.6886
G1 X127.69 Y90.436 E0.73907
G1 X129.162 Y92.498 E0.78963
G1 X130.672 Y94.492 E0.83954
G1 X132.888 Y97.221 E0.9097
G1 X133.484 Y97.929 E0.92817
G1 X134.077 Y98.702 E0.94761
G1 X134.58 Y99.493 E0.96632
G1 X135.044 Y100.391 E0.98649
G1 X135.412 Y101.292 E1.00591
G1 X135.699 Y102.223 E1.02535
G1 X135.903 Y103.174 E1.04476
G1 X136.022 Y104.132 E1.06403
G1 X136.053 Y104.796 E1.07729
G1 X136.072 Y105.932 E1.09996
G1 X136.071 Y114.43 E1.26955
G1 X136.059 Y115.184 E1.2846
G1 X136.001 Y116.158 E1.30407
G1 X135.854 Y117.12 E1.32349
G1 X135.624 Y118.067 E1.34294
G1 X135.336 Y118.923 E1.36096
G1 X134.918 Y119.878 E1.38177
G1 X134.449 Y120.73 E1.40118
G1 X133.947 Y121.481 E1.4192
G1 X133.535 Y122.01 E1.43258
G1 X132.825 Y122.866 E1.45478
G1 X132.202 Y123.595 E1.47391
G1 X130.654 Y125.515 E1.52313
G1 X129.112 Y127.543 E1.57397
G1 X127.657 Y129.572 E1.6238
G1 X126.235 Y131.678 E1.67451
G1 X125.39 Y133.011 E1.70601
G1 X124.902 Y133.76 E1.72385
G1 X124.12 Y134.809 E1.74996
G1 X123.843 Y135.135 E1.75849
G1 X123.238 Y135.793 E1.77633
G1 X122.753 Y136.276 E1.78999
G1 X122.033 Y136.932 E1.80943
G1 X121.316 Y137.481 E1.82745
G1 X120.432 Y138.039 E1.84831
G1 X119.565 Y138.483 E1.86775
G1 X118.729 Y138.823 E1.88576
G1 X117.73 Y139.129 E1.90661
G1 X116.777 Y139.329 E1.92604
G1 X115.88 Y139.438 E1.94408
G1 X115.337 Y139.469 E1.95493
G1 X114.681 Y139.484 E1.96802
G1 X105.702 Y139.485 E2.14721
G1 X104.821 Y139.472 E2.16479
G1 X103.849 Y139.413 E2.18423
G1 X102.886 Y139.267 E2.20366
G1 X101.939 Y139.036 E2.22312
G1 X101.051 Y138.736 E2.24182
G1 X100.159 Y138.346 E2.26125
G1 X99.275 Y137.858 E2.2814
G1 X98.465 Y137.313 E2.30088
G1 X97.741 Y136.727 E2.31947
G1 X97.445 Y136.465 E2.32736
G1 X96.904 Y135.949 E2.34228
G1 X96.55 Y135.585 E2.35241
G1 X95.708 Y134.61 E2.37812
G1 X95.435 Y134.252 E2.3871
G1 X94.93 Y133.527 E2.40474
G1 X93.738 Y131.662 E2.44891
G1 X92.312 Y129.548 E2.49979
G1 X90.848 Y127.504 E2.54997
G1 X89.304 Y125.474 E2.60086
G1 X87.71 Y123.499 E2.65151
G1 X86.504 Y122.07 E2.68883
G1 X85.912 Y121.298 E2.70824
G1 X85.389 Y120.476 E2.72769
G1 X84.942 Y119.611 E2.74712
G1 X84.573 Y118.71 E2.76655
G1 X84.285 Y117.778 E2.78601
G1 X84.081 Y116.827 E2.80542
G1 X83.967 Y115.931 E2.82345
G1 X83.933 Y115.353 E2.835
G1 X83.916 Y114.664 E2.84876
G1 X83.915 Y105.702 E3.0276
G1 X83.928 Y104.813 E3.04535
G1 X83.987 Y103.841 E3.06478
G1 X84.133 Y102.878 E3.08422
G1 X84.364 Y101.932 E3.10365
G1 X84.677 Y101.009 E3.1231
G1 X85.07 Y100.119 E3.14251
G1 X85.504 Y99.327 E3.16054
G1 X86.078 Y98.469 E3.18114
G1 X86.45 Y97.993 E3.19319
G1 X86.885 Y97.47 E3.20677
G1 X87.655 Y96.577 E3.2303
G1 X89.222 Y94.651 E3.27985
G1 X90.776 Y92.626 E3.33079
G1 X92.266 Y90.565 E3.38154
G1 X93.67 Y88.506 E3.43127
G1 X95.063 Y86.339 E3.48268
G1 X95.612 Y85.558 E3.50173
G1 X96.215 Y84.809 E3.52092
M204 S2000
G0 F7500 X96.508 Y85.082
M204 S500
G1 F1500 X96.91 Y84.651 E3.53268
G1 X97.461 Y84.093 E3.54833
G1 X98.15 Y83.455 E3.56707
G1 X98.892 Y82.882 E3.58578
G1 X99.682 Y82.375 E3.60451
G1 X100.514 Y81.941 E3.62324
G1 X101.382 Y81.582 E3.64199
G1 X102.277 Y81.3 E3.66071
G1 X103.194 Y81.1 E3.67944
G1 X104.09 Y80.984 E3.69747
G1 X104.806 Y80.947 E3.71178
G1 X105.925 Y80.928 E3.73411
G1 X114.298 Y80.928 E3.90121
G1 X115.164 Y80.94 E3.91849
G1 X116.101 Y80.996 E3.93722
G1 X117.029 Y81.135 E3.95595
G1 X117.942 Y81.356 E3.97469
G1 X118.798 Y81.644 E3.99272
G1 X119.689 Y82.034 E4.01213
G1 X120.511 Y82.486 E4.03085
G1 X121.296 Y83.013 E4.04972
G1 X122.22 Y83.781 E4.07369
G1 X122.781 Y84.306 E4.08903
G1 X123.653 Y85.23 E4.11438
G1 X123.957 Y85.595 E4.12386
G1 X124.66 Y86.547 E4.14748
G1 X125.068 Y87.172 E4.16237
G1 X125.946 Y88.561 E4.19516
G1 X127.364 Y90.668 E4.24585
G1 X128.843 Y92.74 E4.29665
G1 X130.361 Y94.744 E4.34682
G1 X132.582 Y97.479 E4.41713
G1 X133.167 Y98.173 E4.43524
G1 X133.739 Y98.917 E4.45397
G1 X134.242 Y99.708 E4.47268
G1 X134.674 Y100.543 E4.49144
G1 X135.03 Y101.411 E4.51016
G1 X135.308 Y102.307 E4.52888
G1 X135.506 Y103.224 E4.5476
G1 X135.622 Y104.151 E4.56625
G1 X135.653 Y104.803 E4.57927
G1 X135.672 Y105.932 E4.60181
G1 X135.671 Y114.424 E4.77127
G1 X135.66 Y115.161 E4.78598
G1 X135.605 Y116.098 E4.80471
G1 X135.465 Y117.026 E4.82344
G1 X135.245 Y117.939 E4.84218
G1 X134.957 Y118.795 E4.86021
G1 X134.567 Y119.686 E4.87962
G1 X134.116 Y120.508 E4.89833
G1 X133.614 Y121.259 E4.91635
G1 X133.227 Y121.755 E4.92891
G1 X132.521 Y122.606 E4.95098
G1 X131.898 Y123.335 E4.97011
G1 X130.343 Y125.264 E5.01956
G1 X128.787 Y127.31 E5.07085
G1 X127.325 Y129.348 E5.12091
G1 X125.903 Y131.454 E5.17162
G1 X125.055 Y132.793 E5.20325
G1 X124.581 Y133.521 E5.22058
G1 X123.815 Y134.55 E5.24618
G1 X123.549 Y134.864 E5.2544
G1 X122.955 Y135.51 E5.27191
G1 X122.483 Y135.981 E5.28521
G1 X121.79 Y136.614 E5.30395
G1 X121.073 Y137.163 E5.32197
G1 X120.249 Y137.683 E5.34141
G1 X119.414 Y138.112 E5.36014
G1 X118.578 Y138.452 E5.37816
G1 X117.647 Y138.738 E5.39759
G1 X116.729 Y138.932 E5.41632
G1 X115.832 Y139.041 E5.43435
G1 X115.328 Y139.069 E5.44442
G1 X114.681 Y139.084 E5.45734
G1 X105.708 Y139.085 E5.6364
G1 X104.845 Y139.073 E5.65363
G1 X103.908 Y139.017 E5.67236
G1 X102.98 Y138.878 E5.69108
G1 X102.067 Y138.657 E5.70983
G1 X101.211 Y138.369 E5.72785
G1 X100.319 Y137.979 E5.74728
G1 X99.498 Y137.526 E5.76599
G1 X98.717 Y137.002 E5.78476
G1 X97.993 Y136.416 E5.80335
G1 X97.721 Y136.175 E5.8106
G1 X97.191 Y135.67 E5.82521
G1 X96.837 Y135.306 E5.83534
G1 X96.011 Y134.349 E5.86057
G1 X95.763 Y134.023 E5.86875
G1 X95.267 Y133.312 E5.88605
G1 X94.07 Y131.438 E5.93042
G1 X92.644 Y129.324 E5.98131
G1 X91.173 Y127.271 E6.03171
G1 X89.622 Y125.232 E6.08284
G1 X88.016 Y123.241 E6.13388
G1 X86.821 Y121.826 E6.17084
G1 X86.249 Y121.083 E6.18956
G1 X85.744 Y120.292 E6.20828
G1 X85.312 Y119.459 E6.22701
G1 X84.955 Y118.591 E6.24574
G1 X84.676 Y117.694 E6.26449
G1 X84.478 Y116.777 E6.28321
G1 X84.364 Y115.881 E6.30123
G1 X84.333 Y115.343 E6.31199
G1 X84.316 Y114.664 E6.32554
G1 X84.315 Y105.708 E6.50427
G1 X84.327 Y104.837 E6.52165
G1 X84.383 Y103.9 E6.54038
G1 X84.522 Y102.972 E6.55911
G1 X84.743 Y102.06 E6.57784
G1 X85.043 Y101.17 E6.59658
G1 X85.421 Y100.311 E6.61531
G1 X85.855 Y99.519 E6.63333
G1 X86.393 Y98.715 E6.65264
G1 X86.757 Y98.249 E6.66444
G1 X87.188 Y97.731 E6.67788
G1 X87.958 Y96.838 E6.70141
G1 X89.539 Y94.895 E6.7514
G1 X91.093 Y92.87 E6.80234
G1 X92.59 Y90.799 E6.85334
G1 X94 Y88.731 E6.90329
G1 X95.39 Y86.569 E6.95458
G1 X95.924 Y85.809 E6.97312
G1 X96.508 Y85.082 E6.99173
M204 S2000
G0 F7500 X96.801 Y85.355
M204 S500
G1 F1500 X97.195 Y84.932 E7.00326
G1 X97.733 Y84.386 E7.01856
G1 X98.395 Y83.771 E7.03659
G1 X99.109 Y83.218 E7.05461
G1 X99.868 Y82.729 E7.07263
G1 X100.668 Y82.31 E7.09065
G1 X101.502 Y81.963 E7.10868
G1 X102.363 Y81.691 E7.1267
G1 X103.245 Y81.497 E7.14472
G1 X104.141 Y81.381 E7.16275
G1 X104.813 Y81.347 E7.17618
G1 X105.932 Y81.328 E7.19851
G1 X114.293 Y81.328 E7.36536
G1 X115.141 Y81.339 E7.38229
G1 X116.043 Y81.392 E7.40032
G1 X116.936 Y81.524 E7.41833
G1 X117.814 Y81.735 E7.43635
G1 X118.67 Y82.023 E7.45438
G1 X119.497 Y82.385 E7.47239
G1 X120.289 Y82.819 E7.49042
G1 X121.04 Y83.321 E7.50844
G1 X121.964 Y84.089 E7.53242
G1 X122.49 Y84.581 E7.54679
G1 X123.362 Y85.505 E7.57215
G1 X123.635 Y85.833 E7.58066
G1 X124.325 Y86.766 E7.60382
G1 X124.73 Y87.386 E7.6186
G1 X125.614 Y88.784 E7.65161
G1 X127.038 Y90.9 E7.70251
G1 X128.524 Y92.982 E7.75355
G1 X130.05 Y94.996 E7.80398
G1 X132.276 Y97.737 E7.87444
G1 X132.85 Y98.417 E7.8922
G1 X133.402 Y99.132 E7.91023
G1 X133.887 Y99.893 E7.92824
G1 X134.304 Y100.695 E7.94628
G1 X134.648 Y101.53 E7.9643
G1 X134.917 Y102.392 E7.98232
G1 X135.109 Y103.274 E8.00033
G1 X135.222 Y104.17 E8.01835
G1 X135.253 Y104.81 E8.03114
G1 X135.272 Y105.932 E8.05354
G1 X135.271 Y114.418 E8.22288
G1 X135.261 Y115.138 E8.23725
G1 X135.209 Y116.039 E8.25526
G1 X135.076 Y116.933 E8.2733
G1 X134.866 Y117.811 E8.29132
G1 X134.578 Y118.667 E8.30934
G1 X134.216 Y119.494 E8.32735
G1 X133.783 Y120.286 E8.34537
G1 X133.281 Y121.037 E8.36339
G1 X132.919 Y121.5 E8.37512
G1 X132.217 Y122.346 E8.39706
G1 X131.594 Y123.075 E8.4162
G1 X130.032 Y125.013 E8.46587
G1 X128.462 Y127.077 E8.51762
G1 X126.993 Y129.124 E8.5679
G1 X125.571 Y131.23 E8.61861
G1 X124.72 Y132.575 E8.65038
G1 X124.26 Y133.282 E8.66721
G1 X123.509 Y134.292 E8.69232
G1 X123.255 Y134.593 E8.70018
G1 X122.672 Y135.227 E8.71737
G1 X122.213 Y135.686 E8.73033
G1 X121.547 Y136.296 E8.74835
G1 X120.83 Y136.845 E8.76637
G1 X120.066 Y137.327 E8.7844
G1 X119.263 Y137.741 E8.80243
G1 X118.427 Y138.081 E8.82044
G1 X117.564 Y138.347 E8.83846
G1 X116.681 Y138.535 E8.85648
G1 X115.784 Y138.644 E8.87451
G1 X115.319 Y138.669 E8.8838
G1 X114.681 Y138.684 E8.89654
G1 X105.713 Y138.685 E9.0755
G1 X104.868 Y138.674 E9.09237
G1 X103.966 Y138.621 E9.1104
G1 X103.073 Y138.489 E9.12841
G1 X102.195 Y138.278 E9.14643
G1 X101.339 Y137.99 E9.16446
G1 X100.512 Y137.628 E9.18247
G1 X99.72 Y137.193 E9.2005
G1 X98.969 Y136.691 E9.21853
G1 X98.245 Y136.105 E9.23712
G1 X97.997 Y135.885 E9.24373
G1 X97.467 Y135.38 E9.25834
G1 X97.14 Y135.045 E9.26769
G1 X96.329 Y134.106 E9.29245
G1 X96.091 Y133.794 E9.30028
G1 X95.604 Y133.097 E9.31725
G1 X94.402 Y131.214 E9.36183
G1 X92.976 Y129.1 E9.41271
G1 X91.498 Y127.038 E9.46334
G1 X89.94 Y124.99 E9.51469
G1 X88.322 Y122.983 E9.56614
G1 X87.138 Y121.582 E9.60275
G1 X86.586 Y120.867 E9.62077
G1 X86.099 Y120.107 E9.63879
G1 X85.682 Y119.306 E9.65681
G1 X85.337 Y118.471 E9.67484
G1 X85.067 Y117.609 E9.69286
G1 X84.875 Y116.727 E9.71088
G1 X84.761 Y115.831 E9.7289
G1 X84.733 Y115.333 E9.73886
G1 X84.716 Y114.664 E9.75221
G1 X84.715 Y105.713 E9.93084
G1 X84.726 Y104.86 E9.94786
G1 X84.779 Y103.958 E9.96589
G1 X84.911 Y103.065 E9.98391
G1 X85.122 Y102.187 E10.00193
G1 X85.409 Y101.331 E10.01994
G1 X85.772 Y100.503 E10.03799
G1 X86.206 Y99.711 E10.05601
G1 X86.708 Y98.961 E10.07402
G1 X87.064 Y98.505 E10.08556
G1 X87.491 Y97.992 E10.09888
G1 X88.261 Y97.099 E10.12241
G1 X89.856 Y95.139 E10.17284
G1 X91.41 Y93.114 E10.22378
G1 X92.921 Y91.024 E10.27525
G1 X94.33 Y88.956 E10.32519
G1 X95.717 Y86.799 E10.37636
G1 X96.236 Y86.059 E10.3944
G1 X96.801 Y85.355 E10.41241
M204 S2000
G1 F2400 E9.61241
;MESH:SliderV2.stl(4)
G0 F7500 X104.415 Y91.171
G0 X105.17 Y91.946
G0 X114.776 Y92.458
G0 X115.19 Y92.587
M204 S500
;TYPE:WALL-INNER
G1 F2400 E10.41241
G1 F1242.2 X114.763 Y92.17 E10.4268
G1 X105.244 Y92.17 E10.65618
G1 F1239.7 X104.912 Y92.544 E10.66825
G1 X105.098 Y92.654 E10.67347
G1 F1242.2 X114.985 Y92.654 E10.91172
G1 X115.19 Y92.587 E10.91691
M204 S2000
G0 F7500 X115.712 Y92.703
M204 S500
;TYPE:WALL-OUTER
G1 F1500 X115.645 Y92.478 E10.9216
G1 X115.411 Y92.186 E10.92907
G1 X114.943 Y91.729 E10.94212
G1 X105.082 Y91.728 E11.13891
G1 X104.818 Y91.985 E11.14626
G1 X104.454 Y92.394 E11.15718
G1 X104.395 Y92.584 E11.16115
G1 X104.41 Y92.668 E11.16286
G1 X104.692 Y92.951 E11.17083
G1 X104.998 Y93.096 E11.17759
G1 X115.053 Y93.095 E11.37825
G1 X115.396 Y92.986 E11.38543
G1 X115.571 Y92.871 E11.38961
G1 X115.712 Y92.703 E11.39398
M204 S2000
G1 F2400 E10.59398
G0 F7500 X115.399 Y92.634
G0 X115.019 Y92.876
G0 X115.02 Y93.96
G0 X115.031 Y97.799
G0 X115.032 Y98.882
G0 X114.8 Y99.303
G0 X115.159 Y99.169
M204 S500
;TYPE:WALL-INNER
G1 F2400 E11.39398
G1 F1176.5 X114.998 Y99.118 E11.39828
G1 X105.06 Y99.119 E11.65114
G1 F1174.2 X104.849 Y99.22 E11.65711
G1 X105.255 Y99.63 E11.67182
G1 F1176.5 X114.731 Y99.629 E11.91293
G1 X114.971 Y99.391 E11.92153
G1 X115.159 Y99.169 E11.92893
M204 S2000
G0 F7500 X114.918 Y100.084
M204 S500
;TYPE:WALL-OUTER
G1 F1500 X115.301 Y99.706 E11.93967
G1 X115.555 Y99.406 E11.94751
G1 X115.741 Y99.094 E11.95476
G1 X115.686 Y98.934 E11.95814
G1 X115.521 Y98.805 E11.96232
G1 X115.068 Y98.663 E11.97179
G1 X104.968 Y98.664 E12.17335
G1 X104.582 Y98.827 E12.18171
G1 X104.325 Y99.124 E12.18955
G1 X104.366 Y99.312 E12.19338
G1 X104.578 Y99.591 E12.20038
G1 X104.852 Y99.877 E12.20828
G1 X105.078 Y100.085 E12.21441
G1 X114.918 Y100.084 E12.41078
M204 S2000
G1 F2400 E11.61078
;MESH:SliderV2.stl
G0 F7500 X114.635 Y99.392
G0 X113.441 Y99.884
G0 X113.442 Y100.949
G0 X113.663 Y103.595
G0 X113.346 Y104.633
G0 X113.442 Y114.776
G0 X113.313 Y115.189
M204 S500
;TYPE:WALL-INNER
G1 F2400 E12.41078
G1 F1239.7 X113.73 Y114.762 E12.42519
G1 X113.73 Y105.247 E12.65495
G1 X113.356 Y104.912 E12.66707
G1 X113.247 Y105.098 E12.67228
G1 X113.247 Y114.985 E12.91102
G1 X113.313 Y115.189 E12.9162
M204 S2000
G0 F7500 X113.224 Y115.718
M204 S500
;TYPE:WALL-OUTER
G1 F1500 X113.422 Y115.645 E12.92041
G1 X113.714 Y115.411 E12.92787
G1 X114.172 Y114.941 E12.94097
G1 X114.172 Y105.082 E13.13772
G1 X113.915 Y104.818 E13.14507
G1 X113.506 Y104.454 E13.156
G1 X113.316 Y104.395 E13.15997
G1 X113.232 Y104.41 E13.16167
G1 X112.949 Y104.692 E13.16964
G1 X112.805 Y104.998 E13.17639
G1 X112.805 Y115.053 E13.37705
G1 X112.914 Y115.396 E13.38423
G1 X113.029 Y115.571 E13.38841
G1 X113.224 Y115.718 E13.39328
M204 S2000
G1 F2400 E12.59328
G0 F7500 X113.266 Y115.399
G0 X113.024 Y115.019
G0 X111.94 Y115.02
G0 X108.101 Y115.031
G0 X107.018 Y115.032
G0 X106.597 Y114.8
G0 X106.731 Y115.159
M204 S500
;TYPE:WALL-INNER
G1 F2400 E13.39328
G1 F1174.2 X106.782 Y114.998 E13.39759
G1 X106.781 Y105.06 E13.65095
G1 X106.68 Y104.849 E13.65691
G1 X106.27 Y105.255 E13.67162
G1 X106.271 Y114.732 E13.91323
G1 X106.507 Y114.969 E13.92175
G1 X106.731 Y115.159 E13.92924
M204 S2000
G0 F7500 X106.804 Y115.741
M204 S500
;TYPE:WALL-OUTER
G1 F1500 X106.965 Y115.686 E13.93264
G1 X107.095 Y115.521 E13.93683
G1 X107.237 Y115.068 E13.9463
G1 X107.236 Y104.968 E14.14786
G1 X107.073 Y104.582 E14.15622
G1 X106.776 Y104.325 E14.16406
G1 X106.588 Y104.366 E14.1679
G1 X106.309 Y104.578 E14.17489
G1 X106.023 Y104.852 E14.1828
G1 X105.815 Y105.078 E14.18893
G1 X105.816 Y114.918 E14.38529
G1 X106.192 Y115.299 E14.39598
G1 X106.494 Y115.555 E14.40388
G1 X106.804 Y115.741 E14.41109
M204 S2000
G1 F2400 E13.61109
;MESH:SliderV2.stl(1)
G0 F7500 X106.804 Y115.432
G0 X106.354 Y115.15
G0 X105.583 Y115.912
G0 X104.079 Y115.547
G0 X103.254 Y114.846
G0 X102.742 Y114.776
G0 X102.613 Y115.189
M204 S500
;TYPE:WALL-INNER
G1 F2400 E14.41109
G1 F1239.7 X103.03 Y114.762 E14.4255
G1 X103.03 Y105.247 E14.65526
G1 X102.656 Y104.912 E14.66738
G1 X102.547 Y105.098 E14.67259
G1 X102.547 Y114.985 E14.91133
G1 X102.613 Y115.189 E14.91651
M204 S2000
G0 F7500 X102.524 Y115.718
M204 S500
