;FLAVOR:Marlin
;TIME:667
;Filament used: 0.168271m
;Layer height: 0.12
;MINX:93.121
;MINY:108.728
;MINZ:0.12
;MAXX:126.924
;MAXY:139.485
;MAXZ:6.48
;Generated with Cura_SteamEngine 5.4.0
M82 ;absolute extrusion mode
; Ender 3 S1 Start G-code
G92 E0 ; Reset Extruder
G28 ; Home all axes
M420 S1 ;Use bed leveling data
G1 Z10.0 F3000 ; Move Z Axis up little to prevent scratching of Heat Bed
G1 X0 Y0

M104 S200
M190 S60
M109 S200

G1 X0.1 Y20 Z0.3 F5000.0 ; Move to start position
G1 X0.1 Y200.0 Z0.3 F1500.0 E15 ; Draw the first line
G1 X0.4 Y200.0 Z0.3 F5000.0 ; Move to side a little
G1 X0.4 Y20 Z0.3 F1500.0 E30 ; Draw the second line
G92 E0 ; Reset Extruder
G1 Z2.0 F3000 ; Move Z Axis up little to prevent scratching of Heat Bed
G1 X5 Y20 Z0.3 F5000.0 ; Move over to prevent blob squish
G92 E0
G92 E0
G1 F2400 E-0.8
;LAYER_COUNT:54
;LAYER:0
M107
M204 S2000
G0 F7500 X97.881 Y111.359 Z0.12
M204 S500
;TYPE:SKIRT
G1 F2400 E0
G1 F1500 X98.681 Y110.741 E0.02017
G1 X99.501 Y110.218 E0.03958
G1 X100.366 Y109.769 E0.05903
G1 X101.266 Y109.399 E0.07845
G1 X102.196 Y109.108 E0.0979
G1 X103.147 Y108.902 E0.11732
G1 X104.043 Y108.787 E0.13534
G1 X104.799 Y108.747 E0.15045
G1 X105.918 Y108.728 E0.17278
G1 X114.304 Y108.728 E0.34014
G1 X115.188 Y108.741 E0.35778
G1 X116.16 Y108.8 E0.37721
G1 X117.123 Y108.946 E0.39665
G1 X118.07 Y109.177 E0.4161
G1 X118.926 Y109.465 E0.43413
G1 X119.882 Y109.883 E0.45495
G1 X120.704 Y110.335 E0.47367
G1 X121.552 Y110.905 E0.49406
G1 X122.476 Y111.673 E0.51804
G1 X123.072 Y112.232 E0.53434
G1 X123.98 Y113.196 E0.56077
G1 X124.274 Y113.551 E0.56997
G1 X124.86 Y114.327 E0.58937
G1 X125.34 Y115.092 E0.6074
G1 X125.813 Y116.017 E0.62813
G1 X126.167 Y116.877 E0.64669
G1 X126.459 Y117.732 E0.66472
G1 X126.707 Y118.745 E0.68553
G1 X126.855 Y119.721 E0.70523
G1 X126.914 Y120.974 E0.73026
G1 X126.871 Y124.009 E0.79084
G1 X126.924 Y127.092 E0.85237
G1 X126.894 Y128.065 E0.8718
G1 X126.778 Y129.034 E0.89127
G1 X126.541 Y130.147 E0.91398
G1 X126.232 Y131.143 E0.93479
G1 X125.848 Y132.079 E0.95498
G1 X125.368 Y132.997 E0.97565
G1 X125.192 Y133.298 E0.98261
G1 X124.662 Y134.112 E1.002
G1 X124.127 Y134.8 E1.01939
G1 X123.837 Y135.142 E1.02834
G1 X123.23 Y135.801 E1.04622
G1 X122.744 Y136.285 E1.05991
G1 X122.024 Y136.939 E1.07932
G1 X121.306 Y137.487 E1.09734
G1 X120.42 Y138.045 E1.11824
G1 X119.554 Y138.487 E1.13764
G1 X118.684 Y138.839 E1.15637
G1 X117.752 Y139.124 E1.17582
G1 X116.765 Y139.331 E1.19594
G1 X115.868 Y139.439 E1.21397
G1 X115.337 Y139.469 E1.22459
G1 X114.681 Y139.484 E1.23768
G1 X105.702 Y139.485 E1.41687
G1 X104.821 Y139.472 E1.43445
G1 X103.849 Y139.413 E1.45388
G1 X102.886 Y139.267 E1.47332
G1 X101.939 Y139.036 E1.49277
G1 X101.051 Y138.736 E1.51148
G1 X100.159 Y138.346 E1.53091
G1 X99.275 Y137.858 E1.55106
G1 X98.465 Y137.313 E1.57054
G1 X97.743 Y136.729 E1.58907
G1 X97.448 Y136.468 E1.59693
G1 X96.905 Y135.95 E1.61191
G1 X96.55 Y135.585 E1.62207
G1 X95.678 Y134.573 E1.64873
G1 X95.425 Y134.239 E1.65709
G1 X94.863 Y133.421 E1.67689
G1 X94.383 Y132.571 E1.69637
G1 X93.937 Y131.584 E1.71799
G1 X93.562 Y130.49 E1.74107
G1 X93.33 Y129.544 E1.76051
G1 X93.183 Y128.582 E1.77993
G1 X93.121 Y127.621 E1.79914
G1 X93.126 Y127.001 E1.81152
G1 X93.156 Y126.187 E1.82777
G1 X93.215 Y123.617 E1.87907
G1 X93.199 Y120.688 E1.93753
G1 X93.24 Y119.715 E1.95696
G1 X93.367 Y118.75 E1.97638
G1 X93.578 Y117.8 E1.9958
G1 X93.849 Y116.938 E2.01384
G1 X94.25 Y115.973 E2.03469
G1 X94.699 Y115.117 E2.05398
G1 X95.092 Y114.494 E2.06868
G1 X95.344 Y114.123 E2.07763
G1 X95.928 Y113.343 E2.09707
G1 X96.597 Y112.598 E2.11706
G1 X97.192 Y111.996 E2.13395
G1 X97.881 Y111.359 E2.15267
M204 S2000
G0 F7500 X98.153 Y111.653
M204 S500
G1 F1500 X98.896 Y111.078 E2.17142
G1 X99.686 Y110.573 E2.19013
G1 X100.519 Y110.139 E2.20888
G1 X101.386 Y109.781 E2.2276
G1 X102.281 Y109.499 E2.24632
G1 X103.198 Y109.299 E2.26505
G1 X104.094 Y109.184 E2.28308
G1 X104.806 Y109.147 E2.29731
G1 X105.925 Y109.128 E2.31964
G1 X114.298 Y109.128 E2.48673
G1 X115.164 Y109.14 E2.50402
G1 X116.101 Y109.196 E2.52275
G1 X117.029 Y109.335 E2.54148
G1 X117.942 Y109.556 E2.56022
G1 X118.798 Y109.844 E2.57825
G1 X119.689 Y110.234 E2.59766
G1 X120.511 Y110.686 E2.61638
G1 X121.296 Y111.213 E2.63524
G1 X122.22 Y111.981 E2.65922
G1 X122.781 Y112.506 E2.67455
G1 X123.672 Y113.451 E2.70047
G1 X123.955 Y113.792 E2.70932
G1 X124.521 Y114.54 E2.72804
G1 X125.001 Y115.305 E2.74606
G1 X125.443 Y116.169 E2.76543
G1 X125.788 Y117.006 E2.78349
G1 X126.08 Y117.861 E2.80152
G1 X126.312 Y118.806 E2.82094
G1 X126.455 Y119.74 E2.8398
G1 X126.514 Y120.993 E2.86483
G1 X126.471 Y124.003 E2.9249
G1 X126.524 Y127.08 E2.98632
G1 X126.497 Y128.018 E3.00504
G1 X126.387 Y128.951 E3.02379
G1 X126.159 Y130.028 E3.04576
G1 X125.85 Y131.024 E3.06657
G1 X125.494 Y131.894 E3.08533
G1 X125.023 Y132.795 E3.10562
G1 X124.856 Y133.08 E3.11221
G1 X124.346 Y133.866 E3.13091
G1 X123.811 Y134.554 E3.1483
G1 X123.543 Y134.871 E3.15659
G1 X122.948 Y135.518 E3.17413
G1 X122.475 Y135.989 E3.18745
G1 X121.781 Y136.621 E3.20618
G1 X121.063 Y137.169 E3.2242
G1 X120.238 Y137.689 E3.24367
G1 X119.403 Y138.116 E3.26238
G1 X118.567 Y138.456 E3.28039
G1 X117.635 Y138.741 E3.29984
G1 X116.717 Y138.934 E3.31856
G1 X115.82 Y139.042 E3.33659
G1 X115.328 Y139.069 E3.34642
G1 X114.681 Y139.084 E3.35934
G1 X105.708 Y139.085 E3.53841
G1 X104.845 Y139.073 E3.55563
G1 X103.908 Y139.017 E3.57436
G1 X102.98 Y138.878 E3.59309
G1 X102.067 Y138.657 E3.61183
G1 X101.211 Y138.369 E3.62986
G1 X100.319 Y137.979 E3.64928
G1 X99.498 Y137.526 E3.668
G1 X98.717 Y137.002 E3.68677
G1 X97.995 Y136.418 E3.7053
G1 X97.724 Y136.178 E3.71252
G1 X97.192 Y135.671 E3.72719
G1 X96.837 Y135.306 E3.73735
G1 X95.997 Y134.331 E3.76303
G1 X95.744 Y133.997 E3.77139
G1 X95.211 Y133.224 E3.79013
G1 X94.748 Y132.406 E3.80889
G1 X94.302 Y131.419 E3.8305
G1 X93.95 Y130.394 E3.85213
G1 X93.725 Y129.483 E3.87086
G1 X93.582 Y128.556 E3.88957
G1 X93.521 Y127.624 E3.90821
G1 X93.526 Y127.016 E3.92035
G1 X93.556 Y126.202 E3.9366
G1 X93.615 Y123.626 E3.98802
G1 X93.599 Y120.704 E4.04633
G1 X93.637 Y119.767 E4.06505
G1 X93.758 Y118.836 E4.08378
G1 X93.96 Y117.92 E4.1025
G1 X94.231 Y117.058 E4.12054
G1 X94.604 Y116.159 E4.13996
G1 X95.038 Y115.33 E4.15863
G1 X95.423 Y114.718 E4.17306
G1 X95.664 Y114.362 E4.18164
G1 X96.226 Y113.61 E4.20037
G1 X96.882 Y112.879 E4.21998
G1 X97.464 Y112.29 E4.2365
G1 X98.153 Y111.653 E4.25523
M204 S2000
G0 F7500 X98.398 Y111.969
M204 S500
G1 F1500 X99.112 Y111.415 E4.27326
G1 X99.872 Y110.927 E4.29128
G1 X100.672 Y110.508 E4.30931
G1 X101.506 Y110.162 E4.32733
G1 X102.367 Y109.89 E4.34534
G1 X103.249 Y109.696 E4.36337
G1 X104.145 Y109.581 E4.38139
G1 X104.813 Y109.547 E4.39474
G1 X105.932 Y109.528 E4.41708
G1 X114.293 Y109.528 E4.58393
G1 X115.141 Y109.539 E4.60085
G1 X116.043 Y109.592 E4.61888
G1 X116.936 Y109.724 E4.6369
G1 X117.814 Y109.935 E4.65492
G1 X118.67 Y110.223 E4.67294
G1 X119.497 Y110.585 E4.69096
G1 X120.289 Y111.019 E4.70898
G1 X121.04 Y111.521 E4.72701
G1 X121.964 Y112.289 E4.75098
G1 X122.49 Y112.781 E4.76536
G1 X123.364 Y113.707 E4.79077
G1 X123.636 Y114.034 E4.79926
G1 X124.182 Y114.753 E4.81727
G1 X124.662 Y115.518 E4.8353
G1 X125.073 Y116.322 E4.85332
G1 X125.409 Y117.135 E4.87087
G1 X125.701 Y117.99 E4.8889
G1 X125.917 Y118.867 E4.90693
G1 X126.055 Y119.759 E4.92494
G1 X126.114 Y121.012 E4.94997
G1 X126.071 Y123.997 E5.00955
G1 X126.124 Y127.069 E5.07086
G1 X126.1 Y127.972 E5.08889
G1 X125.996 Y128.869 E5.10691
G1 X125.777 Y129.91 E5.12814
G1 X125.48 Y130.873 E5.14825
G1 X125.139 Y131.709 E5.16626
G1 X124.678 Y132.593 E5.18616
G1 X124.52 Y132.863 E5.1924
G1 X124.03 Y133.621 E5.21042
G1 X123.506 Y134.296 E5.22747
G1 X123.249 Y134.6 E5.23541
G1 X122.665 Y135.235 E5.25263
G1 X122.205 Y135.694 E5.2656
G1 X121.538 Y136.303 E5.28362
G1 X120.82 Y136.851 E5.30165
G1 X120.056 Y137.333 E5.31967
G1 X119.252 Y137.745 E5.3377
G1 X118.416 Y138.085 E5.35571
G1 X117.552 Y138.35 E5.37375
G1 X116.669 Y138.537 E5.39176
G1 X115.772 Y138.645 E5.40979
G1 X115.319 Y138.669 E5.41884
G1 X114.681 Y138.684 E5.43158
G1 X105.713 Y138.685 E5.61054
G1 X104.868 Y138.674 E5.62741
G1 X103.966 Y138.621 E5.64544
G1 X103.073 Y138.489 E5.66345
G1 X102.195 Y138.278 E5.68147
G1 X101.339 Y137.99 E5.6995
G1 X100.512 Y137.628 E5.71751
G1 X99.72 Y137.193 E5.73554
G1 X98.969 Y136.691 E5.75357
G1 X98.247 Y136.107 E5.7721
G1 X98 Y135.888 E5.77869
G1 X97.468 Y135.381 E5.79336
G1 X97.14 Y135.045 E5.80273
G1 X96.316 Y134.089 E5.82791
G1 X96.073 Y133.769 E5.83593
G1 X95.559 Y133.026 E5.85396
G1 X95.113 Y132.241 E5.87198
G1 X94.667 Y131.254 E5.89359
G1 X94.338 Y130.297 E5.91379
G1 X94.12 Y129.421 E5.9318
G1 X93.981 Y128.529 E5.94982
G1 X93.921 Y127.627 E5.96786
G1 X93.926 Y127.031 E5.97975
G1 X93.956 Y126.217 E5.99601
G1 X94.015 Y123.635 E6.04755
G1 X93.999 Y120.72 E6.10572
G1 X94.034 Y119.818 E6.12374
G1 X94.149 Y118.922 E6.14176
G1 X94.342 Y118.04 E6.15978
G1 X94.613 Y117.178 E6.17781
G1 X94.959 Y116.344 E6.19583
G1 X95.377 Y115.543 E6.21386
G1 X95.754 Y114.942 E6.22802
G1 X95.985 Y114.601 E6.23624
G1 X96.524 Y113.877 E6.25425
G1 X97.167 Y113.16 E6.27347
G1 X97.736 Y112.583 E6.28964
G1 X98.398 Y111.969 E6.30766
M204 S2000
G1 F2400 E5.50766
;MESH:SliderV2.stl(3)
G0 F7500 X104.415 Y119.371
G0 X105.17 Y120.146
G0 X114.776 Y120.658
G0 X115.19 Y120.787
M204 S500
;TYPE:WALL-INNER
G1 F2400 E6.30766
G1 F1242.2 X114.763 Y120.37 E6.32204
G1 X105.244 Y120.37 E6.55142
G1 F1239.7 X104.912 Y120.744 E6.5635
G1 X105.098 Y120.854 E6.56872
G1 F1242.2 X114.985 Y120.854 E6.80696
G1 X115.19 Y120.787 E6.81216
M204 S2000
G0 F7500 X115.712 Y120.903
M204 S500
;TYPE:WALL-OUTER
G1 F1500 X115.645 Y120.678 E6.81685
G1 X115.411 Y120.386 E6.82431
G1 X114.943 Y119.929 E6.83737
G1 X105.082 Y119.928 E7.03415
G1 X104.818 Y120.185 E7.04151
G1 X104.454 Y120.594 E7.05243
G1 X104.395 Y120.784 E7.0564
G1 X104.41 Y120.868 E7.05811
G1 X104.692 Y121.151 E7.06608
G1 X104.998 Y121.296 E7.07284
G1 X115.053 Y121.295 E7.27349
G1 X115.396 Y121.186 E7.28068
G1 X115.571 Y121.071 E7.28485
G1 X115.712 Y120.903 E7.28923
M204 S2000
G1 F2400 E6.48923
G0 F7500 X115.399 Y120.834
G0 X115.019 Y121.076
G0 X115.02 Y122.16
G0 X115.031 Y125.999
G0 X115.032 Y127.082
G0 X114.8 Y127.503
G0 X115.159 Y127.369
M204 S500
;TYPE:WALL-INNER
G1 F2400 E7.28923
G1 F1176.5 X114.998 Y127.318 E7.29353
G1 X105.06 Y127.319 E7.54639
G1 F1174.2 X104.849 Y127.42 E7.55236
G1 X105.255 Y127.83 E7.56707
G1 F1176.5 X114.731 Y127.829 E7.80817
G1 X114.971 Y127.591 E7.81677
G1 X115.159 Y127.369 E7.82417
M204 S2000
G0 F7500 X114.918 Y128.284
M204 S500
;TYPE:WALL-OUTER
G1 F1500 X115.301 Y127.906 E7.83491
G1 X115.555 Y127.606 E7.84276
G1 X115.741 Y127.294 E7.85001
G1 X115.686 Y127.134 E7.85338
G1 X115.521 Y127.005 E7.85756
G1 X115.068 Y126.863 E7.86704
G1 X104.968 Y126.864 E8.06859
G1 X104.582 Y127.027 E8.07695
G1 X104.325 Y127.324 E8.08479
G1 X104.366 Y127.512 E8.08863
G1 X104.578 Y127.791 E8.09563
G1 X104.852 Y128.077 E8.10353
G1 X105.078 Y128.285 E8.10966
G1 X114.918 Y128.284 E8.30603
M104 S200
M204 S2000
G1 F2400 E7.50603
;MESH:NONMESH
G0 F300 X114.918 Y128.284 Z0.24
G0 F7500 X114.635 Y127.592
G0 X105.012 Y127.083
G0 X104.592 Y126.085
G0 X98.398 Y111.969
;TIME_ELAPSED:23.196253
;LAYER:1
M106 S85
M204 S500
;TYPE:SKIRT
G1 F2400 E8.30603
G1 F1366 X99.112 Y111.415 E8.32406
G1 X99.872 Y110.927 E8.34209
G1 X100.672 Y110.508 E8.36011
G1 X101.506 Y110.162 E8.37813
G1 X102.367 Y109.89 E8.39615
G1 X103.249 Y109.696 E8.41417
G1 X104.145 Y109.581 E8.43219
G1 X104.813 Y109.547 E8.44554
G1 X105.932 Y109.528 E8.46788
G1 X114.293 Y109.528 E8.63473
G1 X115.141 Y109.539 E8.65165
G1 X116.043 Y109.592 E8.66969
G1 X116.936 Y109.724 E8.6877
G1 X117.814 Y109.935 E8.70572
G1 X118.67 Y110.223 E8.72374
G1 X119.497 Y110.585 E8.74176
G1 X120.289 Y111.019 E8.75978
G1 X121.04 Y111.521 E8.77781
G1 X121.964 Y112.289 E8.80179
G1 X122.49 Y112.781 E8.81616
G1 X123.364 Y113.707 E8.84157
G1 X123.636 Y114.034 E8.85006
G1 X124.182 Y114.753 E8.86807
G1 X124.662 Y115.518 E8.8861
G1 X125.073 Y116.322 E8.90412
G1 X125.409 Y117.135 E8.92167
G1 X125.701 Y117.99 E8.9397
G1 X125.917 Y118.867 E8.95773
G1 X126.055 Y119.759 E8.97574
G1 X126.114 Y121.012 E9.00077
G1 X126.071 Y123.997 E9.06035
G1 X126.124 Y127.069 E9.12166
G1 X126.1 Y127.972 E9.13969
G1 X125.996 Y128.869 E9.15771
G1 X125.777 Y129.91 E9.17894
G1 X125.48 Y130.873 E9.19905
G1 X125.139 Y131.709 E9.21707
G1 X124.678 Y132.593 E9.23696
G1 X124.52 Y132.863 E9.2432
G1 X124.03 Y133.621 E9.26122
G1 X123.506 Y134.296 E9.27827
G1 X123.249 Y134.6 E9.28621
G1 X122.665 Y135.235 E9.30343
G1 X122.205 Y135.694 E9.3164
G1 X121.538 Y136.303 E9.33442
G1 X120.82 Y136.851 E9.35245
G1 X120.056 Y137.333 E9.37047
G1 X119.252 Y137.745 E9.3885
G1 X118.416 Y138.085 E9.40651
G1 X117.552 Y138.35 E9.42455
G1 X116.669 Y138.537 E9.44256
G1 X115.772 Y138.645 E9.46059
G1 X115.319 Y138.669 E9.46964
G1 X114.681 Y138.684 E9.48238
G1 X105.713 Y138.685 E9.66134
G1 X104.868 Y138.674 E9.67821
G1 X103.966 Y138.621 E9.69624
G1 X103.073 Y138.489 E9.71425
G1 X102.195 Y138.278 E9.73227
G1 X101.339 Y137.99 E9.7503
G1 X100.512 Y137.628 E9.76831
G1 X99.72 Y137.193 E9.78635
G1 X98.969 Y136.691 E9.80437
G1 X98.247 Y136.107 E9.8229
G1 X98 Y135.888 E9.82949
G1 X97.468 Y135.381 E9.84416
G1 X97.14 Y135.045 E9.85353
G1 X96.316 Y134.089 E9.87871
G1 X96.073 Y133.769 E9.88673
G1 X95.559 Y133.026 E9.90476
G1 X95.113 Y132.241 E9.92278
G1 X94.667 Y131.254 E9.94439
G1 X94.338 Y130.297 E9.96459
G1 X94.12 Y129.421 E9.9826
G1 X93.981 Y128.529 E10.00062
G1 X93.921 Y127.627 E10.01866
G1 X93.926 Y127.031 E10.03055
G1 X93.956 Y126.217 E10.04681
G1 X94.015 Y123.635 E10.09835
G1 X93.999 Y120.72 E10.15652
G1 X94.034 Y119.818 E10.17454
G1 X94.149 Y118.922 E10.19256
G1 X94.342 Y118.04 E10.21058
G1 X94.613 Y117.178 E10.22861
G1 X94.959 Y116.344 E10.24663
G1 X95.377 Y115.543 E10.26466
G1 X95.754 Y114.942 E10.27882
G1 X95.985 Y114.601 E10.28704
G1 X96.524 Y113.877 E10.30505
G1 X97.167 Y113.16 E10.32427
G1 X97.736 Y112.583 E10.34044
G1 X98.398 Y111.969 E10.35846
M204 S2000
G1 F2400 E9.55846
;MESH:SliderV2.stl(3)
G0 F8250 X104.439 Y119.246
G0 X105.16 Y120.053
G0 X105.387 Y120.653
M204 S500
;TYPE:WALL-INNER
G1 F2400 E10.35846
G1 F1256.1 X114.625 Y120.653 E10.55895
M204 S2000
G0 F8250 X115.573 Y120.955
M204 S500
G1 F1366 X115.137 Y120.54 E10.57096
G1 X114.778 Y120.236 E10.58035
G1 X105.229 Y120.235 E10.77091
G1 X104.818 Y120.617 E10.78211
G1 X104.553 Y120.89 E10.7897
G1 X104.808 Y121.006 E10.79529
G1 X105.072 Y121.071 E10.80071
G1 X114.963 Y121.071 E10.9981
G1 X115.412 Y121.007 E11.00715
G1 X115.573 Y120.955 E11.01053
M204 S2000
G0 F8250 X116.086 Y121.01
M204 S500
;TYPE:WALL-OUTER
G1 F1366 X116.017 Y120.876 E11.01354
G1 X115.793 Y120.612 E11.02044
G1 X115.421 Y120.257 E11.03071
G1 X114.925 Y119.836 E11.04369
G1 X105.077 Y119.835 E11.24022
G1 X104.747 Y120.129 E11.24904
G1 X104.243 Y120.633 E11.26326
G1 X104.076 Y120.87 E11.26905
G1 X104.058 Y120.974 E11.27115
G1 X104.2 Y121.134 E11.27542
G1 X104.412 Y121.281 E11.28057
G1 X104.687 Y121.388 E11.28646
G1 X105.024 Y121.471 E11.29339
G1 X114.991 Y121.471 E11.49229
G1 X115.502 Y121.399 E11.50259
G1 X115.821 Y121.296 E11.50928
G1 X116.079 Y121.107 E11.51566
G1 X116.086 Y121.01 E11.5176
M204 S2000
G1 F2400 E10.7176
G0 F8250 X115.767 Y120.995
G0 X114.973 Y121.252
G0 X114.973 Y122.336
G0 X114.966 Y125.825
G0 X114.966 Y126.909
G0 X114.595 Y127.531
M204 S500
;TYPE:WALL-INNER
G1 F2400 E11.5176
G1 F1133.6 X105.388 Y127.531 E11.739
M204 S2000
G0 F8250 X115.064 Y127.357
G0 X115.57 Y127.198
M204 S500
G1 F1366 X114.948 Y127.091 E11.75159
G1 X105.063 Y127.09 E11.94886
G1 X104.724 Y127.166 E11.95579
G1 X104.474 Y127.27 E11.9612
G1 X104.952 Y127.735 E11.97451
G1 X105.223 Y127.972 E11.98169
G1 X114.766 Y127.972 E12.17213
G1 X115.149 Y127.617 E12.18255
G1 X115.57 Y127.198 E12.19441
M204 S2000
G0 F8250 X116.092 Y127.025
M204 S500
;TYPE:WALL-OUTER
G1 F1366 X115.953 Y126.91 E12.19801
G1 X115.626 Y126.796 E12.20492
G1 X114.98 Y126.691 E12.21798
G1 X105.02 Y126.69 E12.41674
G1 X104.473 Y126.811 E12.42792
G1 X104.137 Y127.005 E12.43566
G1 X103.977 Y127.172 E12.44028
