;FLAVOR:Marlin
;TIME:2147
;Filament used: 1.44759m
;Layer height: 0.2
;MINX:79.827
;MINY:86.518
;MINZ:0.2
;MAXX:140.172
;MAXY:133.482
;MAXZ:15
;Generated with Cura_SteamEngine 5.2.2
M82 ;absolute extrusion mode
; Ender 3 S1 Start G-code
G92 E0 ; Reset Extruder
G28 ; Home all axes
M420 S1 ;Use bed leveling data
G1 Z10.0 F3000 ; Move Z Axis up little to prevent scratching of Heat Bed
G1 X0 Y0

M104 S228
M190 S0
M109 S228

G1 X0.1 Y20 Z0.3 F5000.0 ; Move to start position
G1 X0.1 Y200.0 Z0.3 F1500.0 E15 ; Draw the first line
G1 X0.4 Y200.0 Z0.3 F5000.0 ; Move to side a little
G1 X0.4 Y20 Z0.3 F1500.0 E30 ; Draw the second line
G92 E0 ; Reset Extruder
G1 Z2.0 F3000 ; Move Z Axis up little to prevent scratching of Heat Bed
G1 X5 Y20 Z0.3 F5000.0 ; Move over to prevent blob squish
G92 E0
G92 E0
G1 F2400 E-0.8
;LAYER_COUNT:75
;LAYER:0
M107
M204 S2000
G0 F7500 X84.348 Y92.492 Z0.2
M204 S500
;TYPE:SKIRT
G1 F2400 E0
G1 F1500 X85.101 Y91.848 E0.03296
G1 X85.705 Y91.367 E0.05864
G1 X86.356 Y90.885 E0.08558
G1 X86.944 Y90.479 E0.10934
G1 X87.602 Y90.055 E0.13538
G1 X88.236 Y89.677 E0.15993
G1 X89.026 Y89.24 E0.18996
G1 X89.702 Y88.895 E0.2152
G1 X90.472 Y88.536 E0.24346
G1 X91.125 Y88.257 E0.26707
G1 X91.833 Y87.981 E0.29235
G1 X92.541 Y87.733 E0.3173
G1 X93.384 Y87.469 E0.34668
G1 X94.081 Y87.275 E0.37074
G1 X94.89 Y87.079 E0.39843
G1 X95.632 Y86.926 E0.42363
G1 X96.477 Y86.782 E0.45214
G1 X97.187 Y86.685 E0.47597
G1 X97.966 Y86.604 E0.50202
G1 X98.694 Y86.553 E0.52629
G1 X99.552 Y86.521 E0.55485
G1 X100.279 Y86.518 E0.57903
G1 X101.111 Y86.542 E0.60672
G1 X101.664 Y86.571 E0.62513
G1 X103.935 Y86.751 E0.7009
G1 X106.439 Y86.885 E0.78431
G1 X108.933 Y86.949 E0.86729
G1 X111.457 Y86.941 E0.95123
G1 X114.005 Y86.861 E1.03602
G1 X116.501 Y86.712 E1.11919
G1 X117.069 Y86.664 E1.13815
G1 X118.792 Y86.546 E1.19559
G1 X119.531 Y86.52 E1.22018
G1 X120.389 Y86.519 E1.24872
G1 X121.122 Y86.543 E1.27311
G1 X121.96 Y86.598 E1.30104
G1 X122.697 Y86.671 E1.32568
G1 X123.52 Y86.781 E1.35329
G1 X124.231 Y86.9 E1.37727
G1 X125.042 Y87.063 E1.40478
G1 X125.775 Y87.236 E1.42983
G1 X126.587 Y87.458 E1.45783
G1 X127.28 Y87.673 E1.48197
G1 X128.064 Y87.944 E1.50956
G1 X128.752 Y88.208 E1.53406
G1 X129.514 Y88.53 E1.56158
G1 X130.157 Y88.826 E1.58512
G1 X130.892 Y89.194 E1.61246
G1 X131.568 Y89.563 E1.63808
G1 X132.327 Y90.012 E1.66741
G1 X132.934 Y90.398 E1.69133
G1 X133.582 Y90.841 E1.71744
G1 X134.178 Y91.279 E1.74204
G1 X134.85 Y91.808 E1.77049
G1 X135.391 Y92.263 E1.794
G1 X136.003 Y92.812 E1.82134
G1 X136.461 Y93.244 E1.84228
G1 X137.108 Y93.923 E1.87348
G1 X137.682 Y94.637 E1.90395
G1 X137.906 Y94.941 E1.91651
G1 X138.429 Y95.719 E1.94769
G1 X138.885 Y96.539 E1.97889
G1 X139.376 Y97.675 E2.02006
G1 X139.499 Y98.01 E2.03193
G1 X139.784 Y98.903 E2.0631
G1 X139.993 Y99.818 E2.09432
G1 X140.122 Y100.746 E2.12548
G1 X140.172 Y101.683 E2.15669
G1 X140.144 Y102.597 E2.1871
G1 X140.086 Y103.397 E2.21378
G1 X139.933 Y105.992 E2.30024
G1 X139.857 Y108.515 E2.3842
G1 X139.851 Y111.039 E2.46814
G1 X139.917 Y113.544 E2.55149
G1 X140.051 Y116.04 E2.63463
G1 X140.14 Y117.349 E2.67827
G1 X140.163 Y118.286 E2.70944
G1 X140.107 Y119.222 E2.74063
G1 X139.944 Y120.287 E2.77646
G1 X139.867 Y120.665 E2.78929
G1 X139.64 Y121.575 E2.82049
G1 X139.338 Y122.462 E2.85165
G1 X138.96 Y123.321 E2.88286
G1 X138.579 Y124.03 E2.90964
G1 X138.429 Y124.286 E2.9195
G1 X137.921 Y125.074 E2.95069
G1 X137.347 Y125.816 E2.98189
G1 X136.598 Y126.62 E3.01844
G1 X136.162 Y127.043 E3.03864
G1 X135.66 Y127.501 E3.06124
G1 X134.919 Y128.136 E3.0937
G1 X134.308 Y128.623 E3.11969
G1 X133.645 Y129.114 E3.14713
G1 X133.056 Y129.521 E3.17094
G1 X132.398 Y129.945 E3.19697
G1 X131.755 Y130.329 E3.22188
G1 X130.965 Y130.765 E3.2519
G1 X130.309 Y131.099 E3.27638
G1 X129.539 Y131.459 E3.30465
G1 X128.875 Y131.743 E3.32867
G1 X128.167 Y132.019 E3.35394
G1 X127.459 Y132.267 E3.3789
G1 X126.616 Y132.531 E3.40828
G1 X125.919 Y132.725 E3.43234
G1 X125.11 Y132.921 E3.46003
G1 X124.368 Y133.074 E3.48522
G1 X123.523 Y133.218 E3.51373
G1 X122.81 Y133.315 E3.53767
G1 X122.029 Y133.396 E3.56378
G1 X121.305 Y133.447 E3.58792
G1 X120.449 Y133.479 E3.61641
G1 X119.721 Y133.482 E3.64063
G1 X118.889 Y133.458 E3.66831
G1 X118.336 Y133.429 E3.68673
G1 X116.065 Y133.249 E3.7625
G1 X113.561 Y133.115 E3.8459
G1 X111.067 Y133.051 E3.92888
G1 X108.543 Y133.059 E4.01283
G1 X105.995 Y133.139 E4.09762
G1 X103.499 Y133.288 E4.18078
G1 X102.933 Y133.336 E4.19968
G1 X101.215 Y133.454 E4.25695
G1 X100.474 Y133.48 E4.28161
G1 X99.611 Y133.481 E4.31032
G1 X98.878 Y133.457 E4.33471
G1 X98.04 Y133.402 E4.36264
G1 X97.303 Y133.329 E4.38727
G1 X96.48 Y133.219 E4.41489
G1 X95.769 Y133.1 E4.43887
G1 X94.958 Y132.937 E4.46638
G1 X94.225 Y132.764 E4.49143
G1 X93.413 Y132.542 E4.51943
G1 X92.72 Y132.327 E4.54356
G1 X91.936 Y132.056 E4.57115
G1 X91.248 Y131.792 E4.59566
G1 X90.486 Y131.47 E4.62317
G1 X89.843 Y131.174 E4.64672
G1 X89.108 Y130.806 E4.67406
G1 X88.432 Y130.437 E4.69967
G1 X87.673 Y129.988 E4.729
G1 X87.063 Y129.6 E4.75305
G1 X86.414 Y129.156 E4.7792
G1 X85.823 Y128.722 E4.80359
G1 X85.152 Y128.194 E4.83199
G1 X84.609 Y127.737 E4.85559
G1 X83.997 Y127.188 E4.88294
G1 X83.509 Y126.727 E4.90527
G1 X82.865 Y126.045 E4.93647
G1 X82.315 Y125.358 E4.96574
G1 X82.094 Y125.058 E4.97813
G1 X81.57 Y124.28 E5.00933
G1 X81.115 Y123.46 E5.04052
G1 X80.63 Y122.342 E5.08105
G1 X80.506 Y122.006 E5.09296
G1 X80.219 Y121.114 E5.12413
G1 X80.01 Y120.199 E5.15535
G1 X79.878 Y119.271 E5.18652
G1 X79.827 Y118.334 E5.21773
G1 X79.856 Y117.389 E5.24918
G1 X79.914 Y116.599 E5.27552
G1 X80.067 Y114.008 E5.36185
G1 X80.143 Y111.485 E5.44581
G1 X80.149 Y108.961 E5.52975
G1 X80.083 Y106.456 E5.6131
G1 X79.949 Y103.965 E5.69607
G1 X79.86 Y102.653 E5.73981
G1 X79.837 Y101.715 E5.77102
G1 X79.893 Y100.779 E5.8022
G1 X80.055 Y99.72 E5.83783
G1 X80.132 Y99.341 E5.8507
G1 X80.358 Y98.431 E5.88188
G1 X80.66 Y97.543 E5.91308
G1 X81.037 Y96.684 E5.94428
G1 X81.432 Y95.952 E5.97195
G1 X81.585 Y95.692 E5.98198
G1 X82.094 Y94.905 E6.01315
G1 X82.669 Y94.164 E6.04435
G1 X83.416 Y93.366 E6.0807
G1 X83.849 Y92.947 E6.10074
G1 X84.348 Y92.492 E6.12321
M204 S2000
G0 F7500 X84.608 Y92.796
M204 S500
G1 F1500 X85.361 Y92.152 E6.15616
G1 X85.943 Y91.689 E6.1809
G1 X86.594 Y91.207 E6.20784
G1 X87.16 Y90.816 E6.23072
G1 X87.818 Y90.392 E6.25675
G1 X88.429 Y90.027 E6.28043
G1 X89.219 Y89.59 E6.31045
G1 X89.871 Y89.258 E6.33479
G1 X90.641 Y88.899 E6.36304
G1 X91.27 Y88.63 E6.3858
G1 X91.978 Y88.354 E6.41107
G1 X92.66 Y88.114 E6.43512
G1 X93.503 Y87.85 E6.4645
G1 X94.175 Y87.664 E6.48769
G1 X94.984 Y87.468 E6.51538
G1 X95.699 Y87.321 E6.53966
G1 X96.544 Y87.177 E6.56817
G1 X97.229 Y87.083 E6.59116
G1 X98.008 Y87.002 E6.61721
G1 X98.709 Y86.952 E6.64059
G1 X99.567 Y86.92 E6.66914
G1 X100.268 Y86.917 E6.69246
G1 X101.1 Y86.941 E6.72014
G1 X101.632 Y86.97 E6.73786
G1 X103.88 Y87.148 E6.81287
G1 X106.408 Y87.283 E6.89707
G1 X108.96 Y87.348 E6.98198
G1 X111.47 Y87.34 E7.06546
G1 X114.007 Y87.262 E7.14988
G1 X116.524 Y87.111 E7.23375
G1 X116.9 Y87.078 E7.2463
G1 X118.82 Y86.945 E7.31031
G1 X119.532 Y86.92 E7.33401
G1 X120.39 Y86.919 E7.36255
G1 X121.096 Y86.942 E7.38604
G1 X121.934 Y86.997 E7.41397
G1 X122.644 Y87.067 E7.4377
G1 X123.467 Y87.177 E7.46532
G1 X124.152 Y87.292 E7.48842
G1 X124.963 Y87.455 E7.51593
G1 X125.669 Y87.622 E7.54006
G1 X126.481 Y87.844 E7.56806
G1 X127.149 Y88.051 E7.59132
G1 X127.933 Y88.322 E7.61891
G1 X128.596 Y88.576 E7.64252
G1 X129.358 Y88.898 E7.67004
G1 X129.978 Y89.184 E7.69275
G1 X130.713 Y89.552 E7.72009
G1 X131.364 Y89.907 E7.74475
G1 X132.123 Y90.356 E7.77408
G1 X132.708 Y90.728 E7.79714
G1 X133.356 Y91.171 E7.82325
G1 X133.931 Y91.593 E7.84697
G1 X134.603 Y92.122 E7.87541
G1 X135.124 Y92.561 E7.89807
G1 X135.736 Y93.11 E7.92542
G1 X136.184 Y93.532 E7.94589
G1 X136.818 Y94.199 E7.9765
G1 X137.36 Y94.874 E8.00529
G1 X137.584 Y95.178 E8.01785
G1 X138.097 Y95.942 E8.04846
G1 X138.542 Y96.748 E8.07908
G1 X139 Y97.813 E8.11764
G1 X139.123 Y98.148 E8.12951
G1 X139.403 Y99.025 E8.16013
G1 X139.605 Y99.923 E8.19074
G1 X139.729 Y100.835 E8.22135
G1 X139.773 Y101.755 E8.25199
G1 X139.745 Y102.568 E8.27904
G1 X139.689 Y103.343 E8.30489
G1 X139.533 Y105.992 E8.39315
G1 X139.457 Y108.502 E8.47667
G1 X139.451 Y111.049 E8.56138
G1 X139.516 Y113.538 E8.64419
G1 X139.654 Y116.091 E8.72923
G1 X139.741 Y117.376 E8.77207
G1 X139.763 Y118.296 E8.80268
G1 X139.705 Y119.215 E8.8333
G1 X139.552 Y120.207 E8.86669
G1 X139.475 Y120.585 E8.87952
G1 X139.252 Y121.478 E8.91013
G1 X138.952 Y122.349 E8.94077
G1 X138.579 Y123.19 E8.97137
G1 X138.234 Y123.828 E8.99549
G1 X138.084 Y124.084 E9.00536
G1 X137.584 Y124.857 E9.03598
G1 X137.019 Y125.584 E9.06661
G1 X136.319 Y126.333 E9.1007
G1 X135.883 Y126.756 E9.12091
G1 X135.399 Y127.197 E9.14269
G1 X134.658 Y127.832 E9.17514
G1 X134.069 Y128.301 E9.20019
G1 X133.406 Y128.792 E9.22763
G1 X132.84 Y129.184 E9.25053
G1 X132.182 Y129.608 E9.27656
G1 X131.562 Y129.978 E9.30057
G1 X130.772 Y130.414 E9.33059
G1 X130.139 Y130.736 E9.35421
G1 X129.369 Y131.096 E9.38248
G1 X128.73 Y131.37 E9.4056
G1 X128.022 Y131.646 E9.43088
G1 X127.34 Y131.886 E9.45492
G1 X126.497 Y132.15 E9.48431
G1 X125.825 Y132.336 E9.5075
G1 X125.016 Y132.532 E9.53518
G1 X124.301 Y132.679 E9.55946
G1 X123.456 Y132.823 E9.58797
G1 X122.768 Y132.917 E9.61107
G1 X121.987 Y132.998 E9.63718
G1 X121.29 Y133.048 E9.66042
G1 X120.434 Y133.08 E9.68891
G1 X119.732 Y133.083 E9.71226
G1 X118.9 Y133.059 E9.73995
G1 X118.368 Y133.03 E9.75767
G1 X116.12 Y132.852 E9.83267
G1 X113.592 Y132.717 E9.91687
G1 X111.04 Y132.652 E10.00178
G1 X108.53 Y132.66 E10.08526
G1 X105.993 Y132.738 E10.16968
G1 X103.476 Y132.889 E10.25355
G1 X102.905 Y132.937 E10.27261
G1 X101.187 Y133.055 E10.32988
G1 X100.473 Y133.08 E10.35365
G1 X99.61 Y133.081 E10.38235
G1 X98.904 Y133.058 E10.40584
G1 X98.066 Y133.003 E10.43378
G1 X97.356 Y132.933 E10.45751
G1 X96.533 Y132.823 E10.48512
G1 X95.848 Y132.708 E10.50822
G1 X95.037 Y132.545 E10.53574
G1 X94.331 Y132.378 E10.55987
G1 X93.519 Y132.156 E10.58787
G1 X92.851 Y131.949 E10.61113
G1 X92.067 Y131.678 E10.63871
G1 X91.404 Y131.424 E10.66233
G1 X90.642 Y131.102 E10.68984
G1 X90.022 Y130.816 E10.71255
G1 X89.287 Y130.448 E10.73989
G1 X88.636 Y130.093 E10.76455
G1 X87.877 Y129.644 E10.79389
G1 X87.289 Y129.27 E10.81706
G1 X86.64 Y128.826 E10.84322
G1 X86.07 Y128.407 E10.86675
G1 X85.399 Y127.879 E10.89514
G1 X84.876 Y127.439 E10.91788
G1 X84.264 Y126.89 E10.94522
G1 X83.788 Y126.44 E10.96701
G1 X83.156 Y125.77 E10.99764
G1 X82.637 Y125.121 E11.02528
G1 X82.416 Y124.821 E11.03768
G1 X81.902 Y124.057 E11.0683
G1 X81.457 Y123.251 E11.09892
G1 X81.006 Y122.204 E11.13684
G1 X80.882 Y121.868 E11.14875
G1 X80.601 Y120.991 E11.17938
G1 X80.397 Y120.093 E11.21001
G1 X80.272 Y119.181 E11.24063
G1 X80.226 Y118.262 E11.27123
G1 X80.255 Y117.418 E11.29932
G1 X80.312 Y116.651 E11.3249
G1 X80.468 Y113.99 E11.41356
G1 X80.543 Y111.498 E11.49648
G1 X80.549 Y108.951 E11.58119
G1 X80.484 Y106.462 E11.66401
G1 X80.346 Y103.914 E11.74888
G1 X80.259 Y102.626 E11.79181
G1 X80.237 Y101.705 E11.82246
G1 X80.295 Y100.787 E11.85305
G1 X80.447 Y99.8 E11.88626
G1 X80.524 Y99.421 E11.89913
G1 X80.747 Y98.527 E11.92977
G1 X81.046 Y97.656 E11.9604
G1 X81.419 Y96.815 E11.991
G1 X81.776 Y96.155 E12.01596
G1 X81.929 Y95.895 E12.02599
G1 X82.43 Y95.123 E12.0566
G1 X82.996 Y94.397 E12.08722
G1 X83.694 Y93.654 E12.12113
G1 X84.127 Y93.235 E12.14117
G1 X84.608 Y92.796 E12.16283
M204 S2000
G0 F7500 X84.868 Y93.1
M204 S500
G1 F1500 X85.621 Y92.456 E12.19578
G1 X86.181 Y92.01 E12.21959
G1 X86.832 Y91.528 E12.24653
G1 X87.377 Y91.152 E12.26856
G1 X88.035 Y90.728 E12.29459
G1 X88.623 Y90.377 E12.31737
G1 X89.413 Y89.94 E12.3474
G1 X90.04 Y89.62 E12.37081
G1 X90.81 Y89.261 E12.39907
G1 X91.415 Y89.003 E12.42094
G1 X92.123 Y88.727 E12.44622
G1 X92.78 Y88.496 E12.46938
G1 X93.623 Y88.232 E12.49876
G1 X94.269 Y88.053 E12.52106
G1 X95.078 Y87.857 E12.54874
G1 X95.766 Y87.715 E12.57211
G1 X96.611 Y87.571 E12.60062
G1 X97.27 Y87.481 E12.62274
G1 X98.049 Y87.4 E12.64879
G1 X98.724 Y87.352 E12.6713
G1 X99.582 Y87.32 E12.69985
G1 X100.256 Y87.317 E12.72227
G1 X101.088 Y87.341 E12.74995
G1 X101.601 Y87.369 E12.76704
G1 X103.869 Y87.549 E12.84271
G1 X106.375 Y87.683 E12.92618
G1 X108.951 Y87.749 E13.01189
G1 X111.485 Y87.74 E13.09617
G1 X114.008 Y87.662 E13.18013
G1 X116.583 Y87.508 E13.26592
G1 X117.124 Y87.462 E13.28398
G1 X118.847 Y87.344 E13.34142
G1 X119.532 Y87.32 E13.36422
G1 X120.39 Y87.319 E13.39276
G1 X121.07 Y87.341 E13.41539
G1 X121.908 Y87.396 E13.44332
G1 X122.591 Y87.464 E13.46615
G1 X123.414 Y87.574 E13.49376
G1 X124.073 Y87.684 E13.51599
G1 X124.884 Y87.847 E13.5435
G1 X125.564 Y88.008 E13.56674
G1 X126.376 Y88.23 E13.59474
G1 X127.018 Y88.429 E13.61709
G1 X127.802 Y88.7 E13.64468
G1 X128.44 Y88.944 E13.6674
G1 X129.202 Y89.266 E13.69492
G1 X129.799 Y89.541 E13.71678
G1 X130.534 Y89.909 E13.74412
G1 X131.16 Y90.251 E13.76784
G1 X131.919 Y90.7 E13.79717
G1 X132.483 Y91.059 E13.81941
G1 X133.131 Y91.502 E13.84552
G1 X133.683 Y91.907 E13.86829
G1 X134.355 Y92.436 E13.89674
G1 X134.857 Y92.858 E13.91855
G1 X135.469 Y93.407 E13.94589
G1 X135.906 Y93.82 E13.96589
G1 X136.528 Y94.475 E13.99593
G1 X137.038 Y95.111 E14.02305
G1 X137.262 Y95.415 E14.03561
G1 X137.765 Y96.165 E14.06564
G1 X138.199 Y96.957 E14.09568
G1 X138.625 Y97.95 E14.13162
G1 X138.748 Y98.285 E14.14349
G1 X139.021 Y99.146 E14.17353
G1 X139.218 Y100.028 E14.20359
G1 X139.335 Y100.923 E14.23361
G1 X139.373 Y101.825 E14.26364
G1 X139.346 Y102.539 E14.2874
G1 X139.286 Y103.361 E14.31482
G1 X139.134 Y105.958 E14.40134
G1 X139.057 Y108.489 E14.48556
G1 X139.051 Y111.023 E14.56984
G1 X139.119 Y113.607 E14.65582
G1 X139.251 Y116.065 E14.73769
G1 X139.342 Y117.403 E14.78229
G1 X139.363 Y118.306 E14.81233
G1 X139.304 Y119.207 E14.84237
G1 X139.16 Y120.127 E14.87334
G1 X139.083 Y120.505 E14.88617
G1 X138.863 Y121.381 E14.91621
G1 X138.568 Y122.234 E14.94623
G1 X138.197 Y123.058 E14.97628
G1 X137.889 Y123.626 E14.99777
G1 X137.739 Y123.882 E15.00764
G1 X137.248 Y124.64 E15.03768
G1 X136.692 Y125.352 E15.06773
G1 X136.041 Y126.046 E15.09938
G1 X135.605 Y126.469 E15.11958
G1 X135.139 Y126.893 E15.14054
G1 X134.398 Y127.528 E15.17299
G1 X133.831 Y127.98 E15.19711
G1 X133.168 Y128.471 E15.22455
G1 X132.623 Y128.848 E15.24659
G1 X131.965 Y129.272 E15.27263
G1 X131.369 Y129.628 E15.29572
G1 X130.579 Y130.064 E15.32573
G1 X129.97 Y130.374 E15.34846
G1 X129.2 Y130.734 E15.37673
G1 X128.585 Y130.997 E15.39898
G1 X127.877 Y131.273 E15.42425
G1 X127.22 Y131.504 E15.44741
G1 X126.377 Y131.768 E15.47679
G1 X125.731 Y131.947 E15.49909
G1 X124.922 Y132.143 E15.52678
G1 X124.234 Y132.285 E15.55014
G1 X123.389 Y132.429 E15.57865
G1 X122.727 Y132.52 E15.60088
G1 X121.946 Y132.601 E15.62699
G1 X121.275 Y132.648 E15.64936
G1 X120.419 Y132.68 E15.67785
G1 X119.744 Y132.683 E15.7003
G1 X118.912 Y132.659 E15.72799
G1 X118.399 Y132.631 E15.74508
G1 X116.131 Y132.451 E15.82075
G1 X113.625 Y132.317 E15.90422
G1 X111.049 Y132.251 E15.98992
G1 X108.515 Y132.26 E16.0742
G1 X105.992 Y132.338 E16.15816
G1 X103.417 Y132.492 E16.24396
G1 X102.878 Y132.538 E16.26195
G1 X101.16 Y132.656 E16.31923
G1 X100.473 Y132.68 E16.34209
G1 X99.61 Y132.681 E16.37079
G1 X98.93 Y132.659 E16.39342
G1 X98.092 Y132.604 E16.42135
G1 X97.409 Y132.536 E16.44418
G1 X96.586 Y132.426 E16.4718
G1 X95.927 Y132.316 E16.49402
G1 X95.116 Y132.153 E16.52153
G1 X94.436 Y131.992 E16.54478
G1 X93.624 Y131.77 E16.57278
G1 X92.982 Y131.571 E16.59513
G1 X92.198 Y131.3 E16.62272
G1 X91.56 Y131.056 E16.64544
G1 X90.798 Y130.734 E16.67295
G1 X90.201 Y130.459 E16.69481
G1 X89.466 Y130.091 E16.72215
G1 X88.84 Y129.749 E16.74588
G1 X88.081 Y129.3 E16.77521
G1 X87.515 Y128.939 E16.79754
G1 X86.866 Y128.495 E16.82369
G1 X86.317 Y128.093 E16.84632
G1 X85.646 Y127.565 E16.87472
G1 X85.143 Y127.142 E16.89658
G1 X84.531 Y126.593 E16.92393
G1 X84.066 Y126.153 E16.94522
G1 X83.447 Y125.496 E16.97524
G1 X82.959 Y124.884 E17.00128
G1 X82.738 Y124.584 E17.01367
G1 X82.235 Y123.834 E17.04371
G1 X81.8 Y123.042 E17.07376
