;FLAVOR:Marlin
;TIME:1803
;Filament used: 0.891233m
;Layer height: 0.2
;MINX:69.888
;MINY:91.388
;MINZ:0.2
;MAXX:150.111
;MAXY:128.62
;MAXZ:18.4
;Generated with Cura_SteamEngine 5.4.0
M82 ;absolute extrusion mode
; Ender 3 S1 Start G-code
G92 E0 ; Reset Extruder
G28 ; Home all axes
M420 S1 ;Use bed leveling data
G1 Z10.0 F3000 ; Move Z Axis up little to prevent scratching of Heat Bed
G1 X0 Y0

M104 S205.0
M190 S60
M109 S205.0

G1 X0.1 Y20 Z0.3 F5000.0 ; Move to start position
G1 X0.1 Y200.0 Z0.3 F1500.0 E15 ; Draw the first line
G1 X0.4 Y200.0 Z0.3 F5000.0 ; Move to side a little
G1 X0.4 Y20 Z0.3 F1500.0 E30 ; Draw the second line
G92 E0 ; Reset Extruder
G1 Z2.0 F3000 ; Move Z Axis up little to prevent scratching of Heat Bed
G1 X5 Y20 Z0.3 F5000.0 ; Move over to prevent blob squish
G92 E0
G92 E0
G1 F2400 E-0.8
;LAYER_COUNT:92
;LAYER:0
M107
M204 S2000
G0 F7500 X74.09 Y98.816 Z0.2
M204 S500
;TYPE:SKIRT
G1 F2400 E0
G1 F1500 X74.88 Y98.247 E0.03238
G1 X75.75 Y97.733 E0.06599
G1 X76.629 Y97.315 E0.09836
G1 X77.475 Y96.998 E0.12841
G1 X78.802 Y96.652 E0.17402
G1 X79.963 Y96.428 E0.21335
G1 X107.452 Y91.644 E1.14138
G1 X108.284 Y91.513 E1.16939
G1 X109.252 Y91.407 E1.20178
G1 X110.225 Y91.388 E1.23415
G1 X111.153 Y91.449 E1.26508
G1 X111.668 Y91.518 E1.28237
G1 X112.825 Y91.702 E1.32133
G1 X140.41 Y96.633 E2.25336
G1 X141.257 Y96.799 E2.28206
G1 X142.17 Y97.022 E2.31332
G1 X143.125 Y97.349 E2.3469
G1 X144.015 Y97.746 E2.37931
G1 X144.864 Y98.22 E2.41165
G1 X145.671 Y98.767 E2.44407
G1 X146.399 Y99.36 E2.4753
G1 X147.121 Y100.064 E2.50884
G1 X147.755 Y100.803 E2.54123
G1 X148.32 Y101.596 E2.57361
G1 X148.815 Y102.436 E2.60604
G1 X149.232 Y103.315 E2.6384
G1 X149.57 Y104.228 E2.67078
G1 X149.81 Y105.099 E2.70083
G1 X149.999 Y106.139 E2.73599
G1 X150.093 Y107.393 E2.77781
G1 X150.111 Y108.518 E2.81524
G1 X150.103 Y111.994 E2.93085
G1 X150.089 Y112.77 E2.95666
G1 X150.027 Y113.742 E2.98906
G1 X149.88 Y114.705 E3.02146
G1 X149.647 Y115.651 E3.05386
G1 X149.332 Y116.572 E3.08624
G1 X148.936 Y117.463 E3.11867
G1 X148.464 Y118.314 E3.15103
G1 X147.918 Y119.12 E3.18341
G1 X147.35 Y119.822 E3.21345
G1 X146.623 Y120.572 E3.24819
G1 X145.885 Y121.207 E3.28057
G1 X145.123 Y121.755 E3.31179
G1 X144.254 Y122.269 E3.34537
G1 X143.374 Y122.688 E3.37779
G1 X142.528 Y123.005 E3.40783
G1 X141.195 Y123.354 E3.45366
G1 X139.988 Y123.586 E3.49454
G1 X127.486 Y125.757 E3.91659
G1 X124.96 Y126.232 E4.00207
G1 X122.534 Y126.758 E4.08464
G1 X120.04 Y127.377 E4.1701
G1 X118.021 Y127.927 E4.2397
G1 X117.059 Y128.14 E4.27247
G1 X115.786 Y128.289 E4.3151
G1 X115.006 Y128.334 E4.34109
G1 X113.652 Y128.393 E4.38617
G1 X110.742 Y128.594 E4.48318
G1 X109.783 Y128.62 E4.51509
G1 X109.223 Y128.595 E4.53374
G1 X108.256 Y128.529 E4.56597
G1 X107.475 Y128.462 E4.59205
G1 X104.295 Y128.294 E4.69796
G1 X103.309 Y128.205 E4.73089
G1 X102.362 Y128.035 E4.76289
G1 X101.807 Y127.893 E4.78194
G1 X100.291 Y127.465 E4.83434
G1 X97.783 Y126.811 E4.92054
G1 X95.315 Y126.24 E5.0048
G1 X92.145 Y125.618 E5.11224
G1 X79.448 Y123.348 E5.54124
G1 X78.765 Y123.214 E5.56439
G1 X77.82 Y122.982 E5.59676
G1 X76.899 Y122.668 E5.62912
G1 X76.008 Y122.275 E5.66151
G1 X75.216 Y121.84 E5.69156
G1 X74.348 Y121.257 E5.72634
G1 X73.62 Y120.666 E5.75753
G1 X72.895 Y119.963 E5.79112
G1 X72.259 Y119.225 E5.82352
G1 X71.692 Y118.435 E5.85586
G1 X71.23 Y117.659 E5.8859
G1 X70.777 Y116.717 E5.92067
G1 X70.437 Y115.804 E5.95307
G1 X70.187 Y114.9 E5.98427
G1 X70.004 Y113.894 E6.01827
G1 X69.905 Y112.605 E6.06127
G1 X69.888 Y111.435 E6.10019
G1 X69.897 Y107.924 E6.21697
G1 X69.91 Y107.23 E6.24005
G1 X69.972 Y106.256 E6.27252
G1 X70.12 Y105.295 E6.30486
G1 X70.353 Y104.35 E6.33723
G1 X70.669 Y103.428 E6.36964
G1 X71.065 Y102.538 E6.40204
G1 X71.537 Y101.687 E6.43441
G1 X72.083 Y100.881 E6.46679
G1 X72.652 Y100.179 E6.49684
G1 X73.378 Y99.429 E6.53156
G1 X74.09 Y98.816 E6.56281
M204 S2000
G0 F7500 X74.324 Y99.141
M204 S500
G1 F1500 X75.114 Y98.572 E6.59519
G1 X75.922 Y98.094 E6.62642
G1 X76.769 Y97.69 E6.65763
G1 X77.615 Y97.373 E6.68768
G1 X78.878 Y97.045 E6.73108
G1 X80.032 Y96.822 E6.77017
G1 X107.514 Y92.039 E7.69797
G1 X108.328 Y91.911 E7.72537
G1 X109.261 Y91.807 E7.7566
G1 X110.199 Y91.787 E7.7878
G1 X111.1 Y91.846 E7.81783
G1 X111.605 Y91.913 E7.83478
G1 X112.755 Y92.096 E7.87351
G1 X140.333 Y97.025 E8.80529
G1 X141.162 Y97.188 E8.83339
G1 X142.075 Y97.411 E8.86465
G1 X142.963 Y97.715 E8.89587
G1 X143.821 Y98.096 E8.92709
G1 X144.64 Y98.551 E8.95825
G1 X145.418 Y99.077 E8.98949
G1 X146.146 Y99.67 E9.02072
G1 X146.818 Y100.325 E9.05193
G1 X147.43 Y101.036 E9.08313
G1 X147.976 Y101.799 E9.11434
G1 X148.454 Y102.608 E9.14559
G1 X148.857 Y103.454 E9.17676
G1 X149.184 Y104.334 E9.20798
G1 X149.424 Y105.205 E9.23803
G1 X149.6 Y106.169 E9.27063
G1 X149.693 Y107.399 E9.31165
G1 X149.711 Y108.517 E9.34884
G1 X149.703 Y111.987 E9.46426
G1 X149.69 Y112.745 E9.48947
G1 X149.632 Y113.682 E9.52069
G1 X149.491 Y114.61 E9.55191
G1 X149.268 Y115.522 E9.58314
G1 X148.966 Y116.41 E9.61434
G1 X148.586 Y117.269 E9.64558
G1 X148.132 Y118.09 E9.67678
G1 X147.607 Y118.868 E9.708
G1 X147.039 Y119.57 E9.73803
G1 X146.362 Y120.269 E9.7704
G1 X145.651 Y120.882 E9.80162
G1 X144.889 Y121.43 E9.83284
G1 X144.081 Y121.908 E9.86406
G1 X143.234 Y122.313 E9.89529
G1 X142.388 Y122.63 E9.92534
G1 X141.119 Y122.961 E9.96896
G1 X139.92 Y123.192 E10.00957
G1 X127.412 Y125.364 E10.43181
G1 X124.875 Y125.841 E10.51767
G1 X122.449 Y126.367 E10.60024
G1 X119.935 Y126.991 E10.68639
G1 X117.934 Y127.537 E10.75538
G1 X117.012 Y127.743 E10.7868
G1 X115.763 Y127.89 E10.82863
G1 X114.989 Y127.934 E10.85441
G1 X113.635 Y127.993 E10.89949
G1 X110.731 Y128.194 E10.99631
G1 X109.8 Y128.22 E11.02729
G1 X109.25 Y128.196 E11.0456
G1 X108.29 Y128.13 E11.0776
G1 X107.509 Y128.064 E11.10367
G1 X104.331 Y127.896 E11.20952
G1 X103.379 Y127.811 E11.24131
G1 X102.461 Y127.647 E11.27232
G1 X101.916 Y127.508 E11.29103
G1 X100.4 Y127.08 E11.34342
G1 X97.873 Y126.421 E11.43028
G1 X95.405 Y125.851 E11.51453
G1 X92.215 Y125.224 E11.62266
G1 X79.525 Y122.955 E12.05143
G1 X78.86 Y122.825 E12.07396
G1 X77.948 Y122.603 E12.10518
G1 X77.06 Y122.302 E12.13637
G1 X76.201 Y121.924 E12.16758
G1 X75.409 Y121.489 E12.19763
G1 X74.6 Y120.946 E12.23004
G1 X73.872 Y120.355 E12.26123
G1 X73.198 Y119.702 E12.29244
G1 X72.584 Y118.991 E12.32369
G1 X72.036 Y118.23 E12.35488
G1 X71.574 Y117.454 E12.38492
G1 X71.152 Y116.577 E12.41729
G1 X70.823 Y115.697 E12.44853
G1 X70.573 Y114.793 E12.47973
G1 X70.403 Y113.863 E12.51117
G1 X70.305 Y112.599 E12.55334
G1 X70.288 Y111.436 E12.59203
G1 X70.297 Y107.931 E12.7086
G1 X70.309 Y107.255 E12.73109
G1 X70.367 Y106.317 E12.76235
G1 X70.509 Y105.39 E12.79354
G1 X70.732 Y104.479 E12.82474
G1 X71.035 Y103.59 E12.85597
G1 X71.415 Y102.732 E12.88718
G1 X71.869 Y101.911 E12.91839
G1 X72.394 Y101.133 E12.9496
G1 X72.963 Y100.431 E12.97966
G1 X73.64 Y99.732 E13.01203
G1 X74.324 Y99.141 E13.04209
M204 S2000
G0 F7500 X74.586 Y99.444
M204 S500
G1 F1500 X75.318 Y98.916 E13.07211
G1 X76.095 Y98.455 E13.10216
G1 X76.909 Y98.065 E13.13218
G1 X77.755 Y97.748 E13.16223
G1 X78.954 Y97.438 E13.20342
G1 X80.101 Y97.216 E13.24228
G1 X107.577 Y92.434 E14.16987
G1 X108.373 Y92.308 E14.19667
G1 X109.27 Y92.207 E14.2267
G1 X110.173 Y92.186 E14.25674
G1 X111.074 Y92.245 E14.28677
G1 X111.542 Y92.308 E14.30248
G1 X112.685 Y92.49 E14.34097
G1 X140.256 Y97.418 E15.27252
G1 X141.068 Y97.577 E15.30004
G1 X141.946 Y97.79 E15.33009
G1 X142.801 Y98.081 E15.36013
G1 X143.627 Y98.446 E15.39016
G1 X144.417 Y98.883 E15.42019
G1 X145.166 Y99.387 E15.45022
G1 X145.867 Y99.957 E15.48027
G1 X146.515 Y100.586 E15.51031
G1 X147.105 Y101.269 E15.54032
G1 X147.632 Y102.003 E15.57038
G1 X148.093 Y102.78 E15.60043
G1 X148.482 Y103.594 E15.63043
G1 X148.798 Y104.44 E15.66047
G1 X149.038 Y105.311 E15.69052
G1 X149.201 Y106.199 E15.72055
G1 X149.293 Y107.405 E15.76078
G1 X149.311 Y108.516 E15.79773
G1 X149.303 Y111.981 E15.91298
G1 X149.291 Y112.721 E15.9376
G1 X149.236 Y113.623 E15.96765
G1 X149.102 Y114.516 E15.99769
G1 X148.889 Y115.394 E16.02774
G1 X148.6 Y116.249 E16.05775
G1 X148.236 Y117.076 E16.08781
G1 X147.8 Y117.867 E16.11785
G1 X147.296 Y118.616 E16.14787
G1 X146.728 Y119.318 E16.17791
G1 X146.1 Y119.967 E16.20795
G1 X145.417 Y120.558 E16.23799
G1 X144.685 Y121.086 E16.26801
G1 X143.908 Y121.547 E16.29805
G1 X143.094 Y121.938 E16.32809
G1 X142.248 Y122.255 E16.35814
G1 X141.043 Y122.568 E16.39955
G1 X139.852 Y122.798 E16.43989
G1 X127.338 Y124.971 E16.86234
G1 X124.79 Y125.45 E16.94857
G1 X122.364 Y125.976 E17.03113
G1 X119.83 Y126.605 E17.11797
G1 X117.846 Y127.147 E17.18638
G1 X116.965 Y127.346 E17.21642
G1 X115.741 Y127.491 E17.25741
G1 X114.972 Y127.534 E17.28303
G1 X113.618 Y127.593 E17.32811
G1 X112.124 Y127.699 E17.37792
G1 X111.972 Y127.703 E17.38298
G1 X110.719 Y127.794 E17.42476
G1 X109.817 Y127.82 E17.45478
G1 X109.278 Y127.797 E17.47272
G1 X108.323 Y127.731 E17.50456
G1 X107.542 Y127.666 E17.53063
G1 X105.026 Y127.526 E17.61444
G1 X104.349 Y127.496 E17.63698
G1 X103.449 Y127.417 E17.66703
G1 X102.56 Y127.259 E17.69706
G1 X102.025 Y127.123 E17.71542
G1 X100.509 Y126.695 E17.76781
G1 X97.963 Y126.031 E17.85532
G1 X95.495 Y125.462 E17.93956
G1 X92.285 Y124.83 E18.04838
G1 X79.601 Y122.562 E18.47694
G1 X78.954 Y122.436 E18.49886
G1 X78.076 Y122.224 E18.52891
G1 X77.221 Y121.936 E18.55891
G1 X76.394 Y121.573 E18.58895
G1 X75.602 Y121.138 E18.61901
G1 X74.852 Y120.635 E18.64904
G1 X74.15 Y120.067 E18.67908
G1 X73.5 Y119.44 E18.70911
G1 X72.908 Y118.757 E18.73918
G1 X72.38 Y118.025 E18.7692
G1 X71.918 Y117.249 E18.79923
G1 X71.526 Y116.436 E18.82925
G1 X71.208 Y115.59 E18.85931
G1 X70.966 Y114.72 E18.88935
G1 X70.802 Y113.832 E18.91938
G1 X70.705 Y112.593 E18.96072
G1 X70.688 Y111.437 E18.99917
G1 X70.697 Y107.938 E19.11555
G1 X70.708 Y107.279 E19.13747
G1 X70.763 Y106.377 E19.16753
G1 X70.898 Y105.484 E19.19757
G1 X71.111 Y104.607 E19.22758
G1 X71.401 Y103.751 E19.25764
G1 X71.765 Y102.925 E19.28766
G1 X72.201 Y102.134 E19.31771
G1 X72.705 Y101.385 E19.34773
G1 X73.274 Y100.683 E19.37779
G1 X73.902 Y100.035 E19.4078
G1 X74.586 Y99.444 E19.43787
M204 S2000
G1 F2400 E18.63787
;MESH:new-Engines-Support-Free.STL
G0 F7500 X81.127 Y106.717
G0 X105.403 Y116.718
M204 S500
;TYPE:WALL-INNER
G1 F2400 E19.43787
G1 F1500 X108.285 Y116.72 E19.53372
G1 X109.978 Y117.02 E19.59091
G1 X111.73 Y116.72 E19.65003
G1 X114.565 Y116.718 E19.74432
G1 X114.718 Y116.324 E19.75838
G1 X114.848 Y116.218 E19.76396
G1 X115.057 Y116.139 E19.77139
G1 X138.502 Y112.069 E20.56284
G1 X138.512 Y108.078 E20.69558
G1 X109.984 Y102.98 E21.65945
G1 X81.498 Y107.936 E22.62113
G1 X81.487 Y111.928 E22.75391
G1 X104.909 Y116.114 E23.54527
G1 X105.12 Y116.195 E23.55279
G1 X105.249 Y116.302 E23.55836
G1 X105.403 Y116.718 E23.57312
M204 S2000
G1 F2400 E22.77312
G0 F7500 X109.979 Y116.857
G0 X114.465 Y116.55
G0 X115.077 Y116.034
G0 X114.96 Y117.118
M204 S500
;TYPE:WALL-OUTER
G1 F2400 E23.57312
G1 F1500 X114.96 Y116.731 E23.58599
G1 X115.012 Y116.595 E23.59083
G1 X115.102 Y116.539 E23.59436
G1 X138.901 Y112.406 E24.39776
G1 X138.913 Y107.743 E24.55286
G1 X109.985 Y102.574 E25.53024
G1 X81.099 Y107.6 E26.50543
G1 X81.086 Y112.263 E26.66052
G1 X104.862 Y116.513 E27.46385
G1 X104.952 Y116.57 E27.46739
G1 X105.003 Y116.705 E27.47219
G1 X105.003 Y117.118 E27.48593
G1 X108.249 Y117.118 E27.59389
G1 X109.977 Y117.426 E27.65227
G1 X111.764 Y117.118 E27.71258
G1 X114.96 Y117.118 E27.81888
M204 S2000
G0 F7500 X115.077 Y116.034
G0 X114.465 Y116.55
G0 X109.979 Y116.857
G0 X105.642 Y116.618
G0 X105.643 Y116.358
M204 S500
;TYPE:SKIN
G1 F1500 X105.532 Y116.069 E27.82918
G1 X105.281 Y115.874 E27.83975
G1 X104.989 Y115.761 E27.85017
G1 X81.847 Y111.626 E28.63206
G1 X81.859 Y108.24 E28.74468
G1 X109.988 Y103.347 E29.6943
G1 X138.152 Y108.38 E30.64588
G1 X138.141 Y111.766 E30.7585
G1 X114.998 Y115.781 E31.53974
G1 X114.694 Y115.892 E31.5505
G1 X114.477 Y116.059 E31.55961
G1 X114.333 Y116.358 E31.57065
G1 X111.679 Y116.362 E31.65892
G1 X109.975 Y116.655 E31.71643
G1 X108.338 Y116.364 E31.77173
G1 X105.643 Y116.358 E31.86137
M204 S2000
G0 F7500 X105.642 Y116.618
G0 X105.233 Y116.345
G0 X81.657 Y111.786
G0 X81.591 Y110.443
G0 X82.049 Y110.899
M204 S500
G1 F1500 X82.73 Y111.58 E31.8934
M204 S2000
G0 F7500 X83.418 Y111.703
M204 S500
G1 F1500 X82.051 Y110.335 E31.95772
M204 S2000
G0 F7500 X82.053 Y109.771
M204 S500
G1 F1500 X84.107 Y111.826 E32.05436
M204 S2000
G0 F7500 X84.796 Y111.949
M204 S500
G1 F1500 X82.054 Y109.207 E32.18333
M204 S2000
G0 F7500 X82.056 Y108.643
M204 S500
G1 F1500 X85.484 Y112.072 E32.3446
M204 S2000
G0 F7500 X86.173 Y112.195
M204 S500
G1 F1500 X82.337 Y108.359 E32.52503
M204 S2000
G0 F7500 X82.819 Y108.275
M204 S500
G1 F1500 X86.862 Y112.318 E32.7152
M204 S2000
G0 F7500 X87.551 Y112.441
M204 S500
G1 F1500 X83.301 Y108.191 E32.91511
M204 S2000
G0 F7500 X83.782 Y108.107
M204 S500
G1 F1500 X88.239 Y112.564 E33.12475
M204 S2000
G0 F7500 X88.928 Y112.687
M204 S500
G1 F1500 X84.265 Y108.023 E33.34411
M204 S2000
G0 F7500 X84.746 Y107.939
M204 S500
G1 F1500 X89.616 Y112.809 E33.57318
M204 S2000
G0 F7500 X90.305 Y112.932
M204 S500
G1 F1500 X85.228 Y107.856 E33.81196
M204 S2000
G0 F7500 X85.71 Y107.772
M204 S500
G1 F1500 X90.994 Y113.055 E34.06048
M204 S2000
G0 F7500 X91.682 Y113.178
M204 S500
G1 F1500 X86.192 Y107.688 E34.31872
M204 S2000
G0 F7500 X86.674 Y107.604
M204 S500
G1 F1500 X92.371 Y113.301 E34.58669
M204 S2000
G0 F7500 X93.06 Y113.424
M204 S500
G1 F1500 X87.156 Y107.521 E34.86437
M204 S2000
G0 F7500 X87.638 Y107.437
M204 S500
G1 F1500 X93.748 Y113.547 E35.15176
M204 S2000
G0 F7500 X94.437 Y113.67
M204 S500
G1 F1500 X88.12 Y107.353 E35.4489
M204 S2000
G0 F7500 X88.601 Y107.269
M204 S500
G1 F1500 X95.126 Y113.793 E35.75579
M204 S2000
G0 F7500 X95.815 Y113.917
M204 S500
G1 F1500 X89.084 Y107.186 E36.07239
M204 S2000
G0 F7500 X89.565 Y107.101
M204 S500
G1 F1500 X96.503 Y114.04 E36.39876
M204 S2000
G0 F7500 X97.192 Y114.163
M204 S500
G1 F1500 X90.047 Y107.018 E36.73484
M204 S2000
G0 F7500 X90.529 Y106.934
M204 S500
G1 F1500 X97.881 Y114.286 E37.08065
M204 S2000
G0 F7500 X98.569 Y114.409
M204 S500
G1 F1500 X91.011 Y106.85 E37.43618
M204 S2000
G0 F7500 X91.493 Y106.766
M204 S500
G1 F1500 X99.258 Y114.532 E37.80145
M204 S2000
G0 F7500 X99.947 Y114.655
M204 S500
G1 F1500 X91.975 Y106.683 E38.17643
M204 S2000
G0 F7500 X92.457 Y106.599
M204 S500
G1 F1500 X100.636 Y114.778 E38.56114
M204 S2000
G0 F7500 X101.324 Y114.901
M204 S500
G1 F1500 X92.938 Y106.515 E38.95559
M204 S2000
G0 F7500 X93.42 Y106.431
M204 S500
G1 F1500 X102.013 Y115.024 E39.35978
M204 S2000
G0 F7500 X102.702 Y115.147
M204 S500
G1 F1500 X93.902 Y106.347 E39.77371
M204 S2000
G0 F7500 X94.384 Y106.264
M204 S500
G1 F1500 X103.391 Y115.27 E40.19734
M204 S2000
G0 F7500 X104.079 Y115.393
M204 S500
G1 F1500 X94.866 Y106.179 E40.63072
M204 S2000
G0 F7500 X95.348 Y106.096
M204 S500
G1 F1500 X104.768 Y115.516 E41.07381
M204 S2000
G0 F7500 X104.687 Y115.972
G0 X105.51 Y116.55
G0 X105.973 Y116.618
G0 X105.974 Y116.157
M204 S500
G1 F1500 X95.829 Y106.012 E41.551
M204 S2000
G0 F7500 X96.312 Y105.928
M204 S500
G1 F1500 X106.542 Y116.159 E42.03221
M204 S2000
G0 F7500 X107.11 Y116.161
M204 S500
G1 F1500 X96.793 Y105.844 E42.51749
M204 S2000
G0 F7500 X97.275 Y105.761
M204 S500
G1 F1500 X107.678 Y116.163 E43.00679
M204 S2000
G0 F7500 X108.246 Y116.165
M204 S500
G1 F1500 X97.757 Y105.677 E43.50014
M204 S2000
G0 F7500 X98.239 Y105.593
M204 S500
G1 F1500 X108.907 Y116.261 E44.00193
M204 S2000
G0 F7500 X109.595 Y116.383
M204 S500
G1 F1500 X98.721 Y105.509 E44.51341
M204 S2000
G0 F7500 X99.203 Y105.426
M204 S500
G1 F1500 X110.191 Y116.413 E45.03023
M204 S2000
G0 F7500 X110.674 Y116.331
M204 S500
G1 F1500 X99.685 Y105.341 E45.54714
M204 S2000
G0 F7500 X100.167 Y105.258
M204 S500
G1 F1500 X111.156 Y116.247 E46.06403
M204 S2000
G0 F7500 X111.639 Y116.164
M204 S500
G1 F1500 X100.648 Y105.174 E46.58099
M204 S2000
G0 F7500 X101.131 Y105.09
M204 S500
G1 F1500 X112.202 Y116.162 E47.10176
M204 S2000
G0 F7500 X112.766 Y116.16
M204 S500
G1 F1500 X101.612 Y105.006 E47.62641
