;FLAVOR:Marlin
;TIME:122
;Filament used: 0.0627836m
;Layer height: 0.2
;MINX:93.827
;MINY:92.487
;MINZ:0.2
;MAXX:126.173
;MAXY:127.312
;MAXZ:1.4
;Generated with Cura_SteamEngine 5.4.0
M82 ;absolute extrusion mode
; Ender 3 S1 Start G-code
G92 E0 ; Reset Extruder
G28 ; Home all axes
M420 S1 ;Use bed leveling data
G1 Z10.0 F3000 ; Move Z Axis up little to prevent scratching of Heat Bed
G1 X0 Y0

M104 S205.0
M190 S60
M109 S205.0

G1 X0.1 Y20 Z0.3 F5000.0 ; Move to start position
G1 X0.1 Y200.0 Z0.3 F1500.0 E15 ; Draw the first line
G1 X0.4 Y200.0 Z0.3 F5000.0 ; Move to side a little
G1 X0.4 Y20 Z0.3 F1500.0 E30 ; Draw the second line
G92 E0 ; Reset Extruder
G1 Z2.0 F3000 ; Move Z Axis up little to prevent scratching of Heat Bed
G1 X5 Y20 Z0.3 F5000.0 ; Move over to prevent blob squish
G92 E0
G92 E0
G1 F2400 E-0.8
;LAYER_COUNT:7
;LAYER:0
M107
M204 S2000
G0 F7500 X97.875 Y96.012 Z0.2
M204 S500
;TYPE:SKIRT
G1 F2400 E0
G1 F1500 X98.352 Y95.553 E0.02202
G1 X99.057 Y94.934 E0.05322
G1 X99.87 Y94.337 E0.08677
G1 X100.642 Y93.868 E0.11681
G1 X101.58 Y93.408 E0.15156
G1 X102.489 Y93.06 E0.18393
G1 X103.427 Y92.792 E0.21638
G1 X104.399 Y92.608 E0.24928
G1 X105.696 Y92.5 E0.29257
G1 X106.645 Y92.487 E0.32414
G1 X109.083 Y92.526 E0.40524
G1 X111.685 Y92.52 E0.49178
G1 X113.241 Y92.489 E0.54354
G1 X114.161 Y92.498 E0.57414
G1 X115.134 Y92.551 E0.60655
G1 X116.098 Y92.691 E0.63895
G1 X117.045 Y92.915 E0.67132
G1 X117.936 Y93.211 E0.70255
G1 X118.863 Y93.611 E0.73613
G1 X119.717 Y94.076 E0.76847
G1 X120.542 Y94.625 E0.80143
G1 X121.567 Y95.477 E0.84576
G1 X122.242 Y96.125 E0.87688
G1 X122.746 Y96.641 E0.90087
G1 X123.392 Y97.368 E0.93322
G1 X123.953 Y98.121 E0.96445
G1 X124.483 Y98.98 E0.99802
G1 X124.902 Y99.819 E1.02921
G1 X125.271 Y100.758 E1.06277
G1 X125.537 Y101.659 E1.09401
G1 X125.736 Y102.662 E1.12802
G1 X125.857 Y103.97 E1.17171
G1 X125.924 Y106.131 E1.24362
G1 X126.128 Y109.465 E1.35472
G1 X126.145 Y109.902 E1.36927
G1 X126.173 Y111.444 E1.42056
G1 X126.171 Y114.094 E1.5087
G1 X126.155 Y114.993 E1.53861
G1 X126.092 Y115.975 E1.57134
G1 X125.9 Y117.137 E1.61051
G1 X125.69 Y118.07 E1.64232
G1 X125.483 Y118.905 E1.67093
G1 X125.203 Y119.838 E1.70333
G1 X124.87 Y120.677 E1.73335
G1 X124.399 Y121.609 E1.76808
G1 X123.882 Y122.436 E1.80052
G1 X123.295 Y123.213 E1.83291
G1 X122.643 Y123.934 E1.86524
G1 X121.955 Y124.573 E1.89647
G1 X121.214 Y125.15 E1.92771
G1 X120.001 Y125.909 E1.9753
G1 X119.013 Y126.392 E2.01188
G1 X118.103 Y126.74 E2.04428
G1 X117.165 Y127.008 E2.07673
G1 X116.21 Y127.19 E2.10906
G1 X115.254 Y127.287 E2.14102
G1 X114.654 Y127.305 E2.16099
G1 X112.944 Y127.309 E2.21786
G1 X112.01 Y127.294 E2.24893
G1 X109.323 Y127.283 E2.3383
G1 X107.084 Y127.312 E2.41278
G1 X105.844 Y127.309 E2.45402
G1 X105.145 Y127.296 E2.47728
G1 X104.172 Y127.234 E2.5097
G1 X103.211 Y127.086 E2.54204
G1 X102.265 Y126.853 E2.57445
G1 X101.343 Y126.538 E2.60685
G1 X100.516 Y126.173 E2.63692
G1 X99.631 Y125.687 E2.6705
G1 X98.642 Y125.013 E2.71031
G1 X97.808 Y124.322 E2.74633
G1 X97.115 Y123.637 E2.77874
G1 X96.53 Y122.949 E2.80878
G1 X95.926 Y122.098 E2.84349
G1 X95.471 Y121.318 E2.87352
G1 X95.027 Y120.368 E2.9084
G1 X94.688 Y119.432 E2.94151
G1 X94.59 Y119.115 E2.95254
G1 X94.399 Y118.412 E2.97677
G1 X94.127 Y117.259 E3.01617
G1 X93.959 Y116.372 E3.0462
G1 X93.844 Y115.085 E3.08918
G1 X93.83 Y114.436 E3.11077
G1 X93.827 Y111.126 E3.22086
G1 X93.838 Y110.241 E3.2503
G1 X93.864 Y109.645 E3.27014
G1 X93.932 Y108.683 E3.30221
G1 X94.077 Y106.096 E3.38839
G1 X94.145 Y103.936 E3.46027
G1 X94.221 Y102.967 E3.4926
G1 X94.368 Y102.076 E3.52263
G1 X94.63 Y101.063 E3.55744
G1 X94.958 Y100.146 E3.58983
G1 X95.334 Y99.325 E3.61986
G1 X95.851 Y98.419 E3.65456
G1 X96.366 Y97.677 E3.6846
G1 X97.27 Y96.625 E3.73073
G1 X97.875 Y96.012 E3.75938
M204 S2000
G0 F7500 X98.153 Y96.3
M204 S500
G1 F1500 X98.616 Y95.854 E3.78076
G1 X99.321 Y95.235 E3.81196
G1 X100.078 Y94.679 E3.8432
G1 X100.85 Y94.21 E3.87325
G1 X101.724 Y93.781 E3.90563
G1 X102.599 Y93.444 E3.93682
G1 X103.502 Y93.185 E3.96806
G1 X104.432 Y93.007 E3.99955
G1 X105.729 Y92.899 E4.04284
G1 X106.639 Y92.887 E4.07311
G1 X109.078 Y92.926 E4.15424
G1 X111.693 Y92.92 E4.24122
G1 X113.237 Y92.889 E4.29258
G1 X114.14 Y92.897 E4.32262
G1 X115.077 Y92.947 E4.35383
G1 X116.006 Y93.08 E4.38504
G1 X116.919 Y93.295 E4.41624
G1 X117.81 Y93.591 E4.44746
G1 X118.672 Y93.963 E4.47869
G1 X119.496 Y94.41 E4.50987
G1 X120.286 Y94.933 E4.54138
G1 X121.311 Y95.785 E4.58571
G1 X121.956 Y96.405 E4.61547
G1 X122.447 Y96.907 E4.63882
G1 X123.071 Y97.607 E4.67001
G1 X123.632 Y98.36 E4.70125
G1 X124.125 Y99.159 E4.73247
G1 X124.544 Y99.998 E4.76366
G1 X124.887 Y100.871 E4.79486
G1 X125.153 Y101.772 E4.82611
G1 X125.338 Y102.699 E4.85755
G1 X125.457 Y103.982 E4.9004
G1 X125.524 Y106.143 E4.97231
G1 X125.728 Y109.481 E5.08354
G1 X125.745 Y109.909 E5.09779
G1 X125.773 Y111.444 E5.14885
G1 X125.771 Y114.087 E5.23676
G1 X125.756 Y114.968 E5.26606
G1 X125.697 Y115.91 E5.29746
G1 X125.505 Y117.072 E5.33663
G1 X125.302 Y117.974 E5.36738
G1 X125.1 Y118.79 E5.39534
G1 X124.831 Y119.69 E5.42658
G1 X124.498 Y120.529 E5.4566
G1 X124.059 Y121.398 E5.48899
G1 X123.563 Y122.195 E5.52021
G1 X122.998 Y122.945 E5.55144
G1 X122.37 Y123.641 E5.58262
G1 X121.709 Y124.257 E5.61267
G1 X120.968 Y124.834 E5.64391
G1 X119.825 Y125.55 E5.68877
G1 X118.869 Y126.019 E5.72418
G1 X117.993 Y126.356 E5.7554
G1 X117.09 Y126.615 E5.78665
G1 X116.169 Y126.792 E5.81784
G1 X115.242 Y126.887 E5.84883
G1 X114.653 Y126.905 E5.86843
G1 X112.95 Y126.909 E5.92507
G1 X112.016 Y126.894 E5.95614
G1 X109.32 Y126.883 E6.04581
G1 X107.085 Y126.912 E6.12016
G1 X105.851 Y126.909 E6.1612
G1 X105.17 Y126.897 E6.18385
G1 X104.233 Y126.839 E6.21508
G1 X103.306 Y126.697 E6.24627
G1 X102.394 Y126.474 E6.2775
G1 X101.505 Y126.172 E6.30872
G1 X100.678 Y125.807 E6.33879
G1 X99.824 Y125.337 E6.37121
G1 X98.897 Y124.705 E6.40853
G1 X98.089 Y124.037 E6.4434
G1 X97.42 Y123.378 E6.47463
G1 X96.835 Y122.69 E6.50467
G1 X96.272 Y121.896 E6.53704
G1 X95.817 Y121.116 E6.56708
G1 X95.403 Y120.232 E6.59954
G1 X95.07 Y119.314 E6.63202
G1 X94.976 Y119.01 E6.6426
G1 X94.788 Y118.32 E6.66639
G1 X94.52 Y117.185 E6.70518
G1 X94.352 Y116.298 E6.73521
G1 X94.244 Y115.076 E6.77601
G1 X94.23 Y114.436 E6.7973
G1 X94.227 Y111.131 E6.90722
G1 X94.238 Y110.258 E6.93626
G1 X94.263 Y109.673 E6.95574
G1 X94.331 Y108.711 E6.98781
G1 X94.477 Y106.109 E7.07449
G1 X94.544 Y103.967 E7.14577
G1 X94.616 Y103.032 E7.17696
G1 X94.763 Y102.141 E7.207
G1 X95.007 Y101.197 E7.23943
G1 X95.322 Y100.313 E7.27064
G1 X95.698 Y99.492 E7.30067
G1 X96.18 Y98.647 E7.33303
G1 X96.695 Y97.905 E7.36307
G1 X97.555 Y96.906 E7.40691
G1 X98.153 Y96.3 E7.43523
M204 S2000
G0 F7500 X98.431 Y96.588
M204 S500
G1 F1500 X98.881 Y96.154 E7.45602
G1 X99.558 Y95.557 E7.48604
G1 X100.286 Y95.021 E7.51611
G1 X101.058 Y94.552 E7.54616
G1 X101.868 Y94.154 E7.57617
G1 X102.71 Y93.828 E7.6062
G1 X103.578 Y93.578 E7.63625
G1 X104.465 Y93.406 E7.6663
G1 X105.762 Y93.298 E7.70959
G1 X106.633 Y93.287 E7.73856
G1 X109.073 Y93.326 E7.81972
G1 X111.701 Y93.32 E7.90713
G1 X113.234 Y93.289 E7.95813
G1 X114.119 Y93.296 E7.98757
G1 X115.021 Y93.343 E8.01761
G1 X115.915 Y93.47 E8.04764
G1 X116.794 Y93.675 E8.07766
G1 X117.652 Y93.958 E8.10771
G1 X118.482 Y94.315 E8.13776
G1 X119.276 Y94.744 E8.16778
G1 X120.03 Y95.241 E8.19781
G1 X121.055 Y96.093 E8.24215
G1 X121.67 Y96.685 E8.27054
G1 X122.149 Y97.174 E8.2933
G1 X122.751 Y97.847 E8.32334
G1 X123.292 Y98.57 E8.35337
G1 X123.767 Y99.338 E8.38341
G1 X124.172 Y100.145 E8.41344
G1 X124.504 Y100.985 E8.44348
G1 X124.761 Y101.851 E8.47352
G1 X124.94 Y102.736 E8.50355
G1 X125.057 Y103.994 E8.54558
G1 X125.124 Y106.155 E8.61749
G1 X125.328 Y109.497 E8.72885
G1 X125.345 Y109.916 E8.7428
G1 X125.373 Y111.444 E8.79363
G1 X125.371 Y114.081 E8.88133
G1 X125.357 Y114.944 E8.91004
G1 X125.302 Y115.845 E8.94006
G1 X125.11 Y117.007 E8.97924
G1 X124.914 Y117.878 E9.00893
G1 X124.717 Y118.676 E9.03627
G1 X124.459 Y119.542 E9.06632
G1 X124.126 Y120.381 E9.09634
G1 X123.719 Y121.187 E9.12638
G1 X123.243 Y121.955 E9.15643
G1 X122.701 Y122.677 E9.18646
G1 X122.097 Y123.348 E9.21648
G1 X121.436 Y123.964 E9.24654
G1 X120.723 Y124.518 E9.27657
G1 X119.648 Y125.191 E9.31875
G1 X118.725 Y125.646 E9.35298
G1 X117.882 Y125.972 E9.38304
G1 X117.014 Y126.222 E9.41308
G1 X116.128 Y126.394 E9.4431
G1 X115.23 Y126.487 E9.47313
G1 X114.652 Y126.505 E9.49236
G1 X112.956 Y126.509 E9.54877
G1 X112.022 Y126.494 E9.57984
G1 X109.317 Y126.483 E9.66981
G1 X107.086 Y126.512 E9.74402
G1 X105.858 Y126.509 E9.78486
G1 X105.194 Y126.498 E9.80695
G1 X104.293 Y126.443 E9.83697
G1 X103.4 Y126.308 E9.86701
G1 X102.522 Y126.095 E9.89706
G1 X101.667 Y125.806 E9.92708
G1 X100.84 Y125.441 E9.95715
G1 X100.049 Y125.006 E9.98717
G1 X99.151 Y124.396 E10.02328
G1 X98.369 Y123.752 E10.05697
G1 X97.725 Y123.119 E10.08701
G1 X97.14 Y122.431 E10.11704
G1 X96.618 Y121.694 E10.14708
G1 X96.163 Y120.914 E10.17711
G1 X95.779 Y120.096 E10.20717
G1 X95.452 Y119.195 E10.23905
G1 X95.362 Y118.905 E10.24915
G1 X95.177 Y118.228 E10.27249
G1 X94.913 Y117.111 E10.31067
G1 X94.745 Y116.224 E10.34069
G1 X94.644 Y115.067 E10.37932
G1 X94.63 Y114.436 E10.40031
G1 X94.627 Y111.136 E10.51007
G1 X94.638 Y110.275 E10.53871
G1 X94.662 Y109.701 E10.55782
G1 X94.73 Y108.739 E10.5899
G1 X94.877 Y106.121 E10.67711
G1 X94.943 Y103.997 E10.74779
G1 X95.011 Y103.097 E10.77781
G1 X95.158 Y102.206 E10.80784
G1 X95.384 Y101.331 E10.8379
G1 X95.686 Y100.48 E10.86793
G1 X96.062 Y99.659 E10.89797
G1 X96.509 Y98.875 E10.92798
G1 X97.024 Y98.133 E10.95802
G1 X97.84 Y97.187 E10.99958
G1 X98.431 Y96.588 E11.02756
M204 S2000
G1 F2400 E10.22756
;MESH:new-Command-Bridges-Support-Free.STL
G0 F7500 X104.783 Y103.716
G0 X107.416 Y115.712
M204 S500
;TYPE:WALL-INNER
G1 F2400 E11.02756
G1 F1500 X107.416 Y114.635 E11.06339
G1 X107.518 Y114.43 E11.071
G1 X107.712 Y114.326 E11.07832
G1 X107.713 Y110.861 E11.19357
G1 X107.514 Y110.754 E11.20108
G1 X107.413 Y110.47 E11.21111
G1 X107.408 Y104.559 E11.40771
G1 X106.931 Y104.086 E11.43005
G1 X106.204 Y104.086 E11.45423
G1 X105.728 Y104.558 E11.47653
G1 X105.724 Y110.47 E11.67316
G1 X105.624 Y110.755 E11.68321
G1 X105.428 Y110.859 E11.69059
G1 X105.43 Y114.326 E11.8059
G1 X105.624 Y114.43 E11.81322
G1 X105.726 Y114.635 E11.82084
G1 X105.726 Y115.708 E11.85653
G1 X107.416 Y115.712 E11.91274
M204 S2000
G0 F7500 X107.145 Y115.611
G0 X107.588 Y114.337
G0 X107.842 Y114.295
G0 X108.112 Y114.565
M204 S500
;TYPE:WALL-OUTER
G1 F1500 X108.113 Y110.618 E12.04401
G1 X108.01 Y110.618 E12.04744
G1 X107.845 Y110.53 E12.05366
G1 X107.811 Y110.435 E12.05701
G1 X107.808 Y104.392 E12.25801
G1 X107.095 Y103.686 E12.29138
G1 X106.04 Y103.686 E12.32647
G1 X105.328 Y104.391 E12.35979
G1 X105.326 Y110.436 E12.56085
G1 X105.292 Y110.531 E12.56421
G1 X105.127 Y110.618 E12.57041
G1 X105.027 Y110.619 E12.57374
G1 X105.03 Y114.565 E12.70498
G1 X105.126 Y114.565 E12.70818
G1 X105.292 Y114.653 E12.71442
G1 X105.326 Y114.765 E12.71832
G1 X105.326 Y116.032 E12.76046
G1 X105.424 Y116.108 E12.76458
G1 X107.712 Y116.113 E12.84068
G1 X107.816 Y116.01 E12.84555
G1 X107.816 Y114.721 E12.88842
G1 X107.85 Y114.653 E12.89095
G1 X108.016 Y114.565 E12.8972
G1 X108.112 Y114.565 E12.90039
M204 S2000
G0 F7500 X107.842 Y114.295
G0 X107.588 Y114.337
G0 X107.244 Y115.54
G0 X107.056 Y115.352
M204 S500
;TYPE:SKIN
G1 F1500 X106.086 Y115.348 E12.93266
G1 X106.084 Y114.735 E12.95304
G1 X106.045 Y114.49 E12.9613
G1 X105.925 Y114.234 E12.9707
G1 X105.79 Y114.136 E12.97625
G1 X105.789 Y111.049 E13.07892
G1 X105.933 Y110.942 E13.08489
G1 X106.083 Y110.498 E13.10048
G1 X106.088 Y104.708 E13.29305
G1 X106.352 Y104.446 E13.30542
G1 X106.783 Y104.446 E13.31976
G1 X107.048 Y104.709 E13.33218
G1 X107.053 Y110.519 E13.52542
G1 X107.215 Y110.952 E13.54079
G1 X107.352 Y111.052 E13.54644
G1 X107.352 Y114.136 E13.64901
G1 X107.217 Y114.234 E13.65456
G1 X107.116 Y114.432 E13.66195
G1 X107.058 Y114.735 E13.67221
G1 X107.056 Y115.352 E13.69273
M204 S2000
G0 F7500 X106.664 Y115.149
M204 S500
G1 F1500 X106.281 Y114.766 E13.71075
M204 S2000
G0 F7500 X106.859 Y114.778
M204 S500
G1 F1500 X105.99 Y113.909 E13.75162
M204 S2000
G0 F7500 X105.99 Y113.344
M204 S500
G1 F1500 X106.954 Y114.308 E13.79697
M204 S2000
G0 F7500 X107.152 Y113.94
M204 S500
G1 F1500 X105.99 Y112.778 E13.85162
M204 S2000
G0 F7500 X105.99 Y112.212
M204 S500
G1 F1500 X107.152 Y113.374 E13.90628
M204 S2000
G0 F7500 X107.152 Y112.808
M204 S500
G1 F1500 X105.99 Y111.647 E13.96092
M204 S2000
G0 F7500 X106.027 Y111.119
M204 S500
G1 F1500 X107.152 Y112.243 E14.01381
M204 S2000
G0 F7500 X107.152 Y111.677
M204 S500
G1 F1500 X106.215 Y110.74 E14.05788
M204 S2000
G0 F7500 X106.282 Y110.242
M204 S500
G1 F1500 X106.998 Y110.958 E14.09156
M204 S2000
G0 F7500 X106.853 Y110.247
M204 S500
G1 F1500 X106.283 Y109.677 E14.11837
M204 S2000
G0 F7500 X106.283 Y109.111
M204 S500
G1 F1500 X106.853 Y109.681 E14.14518
M204 S2000
G0 F7500 X106.852 Y109.115
M204 S500
G1 F1500 X106.283 Y108.546 E14.17195
M204 S2000
G0 F7500 X106.284 Y107.981
M204 S500
G1 F1500 X106.851 Y108.548 E14.19862
M204 S2000
G0 F7500 X106.85 Y107.982
M204 S500
G1 F1500 X106.284 Y107.415 E14.22526
M204 S2000
G0 F7500 X106.285 Y106.85
M204 S500
G1 F1500 X106.85 Y107.416 E14.25186
M204 S2000
G0 F7500 X106.85 Y106.85
M204 S500
G1 F1500 X106.285 Y106.285 E14.27844
M204 S2000
G0 F7500 X106.849 Y106.283
M204 S500
G1 F1500 X106.285 Y105.72 E14.30494
M204 S2000
G0 F7500 X106.848 Y105.717
M204 S500
G1 F1500 X106.286 Y105.155 E14.33138
M204 S2000
G0 F7500 X106.388 Y104.691
M204 S500
G1 F1500 X106.848 Y105.151 E14.35302
M204 S2000
G1 F2400 E13.55302
G0 F7500 X107.309 Y105.151
G0 X107.597 Y110.831
G0 X108.979 Y110.831
G0 X111.023 Y114.352
G0 X112.586 Y115.706
M204 S500
;TYPE:WALL-INNER
G1 F2400 E14.35302
G1 F1500 X114.272 Y115.713 E14.40909
G1 X114.274 Y114.635 E14.44495
G1 X114.376 Y114.429 E14.45259
G1 X114.57 Y114.326 E14.4599
G1 X114.573 Y110.86 E14.57518
G1 X114.375 Y110.755 E14.58263
G1 X114.274 Y110.47 E14.59269
G1 X114.272 Y104.558 E14.78932
G1 X113.798 Y104.088 E14.81152
G1 X113.065 Y104.09 E14.8359
G1 X112.591 Y104.559 E14.85808
G1 X112.585 Y110.47 E15.05468
G1 X112.484 Y110.755 E15.06474
G1 X112.287 Y110.86 E15.07216
G1 X112.289 Y114.326 E15.18744
G1 X112.484 Y114.429 E15.19478
G1 X112.586 Y114.636 E15.20245
G1 X112.586 Y115.706 E15.23804
M204 S2000
G0 F7500 X112.686 Y115.438
G0 X112.413 Y114.337
G0 X112.158 Y114.295
G0 X111.888 Y114.565
M204 S500
;TYPE:WALL-OUTER
G1 F1500 X111.985 Y114.565 E15.24127
G1 X112.152 Y114.653 E15.24755
G1 X112.186 Y114.765 E15.25144
G1 X112.186 Y116.011 E15.29288
G1 X112.267 Y116.106 E15.29703
G1 X114.58 Y116.114 E15.37397
G1 X114.661 Y116.032 E15.3778
G1 X114.674 Y115.674 E15.38971
G1 X114.674 Y114.721 E15.42141
G1 X114.708 Y114.653 E15.42394
G1 X114.874 Y114.565 E15.43019
G1 X114.97 Y114.565 E15.43338
G1 X114.973 Y110.618 E15.56466
G1 X114.871 Y110.618 E15.56805
G1 X114.706 Y110.53 E15.57427
G1 X114.672 Y110.435 E15.57763
G1 X114.672 Y104.392 E15.77862
G1 X113.962 Y103.688 E15.81187
G1 X112.9 Y103.69 E15.8472
G1 X112.191 Y104.392 E15.88038
G1 X112.187 Y110.436 E16.08141
G1 X112.153 Y110.531 E16.08476
G1 X111.988 Y110.618 E16.09097
G1 X111.887 Y110.619 E16.09433
G1 X111.888 Y114.565 E16.22557
M204 S2000
G0 F7500 X112.158 Y114.295
G0 X112.413 Y114.337
G0 X112.758 Y115.535
G0 X112.946 Y115.348
M204 S500
;TYPE:SKIN
G1 F1500 X112.944 Y114.735 E16.24596
G1 X112.905 Y114.493 E16.25411
G1 X112.784 Y114.233 E16.26365
G1 X112.65 Y114.136 E16.26915
G1 X112.647 Y111.05 E16.37179
G1 X112.796 Y110.943 E16.37789
G1 X112.944 Y110.504 E16.3933
G1 X112.951 Y104.708 E16.58608
G1 X113.213 Y104.449 E16.59833
G1 X113.65 Y104.449 E16.61287
G1 X113.912 Y104.709 E16.62514
G1 X113.914 Y110.519 E16.81838
G1 X114.077 Y110.953 E16.8338
G1 X114.212 Y111.052 E16.83937
G1 X114.21 Y114.134 E16.94188
G1 X114.076 Y114.232 E16.9474
G1 X113.973 Y114.436 E16.955
G1 X113.916 Y114.735 E16.96513
G1 X113.914 Y115.351 E16.98561
G1 X112.946 Y115.348 E17.01781
M204 S2000
G0 F7500 X113.451 Y115.148
M204 S500
G1 F1500 X113.142 Y114.839 E17.03234
