;FLAVOR:Marlin
;TIME:2634
;Filament used: 2.38688m
;Layer height: 0.2
;MINX:69.893
;MINY:55.086
;MINZ:0.2
;MAXX:150.109
;MAXY:167.837
;MAXZ:3
;Generated with Cura_SteamEngine 5.4.0
M82 ;absolute extrusion mode
; Ender 3 S1 Start G-code
G92 E0 ; Reset Extruder
G28 ; Home all axes
M420 S1 ;Use bed leveling data
G1 Z10.0 F3000 ; Move Z Axis up little to prevent scratching of Heat Bed
G1 X0 Y0

M104 S205.0
M190 S60
M109 S205.0

G1 X0.1 Y20 Z0.3 F5000.0 ; Move to start position
G1 X0.1 Y200.0 Z0.3 F1500.0 E15 ; Draw the first line
G1 X0.4 Y200.0 Z0.3 F5000.0 ; Move to side a little
G1 X0.4 Y20 Z0.3 F1500.0 E30 ; Draw the second line
G92 E0 ; Reset Extruder
G1 Z2.0 F3000 ; Move Z Axis up little to prevent scratching of Heat Bed
G1 X5 Y20 Z0.3 F5000.0 ; Move over to prevent blob squish
G92 E0
G92 E0
G1 F2400 E-0.8
;LAYER_COUNT:15
;LAYER:0
M107
M204 S2000
G0 F7500 X72.682 Y58.785 Z0.2
M204 S500
;TYPE:SKIRT
G1 F2400 E0
G1 F1500 X73.362 Y58.087 E0.03241
G1 X74.099 Y57.453 E0.06475
G1 X74.889 Y56.884 E0.09713
G1 X75.697 Y56.405 E0.12837
G1 X76.608 Y55.969 E0.16196
G1 X77.486 Y55.64 E0.19315
G1 X78.459 Y55.371 E0.22672
G1 X79.426 Y55.195 E0.25941
G1 X80.573 Y55.1 E0.29769
G1 X81.222 Y55.086 E0.31928
G1 X138.561 Y55.088 E2.22639
G1 X139.293 Y55.1 E2.25074
G1 X140.265 Y55.159 E2.28312
G1 X141.228 Y55.305 E2.31552
G1 X142.175 Y55.536 E2.34794
G1 X143.097 Y55.85 E2.38034
G1 X143.988 Y56.244 E2.41274
G1 X144.838 Y56.713 E2.44503
G1 X145.589 Y57.215 E2.47507
G1 X146.404 Y57.873 E2.50991
G1 X147.102 Y58.551 E2.54228
G1 X147.738 Y59.288 E2.57465
G1 X148.308 Y60.078 E2.60706
G1 X148.77 Y60.854 E2.63709
G1 X149.224 Y61.796 E2.67187
G1 X149.553 Y62.674 E2.70306
G1 X149.822 Y63.646 E2.7366
G1 X149.999 Y64.612 E2.76927
G1 X150.094 Y65.742 E2.80698
G1 X150.109 Y66.417 E2.82944
G1 X150.108 Y72.552 E3.03349
G1 X150.095 Y73.294 E3.05817
G1 X150.034 Y74.266 E3.09057
G1 X149.887 Y75.229 E3.12297
G1 X149.655 Y76.174 E3.15533
G1 X149.366 Y77.03 E3.18538
G1 X149.123 Y77.616 E3.20648
G1 X148.037 Y80.018 E3.29416
G1 X147.076 Y82.316 E3.377
G1 X146.16 Y84.694 E3.46176
G1 X145.34 Y87.017 E3.5437
G1 X144.559 Y89.443 E3.62846
G1 X143.851 Y91.874 E3.71268
G1 X143.216 Y94.316 E3.7966
G1 X142.66 Y96.725 E3.87883
G1 X142.147 Y99.28 E3.96551
G1 X141.967 Y100.225 E3.9975
G1 X141.83 Y100.844 E4.01859
G1 X141.663 Y101.499 E4.04107
G1 X126.785 Y157.604 E5.97163
G1 X126.569 Y158.374 E5.99823
G1 X126.264 Y159.299 E6.03062
G1 X125.908 Y160.129 E6.06066
G1 X125.412 Y161.049 E6.09542
G1 X124.873 Y161.861 E6.12784
G1 X124.265 Y162.62 E6.16018
G1 X123.592 Y163.325 E6.1926
G1 X122.86 Y163.966 E6.22496
G1 X122.11 Y164.516 E6.2559
G1 X121.684 Y164.788 E6.27271
G1 X121.17 Y165.1 E6.29271
G1 X119.565 Y166.034 E6.35447
G1 X118.86 Y166.429 E6.38135
G1 X117.99 Y166.865 E6.41371
G1 X117.086 Y167.223 E6.44605
G1 X116.153 Y167.501 E6.47843
G1 X115.268 Y167.683 E6.50848
G1 X114.246 Y167.802 E6.54271
G1 X113.76 Y167.824 E6.55889
G1 X113.083 Y167.837 E6.58141
G1 X107.046 Y167.835 E6.7822
G1 X106.314 Y167.823 E6.80655
G1 X105.342 Y167.764 E6.83894
G1 X104.379 Y167.618 E6.87133
G1 X103.432 Y167.387 E6.90375
G1 X102.537 Y167.084 E6.93518
G1 X101.324 Y166.528 E6.97956
G1 X100.763 Y166.221 E7.00083
G1 X98.928 Y165.155 E7.07142
G1 X98.301 Y164.776 E7.09578
G1 X97.491 Y164.234 E7.1282
G1 X96.733 Y163.623 E7.16058
G1 X96.082 Y162.998 E7.1906
G1 X95.395 Y162.21 E7.22537
G1 X94.843 Y161.45 E7.25661
G1 X94.325 Y160.583 E7.2902
G1 X93.903 Y159.706 E7.32257
G1 X93.573 Y158.837 E7.35349
G1 X93.228 Y157.651 E7.39457
G1 X78.347 Y101.527 E9.32576
G1 X78.136 Y100.688 E9.35454
G1 X78.006 Y100.097 E9.37466
G1 X77.779 Y98.902 E9.41512
G1 X77.254 Y96.346 E9.50191
G1 X76.691 Y93.948 E9.58383
G1 X76.03 Y91.458 E9.66952
G1 X75.323 Y89.062 E9.75261
G1 X74.543 Y86.677 E9.83607
G1 X73.691 Y84.298 E9.92012
G1 X72.772 Y81.943 E10.0042
G1 X71.786 Y79.614 E10.08831
G1 X70.87 Y77.592 E10.16215
G1 X70.51 Y76.688 E10.19451
G1 X70.231 Y75.754 E10.22693
G1 X70.048 Y74.87 E10.25696
G1 X69.928 Y73.847 E10.29121
G1 X69.903 Y73.266 E10.31056
G1 X69.893 Y72.664 E10.33058
G1 X69.893 Y66.597 E10.53237
G1 X69.905 Y65.894 E10.55576
G1 X69.965 Y64.922 E10.58815
G1 X70.112 Y63.96 E10.62051
G1 X70.343 Y63.013 E10.65294
G1 X70.644 Y62.126 E10.68409
G1 X71.05 Y61.201 E10.71769
G1 X71.485 Y60.409 E10.74774
G1 X72.068 Y59.543 E10.78246
G1 X72.682 Y58.785 E10.81491
M204 S2000
G0 F7500 X72.969 Y59.064
M204 S500
G1 F1500 X73.623 Y58.39 E10.84614
G1 X74.333 Y57.777 E10.87734
G1 X75.094 Y57.228 E10.90855
G1 X75.87 Y56.766 E10.93859
G1 X76.748 Y56.344 E10.97099
G1 X77.626 Y56.015 E11.00218
G1 X78.531 Y55.764 E11.03341
G1 X79.459 Y55.594 E11.06479
G1 X80.606 Y55.499 E11.10307
G1 X81.222 Y55.486 E11.12356
G1 X138.555 Y55.488 E13.03047
G1 X139.269 Y55.499 E13.05422
G1 X140.206 Y55.555 E13.08544
G1 X141.134 Y55.694 E13.11665
G1 X142.047 Y55.915 E13.14789
G1 X142.936 Y56.216 E13.17911
G1 X143.795 Y56.594 E13.21032
G1 X144.616 Y57.046 E13.2415
G1 X145.367 Y57.548 E13.27154
G1 X146.126 Y58.16 E13.30397
G1 X146.8 Y58.813 E13.33518
G1 X147.414 Y59.522 E13.36638
G1 X147.964 Y60.283 E13.39761
G1 X148.426 Y61.059 E13.42764
G1 X148.849 Y61.936 E13.46003
G1 X149.178 Y62.814 E13.49121
G1 X149.429 Y63.719 E13.52245
G1 X149.6 Y64.646 E13.5538
G1 X149.695 Y65.776 E13.59152
G1 X149.709 Y66.417 E13.61284
G1 X149.708 Y72.545 E13.81666
G1 X149.696 Y73.27 E13.84078
G1 X149.639 Y74.206 E13.87197
G1 X149.498 Y75.134 E13.90319
G1 X149.276 Y76.046 E13.93441
G1 X148.987 Y76.902 E13.96446
G1 X148.759 Y77.451 E13.98423
G1 X147.673 Y79.853 E14.07191
G1 X146.707 Y82.162 E14.15515
G1 X145.787 Y84.55 E14.24027
G1 X144.959 Y86.894 E14.32295
G1 X144.178 Y89.32 E14.40772
G1 X143.467 Y91.762 E14.49231
G1 X142.829 Y94.215 E14.57661
G1 X142.27 Y96.635 E14.65922
G1 X141.755 Y99.201 E14.74627
G1 X141.577 Y100.138 E14.77799
G1 X141.442 Y100.745 E14.79868
G1 X141.276 Y101.396 E14.82102
G1 X126.4 Y157.496 E16.7514
G1 X126.189 Y158.249 E16.77741
G1 X125.896 Y159.141 E16.80864
G1 X125.54 Y159.971 E16.83867
G1 X125.078 Y160.828 E16.87106
G1 X124.56 Y161.611 E16.90228
G1 X123.975 Y162.344 E16.93347
G1 X123.328 Y163.024 E16.96469
G1 X122.623 Y163.643 E16.9959
G1 X121.873 Y164.193 E17.02683
G1 X121.477 Y164.446 E17.04246
G1 X120.969 Y164.754 E17.06222
G1 X119.369 Y165.685 E17.12379
G1 X118.68 Y166.072 E17.15007
G1 X117.842 Y166.493 E17.18126
G1 X116.971 Y166.84 E17.21245
G1 X116.072 Y167.109 E17.24366
G1 X115.187 Y167.291 E17.27371
G1 X114.228 Y167.402 E17.30582
G1 X113.752 Y167.424 E17.32167
G1 X113.083 Y167.437 E17.34392
G1 X107.052 Y167.435 E17.54452
G1 X106.338 Y167.424 E17.56827
G1 X105.401 Y167.368 E17.59949
G1 X104.473 Y167.229 E17.6307
G1 X103.56 Y167.008 E17.66194
G1 X102.704 Y166.72 E17.69198
G1 X101.491 Y166.164 E17.73636
G1 X100.964 Y165.875 E17.75635
G1 X99.135 Y164.813 E17.82669
G1 X98.523 Y164.443 E17.85048
G1 X97.742 Y163.922 E17.88171
G1 X97.01 Y163.334 E17.91293
G1 X96.359 Y162.709 E17.94295
G1 X95.719 Y161.975 E17.97534
G1 X95.167 Y161.215 E18.00658
G1 X94.685 Y160.409 E18.03782
G1 X94.277 Y159.564 E18.06903
G1 X93.947 Y158.695 E18.09994
G1 X93.615 Y157.548 E18.13966
G1 X78.735 Y101.429 E20.07068
G1 X78.527 Y100.602 E20.09905
G1 X78.399 Y100.022 E20.1188
G1 X78.172 Y98.827 E20.15926
G1 X77.646 Y96.266 E20.24622
G1 X77.078 Y93.845 E20.32892
G1 X76.417 Y91.355 E20.41461
G1 X75.707 Y88.949 E20.49805
G1 X74.92 Y86.542 E20.58227
G1 X74.068 Y84.163 E20.66632
G1 X73.145 Y81.798 E20.75076
G1 X72.154 Y79.458 E20.83528
G1 X71.241 Y77.444 E20.90883
G1 X70.893 Y76.573 E20.94002
G1 X70.623 Y75.673 E20.97128
G1 X70.44 Y74.789 E21.0013
G1 X70.328 Y73.829 E21.03345
G1 X70.303 Y73.259 E21.05242
G1 X70.293 Y72.657 E21.07245
G1 X70.293 Y66.603 E21.27381
G1 X70.304 Y65.918 E21.29659
G1 X70.361 Y64.982 E21.32778
G1 X70.501 Y64.054 E21.359
G1 X70.722 Y63.141 E21.39024
G1 X71.011 Y62.286 E21.42026
G1 X71.401 Y61.394 E21.45264
G1 X71.836 Y60.602 E21.48269
G1 X72.379 Y59.794 E21.51507
G1 X72.969 Y59.064 E21.54629
M204 S2000
G0 F7500 X73.257 Y59.342
M204 S500
G1 F1500 X73.885 Y58.692 E21.57635
G1 X74.567 Y58.101 E21.60637
G1 X75.299 Y57.572 E21.6364
G1 X76.075 Y57.11 E21.66644
G1 X76.889 Y56.718 E21.69649
G1 X77.734 Y56.4 E21.72652
G1 X78.604 Y56.157 E21.75656
G1 X79.492 Y55.993 E21.7866
G1 X80.615 Y55.899 E21.82408
G1 X81.222 Y55.886 E21.84427
G1 X138.549 Y55.888 E23.75098
G1 X139.246 Y55.898 E23.77416
G1 X140.148 Y55.951 E23.80421
G1 X141.041 Y56.083 E23.83424
G1 X141.919 Y56.294 E23.86427
G1 X142.775 Y56.582 E23.89431
G1 X143.603 Y56.945 E23.92438
G1 X144.394 Y57.379 E23.95439
G1 X145.145 Y57.881 E23.98443
G1 X145.848 Y58.448 E24.01447
G1 X146.498 Y59.075 E24.04451
G1 X147.09 Y59.757 E24.07455
G1 X147.62 Y60.488 E24.10458
G1 X148.082 Y61.264 E24.13462
G1 X148.475 Y62.077 E24.16465
G1 X148.793 Y62.922 E24.19468
G1 X149.036 Y63.792 E24.22472
G1 X149.201 Y64.68 E24.25477
G1 X149.296 Y65.81 E24.29248
G1 X149.309 Y66.417 E24.31268
G1 X149.308 Y72.539 E24.51629
G1 X149.297 Y73.246 E24.53981
G1 X149.243 Y74.147 E24.56983
G1 X149.109 Y75.04 E24.59987
G1 X148.897 Y75.918 E24.62991
G1 X148.608 Y76.774 E24.65996
G1 X148.394 Y77.286 E24.67841
G1 X147.309 Y79.688 E24.76608
G1 X146.338 Y82.008 E24.84973
G1 X145.414 Y84.406 E24.9352
G1 X144.578 Y86.771 E25.01863
G1 X143.797 Y89.197 E25.1034
G1 X143.083 Y91.65 E25.18837
G1 X142.442 Y94.114 E25.27305
G1 X141.88 Y96.545 E25.35604
G1 X141.363 Y99.122 E25.44346
G1 X141.186 Y100.051 E25.47491
G1 X141.054 Y100.646 E25.49518
G1 X140.889 Y101.293 E25.51739
G1 X126.015 Y157.388 E27.44759
G1 X125.809 Y158.125 E27.47305
G1 X125.528 Y158.983 E27.50308
G1 X125.172 Y159.813 E27.53311
G1 X124.744 Y160.608 E27.56314
G1 X124.247 Y161.362 E27.59318
G1 X123.685 Y162.069 E27.62322
G1 X123.063 Y162.724 E27.65326
G1 X122.386 Y163.321 E27.68328
G1 X121.658 Y163.856 E27.71333
G1 X121.27 Y164.104 E27.72865
G1 X120.768 Y164.408 E27.74817
G1 X119.173 Y165.336 E27.80954
G1 X118.5 Y165.715 E27.83523
G1 X117.694 Y166.122 E27.86526
G1 X116.856 Y166.457 E27.89528
G1 X115.991 Y166.717 E27.92532
G1 X115.106 Y166.899 E27.95537
G1 X114.209 Y167.002 E27.9854
G1 X113.744 Y167.024 E28.00089
G1 X113.083 Y167.037 E28.02288
G1 X107.058 Y167.035 E28.22327
G1 X106.361 Y167.025 E28.24645
G1 X105.459 Y166.972 E28.27651
G1 X104.566 Y166.84 E28.30653
G1 X103.688 Y166.629 E28.33656
G1 X102.832 Y166.341 E28.3666
G1 X101.683 Y165.813 E28.40866
G1 X101.165 Y165.529 E28.42831
G1 X99.342 Y164.471 E28.49841
G1 X98.744 Y164.11 E28.52165
G1 X97.992 Y163.61 E28.55168
G1 X97.287 Y163.045 E28.58173
G1 X96.636 Y162.42 E28.61175
G1 X96.042 Y161.739 E28.6418
G1 X95.51 Y161.009 E28.67185
G1 X95.045 Y160.235 E28.70188
G1 X94.651 Y159.422 E28.73193
G1 X94.33 Y158.578 E28.76196
G1 X94.197 Y158.142 E28.77712
G1 X94.002 Y157.445 E28.80119
G1 X79.123 Y101.332 E30.73202
G1 X78.918 Y100.516 E30.76
G1 X78.792 Y99.947 E30.77938
G1 X78.565 Y98.752 E30.81984
G1 X78.038 Y96.186 E30.90697
G1 X77.465 Y93.742 E30.99046
G1 X76.804 Y91.252 E31.07614
G1 X76.091 Y88.836 E31.15993
G1 X75.297 Y86.407 E31.24492
G1 X74.445 Y84.028 E31.32897
G1 X73.517 Y81.652 E31.41381
G1 X72.522 Y79.302 E31.49869
G1 X71.612 Y77.295 E31.57198
G1 X71.276 Y76.457 E31.60201
G1 X71.015 Y75.592 E31.63206
G1 X70.832 Y74.708 E31.66209
G1 X70.728 Y73.811 E31.69212
G1 X70.703 Y73.252 E31.71073
G1 X70.693 Y72.65 E31.73076
G1 X70.693 Y66.609 E31.93168
G1 X70.703 Y65.942 E31.95387
G1 X70.757 Y65.041 E31.98389
G1 X70.89 Y64.147 E32.01395
G1 X71.101 Y63.269 E32.04399
G1 X71.39 Y62.414 E32.07401
G1 X71.752 Y61.587 E32.10403
G1 X72.187 Y60.795 E32.13408
G1 X72.69 Y60.045 E32.16412
G1 X73.257 Y59.342 E32.19416
M204 S2000
G1 F2400 E31.39416
;MESH:new-Center-Support-Free.STL
G0 F7500 X88.335 Y97.538
G0 X106.667 Y156.236
M204 S500
;TYPE:WALL-INNER
G1 F2400 E32.19416
G1 F1500 X113.335 Y156.236 E32.41594
G1 X115.479 Y154.991 E32.4984
G1 X130.546 Y98.171 E34.45355
G1 X127.33 Y93.009 E34.65584
G1 X127.24 Y92.691 E34.66683
G1 X127.24 Y92.291 E34.68013
G1 X121.787 Y92.289 E34.8615
G1 X121.476 Y92.169 E34.87259
G1 X121.323 Y91.998 E34.88022
G1 X121.241 Y91.731 E34.88951
G1 X121.244 Y81.032 E35.24536
G1 X121.374 Y80.723 E35.25651
G1 X121.543 Y80.581 E35.26385
G1 X121.767 Y80.503 E35.27174
G1 X127.24 Y80.503 E35.45377
G1 X127.24 Y80.102 E35.46711
G1 X127.335 Y79.777 E35.47837
G1 X127.464 Y79.628 E35.48493
G1 X138.509 Y72.754 E35.91762
G1 X138.509 Y66.687 E36.11941
G1 X81.493 Y66.687 E38.01577
G1 X81.493 Y72.754 E38.21756
G1 X92.514 Y79.629 E38.64959
G1 X92.64 Y79.776 E38.65603
G1 X92.735 Y80.101 E38.66729
G1 X92.735 Y80.502 E38.68063
G1 X98.129 Y80.503 E38.86004
G1 X98.353 Y80.581 E38.86793
G1 X98.578 Y80.805 E38.87849
G1 X98.654 Y81.05 E38.88702
G1 X98.654 Y91.744 E39.2427
G1 X98.573 Y91.998 E39.25157
G1 X98.423 Y92.167 E39.25908
G1 X98.11 Y92.289 E39.27026
G1 X92.735 Y92.291 E39.44903
G1 X92.735 Y92.691 E39.46233
G1 X92.645 Y93.009 E39.47333
G1 X89.448 Y98.141 E39.67443
G1 X104.523 Y154.991 E41.63062
G1 X106.667 Y156.236 E41.71308
M204 S2000
G0 F7500 X106.559 Y156.636
M204 S500
;TYPE:WALL-OUTER
G1 F1500 X113.443 Y156.636 E41.94204
G1 X115.823 Y155.254 E42.03358
G1 X130.977 Y98.106 E44.00002
G1 X127.67 Y92.797 E44.20805
G1 X127.64 Y92.691 E44.21172
G1 X127.64 Y91.891 E44.23832
G1 X121.806 Y91.889 E44.43236
G1 X121.667 Y91.794 E44.43796
G1 X121.64 Y91.705 E44.44106
G1 X121.641 Y81.057 E44.79521
G1 X121.724 Y80.939 E44.80001
G1 X121.805 Y80.905 E44.80293
G1 X127.64 Y80.903 E44.997
G1 X127.64 Y80.102 E45.02364
G1 X127.708 Y79.951 E45.02915
G1 X138.909 Y72.976 E45.46803
G1 X138.909 Y66.287 E45.6905
G1 X81.093 Y66.287 E47.61347
G1 X81.093 Y72.976 E47.83595
G1 X92.297 Y79.969 E48.27522
G1 X92.335 Y80.101 E48.27979
G1 X92.335 Y80.902 E48.30643
G1 X98.091 Y80.905 E48.49788
G1 X98.212 Y80.976 E48.50255
G1 X98.256 Y81.085 E48.50646
G1 X98.255 Y91.718 E48.86011
G1 X98.19 Y91.841 E48.86474
G1 X98.091 Y91.889 E48.8684
G1 X92.335 Y91.891 E49.05984
G1 X92.335 Y92.691 E49.08645
G1 X92.305 Y92.797 E49.09011
G1 X89.017 Y98.076 E49.29697
G1 X104.179 Y155.254 E51.26444
G1 X106.559 Y156.636 E51.35598
M204 S2000
G0 F7500 X106.765 Y155.876
M204 S500
;TYPE:SKIN
G1 F1500 X104.832 Y154.753 E51.43033
G1 X89.834 Y98.201 E53.37628
G1 X92.964 Y93.175 E53.57321
G1 X93.115 Y92.651 E53.59135
G1 X98.066 Y92.651 E53.75602
G1 X98.374 Y92.596 E53.76643
G1 X98.718 Y92.392 E53.77973
G1 X98.89 Y92.175 E53.78894
G1 X99.015 Y91.756 E53.80348
G1 X99.01 Y81.011 E54.16086
G1 X98.887 Y80.624 E54.17437
G1 X98.608 Y80.317 E54.18817
G1 X98.17 Y80.149 E54.20377
G1 X93.115 Y80.142 E54.3719
G1 X92.953 Y79.587 E54.39113
G1 X92.723 Y79.334 E54.4025
G1 X81.853 Y72.554 E54.8286
G1 X81.853 Y67.047 E55.01177
G1 X138.149 Y67.047 E56.88418
G1 X138.149 Y72.554 E57.06734
G1 X127.256 Y79.333 E57.49407
G1 X127.022 Y79.586 E57.50554
G1 X126.86 Y80.143 E57.52483
G1 X121.719 Y80.144 E57.69582
G1 X121.276 Y80.322 E57.7117
G1 X120.972 Y80.68 E57.72732
G1 X120.881 Y81.044 E57.7398
G1 X120.886 Y91.805 E58.09771
G1 X121.01 Y92.183 E58.11094
G1 X121.253 Y92.457 E58.12312
G1 X121.546 Y92.606 E58.13406
G1 X121.773 Y92.649 E58.14174
G1 X126.861 Y92.651 E58.31097
G1 X127.01 Y93.176 E58.32912
G1 X130.16 Y98.231 E58.52722
G1 X115.17 Y154.753 E60.47214
G1 X113.237 Y155.875 E60.54648
G1 X106.765 Y155.876 E60.76174
M204 S2000
G0 F7500 X106.766 Y156.136
G0 X104.664 Y154.884
G0 X104.414 Y154.189
G0 X104.858 Y154.072
M204 S500
G1 F1500 X105.964 Y155.179 E60.81378
M204 S2000
G0 F7500 X105.732 Y155.577
G0 X106.524 Y155.979
G0 X107.026 Y156.136
G0 X107.025 Y155.674
M204 S500
G1 F1500 X104.653 Y153.302 E60.92535
M204 S2000
G0 F7500 X104.449 Y152.532
M204 S500
G1 F1500 X107.591 Y155.674 E61.07314
M204 S2000
G0 F7500 X108.156 Y155.674
M204 S500
G1 F1500 X104.245 Y151.763 E61.25711
M204 S2000
G0 F7500 X104.041 Y150.993
M204 S500
G1 F1500 X108.722 Y155.674 E61.47729
M204 S2000
G0 F7500 X109.288 Y155.674
M204 S500
G1 F1500 X103.837 Y150.223 E61.73368
M204 S2000
G0 F7500 X103.632 Y149.453
M204 S500
G1 F1500 X109.853 Y155.674 E62.0263
M204 S2000
G0 F7500 X110.419 Y155.674
M204 S500
G1 F1500 X103.429 Y148.684 E62.35509
M204 S2000
G0 F7500 X103.224 Y147.914
M204 S500
G1 F1500 X110.985 Y155.674 E62.72012
M204 S2000
G0 F7500 X111.551 Y155.674
M204 S500
