;FLAVOR:Marlin
;TIME:2651
;Filament used: 2.39177m
;Layer height: 0.2
;MINX:69.896
;MINY:53.625
;MINZ:0.2
;MAXX:138.912
;MAXY:166.375
;MAXZ:3.2
;Generated with Cura_SteamEngine 5.4.0
M82 ;absolute extrusion mode
; Ender 3 S1 Start G-code
G92 E0 ; Reset Extruder
G28 ; Home all axes
M420 S1 ;Use bed leveling data
G1 Z10.0 F3000 ; Move Z Axis up little to prevent scratching of Heat Bed
G1 X0 Y0

M104 S205.0
M190 S60
M109 S205.0

G1 X0.1 Y20 Z0.3 F5000.0 ; Move to start position
G1 X0.1 Y200.0 Z0.3 F1500.0 E15 ; Draw the first line
G1 X0.4 Y200.0 Z0.3 F5000.0 ; Move to side a little
G1 X0.4 Y20 Z0.3 F1500.0 E30 ; Draw the second line
G92 E0 ; Reset Extruder
G1 Z2.0 F3000 ; Move Z Axis up little to prevent scratching of Heat Bed
G1 X5 Y20 Z0.3 F5000.0 ; Move over to prevent blob squish
G92 E0
G92 E0
G1 F2400 E-0.8
;LAYER_COUNT:16
;LAYER:0
M107
M204 S2000
G0 F7500 X72.071 Y58.079 Z0.2
M204 S500
;TYPE:SKIRT
G1 F2400 E0
G1 F1500 X72.662 Y57.351 E0.03119
G1 X73.364 Y56.626 E0.06475
G1 X74.074 Y56.012 E0.09597
G1 X74.893 Y55.422 E0.12955
G1 X75.732 Y54.926 E0.16196
G1 X76.546 Y54.535 E0.192
G1 X77.523 Y54.167 E0.22672
G1 X78.427 Y53.917 E0.25792
G1 X79.429 Y53.734 E0.2918
G1 X80.6 Y53.638 E0.33087
G1 X81.207 Y53.625 E0.35107
G1 X120.627 Y53.625 E1.66218
G1 X121.501 Y53.638 E1.69125
G1 X122.474 Y53.697 E1.72368
G1 X123.436 Y53.844 E1.75604
G1 X124.383 Y54.075 E1.78846
G1 X125.239 Y54.363 E1.8185
G1 X126.195 Y54.782 E1.85322
G1 X127.048 Y55.253 E1.88563
G1 X127.854 Y55.798 E1.91799
G1 X128.611 Y56.412 E1.95041
G1 X129.31 Y57.09 E1.9828
G1 X129.946 Y57.828 E2.0152
G1 X130.513 Y58.618 E2.04754
G1 X131.01 Y59.456 E2.07995
G1 X131.416 Y60.303 E2.11119
G1 X131.77 Y61.247 E2.14472
G1 X132.029 Y62.187 E2.17715
G1 X132.205 Y63.154 E2.20984
G1 X132.303 Y64.367 E2.25032
G1 X132.328 Y65.476 E2.28721
G1 X132.375 Y74.527 E2.58825
G1 X132.426 Y77.129 E2.67481
G1 X132.505 Y78.908 E2.73404
G1 X132.527 Y79.851 E2.76541
G1 X132.524 Y90.463 E3.11837
G1 X132.341 Y133.133 E4.53759
G1 X132.323 Y134.034 E4.56757
G1 X132.257 Y135.005 E4.59994
G1 X132.11 Y135.952 E4.63181
G1 X131.998 Y136.451 E4.64882
G1 X131.824 Y137.15 E4.67278
G1 X126.81 Y156.056 E5.32333
G1 X126.568 Y156.922 E5.35324
G1 X126.273 Y157.813 E5.38446
G1 X125.873 Y158.739 E5.41801
G1 X125.408 Y159.595 E5.45041
G1 X124.868 Y160.407 E5.48284
G1 X124.261 Y161.165 E5.51514
G1 X123.587 Y161.87 E5.54758
G1 X122.855 Y162.51 E5.57992
G1 X122.104 Y163.061 E5.6109
G1 X121.68 Y163.33 E5.6276
G1 X121.008 Y163.735 E5.6537
G1 X119.513 Y164.601 E5.71116
G1 X118.848 Y164.973 E5.7365
G1 X117.978 Y165.41 E5.76889
G1 X117.139 Y165.744 E5.79892
G1 X116.137 Y166.042 E5.83369
G1 X115.253 Y166.223 E5.8637
G1 X113.819 Y166.36 E5.91161
G1 X113.231 Y166.373 E5.93118
G1 X107.204 Y166.375 E6.13164
G1 X106.316 Y166.362 E6.16117
G1 X105.345 Y166.303 E6.19353
G1 X104.381 Y166.157 E6.22596
G1 X103.434 Y165.926 E6.25838
G1 X102.502 Y165.608 E6.29113
G1 X101.345 Y165.078 E6.33346
G1 X100.781 Y164.769 E6.35485
G1 X98.984 Y163.724 E6.42399
G1 X98.344 Y163.342 E6.44878
G1 X97.561 Y162.824 E6.48
G1 X96.772 Y162.195 E6.51356
G1 X96.118 Y161.573 E6.54358
G1 X95.428 Y160.788 E6.57834
G1 X94.854 Y160.001 E6.61074
G1 X94.352 Y159.167 E6.64312
G1 X93.926 Y158.292 E6.67549
G1 X93.592 Y157.424 E6.70642
G1 X93.432 Y156.906 E6.72445
G1 X93.219 Y156.151 E6.75054
G1 X78.362 Y100.113 E8.67877
G1 X78.145 Y99.25 E8.70837
G1 X78.016 Y98.663 E8.72836
G1 X77.776 Y97.403 E8.77102
G1 X77.265 Y94.913 E8.85556
G1 X76.704 Y92.518 E8.93737
G1 X76.05 Y90.048 E9.02236
G1 X75.334 Y87.626 E9.10636
G1 X74.561 Y85.255 E9.18931
G1 X73.702 Y82.854 E9.27412
G1 X72.79 Y80.518 E9.35753
G1 X71.81 Y78.201 E9.4412
G1 X70.873 Y76.132 E9.51674
G1 X70.513 Y75.228 E9.54911
G1 X70.234 Y74.294 E9.58153
G1 X70.051 Y73.41 E9.61155
G1 X69.931 Y72.386 E9.64585
G1 X69.906 Y71.797 E9.66545
G1 X69.896 Y71.168 E9.68638
G1 X69.896 Y65.134 E9.88707
G1 X69.908 Y64.433 E9.91039
G1 X69.968 Y63.46 E9.94281
G1 X70.115 Y62.499 E9.97515
G1 X70.346 Y61.551 E10.0076
G1 X70.648 Y60.662 E10.03883
G1 X71.055 Y59.74 E10.07235
G1 X71.526 Y58.888 E10.10473
G1 X72.071 Y58.079 E10.13717
M204 S2000
G0 F7500 X72.382 Y58.331
M204 S500
G1 F1500 X72.973 Y57.603 E10.16836
G1 X73.626 Y56.929 E10.19957
G1 X74.336 Y56.315 E10.23079
G1 X75.097 Y55.766 E10.262
G1 X75.905 Y55.287 E10.29324
G1 X76.719 Y54.896 E10.32328
G1 X77.63 Y54.553 E10.35565
G1 X78.534 Y54.303 E10.38685
G1 X79.462 Y54.133 E10.41823
G1 X80.609 Y54.038 E10.45651
G1 X81.216 Y54.025 E10.4767
G1 X120.621 Y54.025 E11.78732
G1 X121.477 Y54.037 E11.81579
G1 X122.414 Y54.093 E11.84701
G1 X123.342 Y54.233 E11.87823
G1 X124.255 Y54.454 E11.90947
G1 X125.111 Y54.742 E11.93951
G1 X126.002 Y55.132 E11.97186
G1 X126.825 Y55.585 E12.0031
G1 X127.603 Y56.109 E12.0343
G1 X128.333 Y56.699 E12.06552
G1 X129.007 Y57.352 E12.09673
G1 X129.621 Y58.062 E12.12795
G1 X130.169 Y58.823 E12.15914
G1 X130.649 Y59.629 E12.19035
G1 X131.055 Y60.476 E12.22159
G1 X131.385 Y61.354 E12.25278
G1 X131.636 Y62.259 E12.28402
G1 X131.806 Y63.187 E12.3154
G1 X131.903 Y64.376 E12.35508
G1 X131.928 Y65.478 E12.39174
G1 X131.975 Y74.535 E12.69298
G1 X132.026 Y77.147 E12.77987
G1 X132.105 Y78.917 E12.8388
G1 X132.127 Y79.851 E12.86987
G1 X132.124 Y90.461 E13.22276
G1 X131.941 Y133.125 E14.64179
G1 X131.924 Y134.008 E14.67116
G1 X131.862 Y134.944 E14.70236
G1 X131.72 Y135.864 E14.73332
G1 X131.61 Y136.354 E14.75003
G1 X131.437 Y137.047 E14.77378
G1 X126.425 Y155.948 E15.42416
G1 X126.188 Y156.796 E15.45345
G1 X125.893 Y157.687 E15.48466
G1 X125.521 Y158.549 E15.51589
G1 X125.075 Y159.374 E15.54708
G1 X124.556 Y160.157 E15.57832
G1 X123.971 Y160.889 E15.60949
G1 X123.323 Y161.569 E15.64073
G1 X122.618 Y162.187 E15.67191
G1 X121.867 Y162.738 E15.70289
G1 X121.474 Y162.987 E15.71837
G1 X120.807 Y163.389 E15.74427
G1 X119.318 Y164.252 E15.80151
G1 X118.668 Y164.616 E15.82629
G1 X117.83 Y165.038 E15.8575
G1 X116.991 Y165.372 E15.88753
G1 X116.057 Y165.65 E15.91994
G1 X115.173 Y165.831 E15.94996
G1 X113.81 Y165.96 E15.99549
G1 X113.231 Y165.973 E16.01475
G1 X107.21 Y165.975 E16.21501
G1 X106.34 Y165.963 E16.24395
G1 X105.404 Y165.907 E16.27514
G1 X104.475 Y165.768 E16.30638
G1 X103.562 Y165.547 E16.33763
G1 X102.668 Y165.244 E16.36902
G1 X101.537 Y164.727 E16.41038
G1 X100.982 Y164.423 E16.43143
G1 X99.189 Y163.381 E16.5004
G1 X98.565 Y163.008 E16.52458
G1 X97.782 Y162.49 E16.55581
G1 X97.048 Y161.905 E16.58703
G1 X96.394 Y161.283 E16.61705
G1 X95.751 Y160.552 E16.64943
G1 X95.196 Y159.794 E16.68067
G1 X94.711 Y158.991 E16.71188
G1 X94.299 Y158.148 E16.74308
G1 X93.974 Y157.306 E16.7731
G1 X93.817 Y156.798 E16.79079
G1 X93.606 Y156.048 E16.8167
G1 X78.75 Y100.015 E18.74476
G1 X78.536 Y99.164 E18.77394
G1 X78.409 Y98.588 E18.79356
G1 X78.169 Y97.328 E18.83622
G1 X77.657 Y94.833 E18.92093
G1 X77.091 Y92.416 E19.0035
G1 X76.437 Y89.946 E19.08848
G1 X75.718 Y87.513 E19.17286
G1 X74.938 Y85.12 E19.25658
G1 X74.079 Y82.719 E19.34139
G1 X73.163 Y80.373 E19.42516
G1 X72.178 Y78.045 E19.50923
G1 X71.244 Y75.984 E19.58449
G1 X70.896 Y75.113 E19.61569
G1 X70.626 Y74.213 E19.64694
G1 X70.443 Y73.329 E19.67696
G1 X70.331 Y72.369 E19.70911
G1 X70.306 Y71.791 E19.72835
G1 X70.296 Y71.162 E19.74928
G1 X70.296 Y65.14 E19.94957
G1 X70.307 Y64.457 E19.97229
G1 X70.364 Y63.52 E20.00351
G1 X70.504 Y62.593 E20.03469
G1 X70.725 Y61.68 E20.06594
G1 X71.027 Y60.791 E20.09716
G1 X71.405 Y59.933 E20.12835
G1 X71.858 Y59.111 E20.15956
G1 X72.382 Y58.331 E20.19082
M204 S2000
G0 F7500 X72.693 Y58.583
M204 S500
G1 F1500 X73.261 Y57.881 E20.22085
G1 X73.888 Y57.231 E20.25089
G1 X74.57 Y56.639 E20.28093
G1 X75.302 Y56.11 E20.31097
G1 X76.078 Y55.648 E20.341
G1 X76.892 Y55.257 E20.37104
G1 X77.737 Y54.938 E20.40108
G1 X78.607 Y54.696 E20.43111
G1 X79.495 Y54.532 E20.46115
G1 X80.618 Y54.438 E20.49863
G1 X81.225 Y54.425 E20.51882
G1 X120.616 Y54.425 E21.82897
G1 X121.454 Y54.436 E21.85685
G1 X122.355 Y54.489 E21.88687
G1 X123.249 Y54.622 E21.91693
G1 X124.127 Y54.833 E21.94696
G1 X124.983 Y55.121 E21.977
G1 X125.81 Y55.483 E22.00703
G1 X126.602 Y55.917 E22.03707
G1 X127.352 Y56.42 E22.0671
G1 X128.055 Y56.987 E22.09714
G1 X128.705 Y57.614 E22.12718
G1 X129.297 Y58.296 E22.15722
G1 X129.826 Y59.028 E22.18725
G1 X130.289 Y59.803 E22.21728
G1 X130.681 Y60.617 E22.24733
G1 X131 Y61.462 E22.27737
G1 X131.243 Y62.332 E22.30742
G1 X131.407 Y63.22 E22.33745
G1 X131.503 Y64.385 E22.37633
G1 X131.528 Y65.48 E22.41276
G1 X131.575 Y74.543 E22.7142
G1 X131.626 Y77.165 E22.80142
G1 X131.705 Y78.927 E22.86009
G1 X131.727 Y79.851 E22.89083
G1 X131.724 Y90.459 E23.24365
G1 X131.541 Y133.118 E24.66251
G1 X131.525 Y133.982 E24.69125
G1 X131.467 Y134.883 E24.72128
G1 X131.33 Y135.776 E24.75133
G1 X131.222 Y136.257 E24.76772
G1 X131.05 Y136.944 E24.79128
G1 X126.04 Y155.84 E25.44148
G1 X125.808 Y156.671 E25.47017
G1 X125.526 Y157.529 E25.50021
G1 X125.169 Y158.359 E25.53026
G1 X124.741 Y159.154 E25.56029
G1 X124.243 Y159.908 E25.59035
G1 X123.681 Y160.614 E25.62036
G1 X123.059 Y161.269 E25.65041
G1 X122.381 Y161.865 E25.68043
G1 X121.653 Y162.4 E25.71048
G1 X121.268 Y162.644 E25.72564
G1 X120.606 Y163.043 E25.75135
G1 X119.122 Y163.903 E25.80839
G1 X118.488 Y164.259 E25.83258
G1 X117.682 Y164.666 E25.86261
G1 X116.843 Y165 E25.89265
G1 X115.977 Y165.258 E25.9227
G1 X115.093 Y165.439 E25.95271
G1 X113.801 Y165.56 E25.99587
G1 X113.231 Y165.573 E26.01483
G1 X107.215 Y165.575 E26.21493
G1 X106.363 Y165.564 E26.24327
G1 X105.462 Y165.511 E26.27329
G1 X104.568 Y165.379 E26.30334
G1 X103.69 Y165.168 E26.33338
G1 X102.834 Y164.88 E26.36342
G1 X101.703 Y164.363 E26.40478
G1 X101.183 Y164.077 E26.42452
G1 X99.394 Y163.038 E26.49333
G1 X98.785 Y162.674 E26.51692
G1 X98.031 Y162.177 E26.54696
G1 X97.324 Y161.615 E26.577
G1 X96.67 Y160.993 E26.60702
G1 X96.073 Y160.315 E26.63706
G1 X95.538 Y159.587 E26.66711
G1 X95.07 Y158.815 E26.69714
G1 X94.672 Y158.004 E26.72719
G1 X94.347 Y157.162 E26.75721
G1 X94.202 Y156.69 E26.77363
G1 X93.993 Y155.945 E26.79936
G1 X79.138 Y99.918 E28.72722
G1 X78.927 Y99.078 E28.75602
G1 X78.802 Y98.513 E28.77527
G1 X78.562 Y97.253 E28.81793
G1 X78.049 Y94.753 E28.90281
G1 X77.478 Y92.314 E28.98613
G1 X76.824 Y89.844 E29.07111
G1 X76.102 Y87.4 E29.15587
G1 X75.315 Y84.985 E29.24035
G1 X74.456 Y82.584 E29.32517
G1 X73.536 Y80.228 E29.40929
G1 X72.546 Y77.889 E29.49377
G1 X71.615 Y75.835 E29.56877
G1 X71.279 Y74.997 E29.5988
G1 X71.018 Y74.132 E29.62885
G1 X70.835 Y73.248 E29.65888
G1 X70.731 Y72.351 E29.68891
G1 X70.706 Y71.785 E29.70776
G1 X70.696 Y71.156 E29.72868
G1 X70.696 Y65.146 E29.92857
G1 X70.706 Y64.481 E29.9507
G1 X70.76 Y63.579 E29.98075
G1 X70.893 Y62.686 E30.01078
G1 X71.104 Y61.808 E30.04081
G1 X71.393 Y60.952 E30.07086
G1 X71.756 Y60.125 E30.1009
G1 X72.19 Y59.334 E30.13091
G1 X72.693 Y58.583 E30.16097
M204 S2000
G1 F2400 E29.36097
;MESH:new-Center-Support-Free.STL
G0 F7500 X88.345 Y96.107
G0 X106.668 Y154.775
M204 S500
;TYPE:WALL-INNER
G1 F2400 E30.16097
G1 F1500 X113.336 Y154.774 E30.38275
G1 X115.481 Y153.529 E30.46524
G1 X120.738 Y133.701 E31.14751
G1 X120.926 Y79.525 E32.94942
G1 X120.79 Y77.596 E33.01374
G1 X120.726 Y65.225 E33.4252
G1 X81.495 Y65.225 E34.73003
G1 X81.495 Y71.292 E34.93182
G1 X92.54 Y78.166 E35.36452
G1 X92.669 Y78.315 E35.37107
G1 X92.764 Y78.641 E35.38236
G1 X92.764 Y79.041 E35.39567
G1 X98.228 Y79.044 E35.5774
G1 X98.516 Y79.155 E35.58767
G1 X98.666 Y79.313 E35.59491
G1 X98.763 Y79.608 E35.60524
G1 X98.758 Y90.313 E35.96129
G1 X98.636 Y90.601 E35.9717
G1 X98.51 Y90.721 E35.97748
G1 X98.217 Y90.828 E35.98786
G1 X92.764 Y90.83 E36.16922
G1 X92.764 Y91.23 E36.18253
G1 X92.674 Y91.548 E36.19352
G1 X89.458 Y96.71 E36.3958
G1 X104.524 Y153.529 E38.35092
G1 X106.668 Y154.775 E38.4334
M204 S2000
G0 F7500 X106.56 Y155.175
M204 S500
;TYPE:WALL-OUTER
G1 F1500 X113.444 Y155.174 E38.66236
G1 X115.825 Y153.792 E38.75392
G1 X121.138 Y133.754 E39.44342
G1 X121.326 Y79.511 E41.24756
G1 X121.19 Y77.575 E41.31211
G1 X121.124 Y64.825 E41.73618
G1 X81.095 Y64.825 E43.06755
G1 X81.095 Y71.514 E43.29003
G1 X92.327 Y78.508 E43.73011
G1 X92.364 Y78.641 E43.7347
G1 X92.364 Y79.441 E43.76131
G1 X98.198 Y79.443 E43.95535
G1 X98.321 Y79.517 E43.96013
G1 X98.362 Y79.613 E43.9636
G1 X98.362 Y90.258 E44.31765
G1 X98.288 Y90.387 E44.3226
G1 X98.198 Y90.428 E44.32589
G1 X92.364 Y90.43 E44.51993
G1 X92.364 Y91.23 E44.54654
G1 X92.334 Y91.336 E44.5502
G1 X89.027 Y96.645 E44.75823
G1 X104.18 Y153.792 E46.72463
G1 X106.56 Y155.175 E46.81619
M204 S2000
G0 F7500 X106.766 Y154.415
M204 S500
;TYPE:SKIN
G1 F1500 X104.833 Y153.291 E46.89056
G1 X89.844 Y96.77 E48.83544
G1 X92.993 Y91.717 E49.03346
G1 X93.143 Y91.19 E49.05169
G1 X98.306 Y91.186 E49.22341
G1 X98.689 Y91.064 E49.23678
G1 X98.945 Y90.79 E49.24925
G1 X99.065 Y90.561 E49.25785
G1 X99.121 Y90.31 E49.2664
G1 X99.123 Y79.586 E49.62309
G1 X99.064 Y79.304 E49.63267
G1 X98.915 Y79.044 E49.64264
G1 X98.572 Y78.768 E49.65728
G1 X98.279 Y78.687 E49.66739
G1 X93.143 Y78.681 E49.83821
G1 X92.982 Y78.125 E49.85747
G1 X92.748 Y77.871 E49.86895
G1 X81.856 Y71.092 E50.29566
G1 X81.856 Y65.586 E50.47879
G1 X120.368 Y65.585 E51.7597
G1 X120.43 Y77.609 E52.15963
G1 X120.565 Y79.55 E52.22434
G1 X120.378 Y133.657 E54.02396
G1 X115.172 Y153.291 E54.69955
G1 X113.238 Y154.414 E54.77393
G1 X106.766 Y154.415 E54.98919
M204 S2000
G0 F7500 X106.766 Y154.675
G0 X104.711 Y153.522
G0 X104.979 Y153.062
M204 S500
G1 F1500 X105.173 Y153.256 E54.99832
M204 S2000
G0 F7500 X104.94 Y153.655
G0 X104.718 Y153.467
G0 X104.331 Y152.41
G0 X104.775 Y152.293
M204 S500
G1 F1500 X106.525 Y154.043 E55.08063
M204 S2000
G0 F7500 X107.261 Y154.213
M204 S500
G1 F1500 X104.571 Y151.523 E55.20716
M204 S2000
G0 F7500 X104.366 Y150.753
M204 S500
G1 F1500 X107.827 Y154.213 E55.36993
M204 S2000
G0 F7500 X108.393 Y154.213
M204 S500
G1 F1500 X104.162 Y149.983 E55.56892
M204 S2000
G0 F7500 X103.958 Y149.213
M204 S500
G1 F1500 X108.958 Y154.213 E55.80411
M204 S2000
G0 F7500 X109.524 Y154.213
M204 S500
G1 F1500 X103.754 Y148.443 E56.07551
M204 S2000
G0 F7500 X103.55 Y147.673
M204 S500
G1 F1500 X110.089 Y154.212 E56.38309
M204 S2000
G0 F7500 X110.655 Y154.212
M204 S500
G1 F1500 X103.345 Y146.903 E56.7269
M204 S2000
G0 F7500 X103.142 Y146.134
M204 S500
G1 F1500 X111.22 Y154.212 E57.10687
M204 S2000
G0 F7500 X111.786 Y154.212
M204 S500
G1 F1500 X102.937 Y145.364 E57.52307
M204 S2000
G0 F7500 X102.733 Y144.594
M204 S500
G1 F1500 X112.352 Y154.212 E57.9755
M204 S2000
G0 F7500 X112.917 Y154.212
M204 S500
G1 F1500 X102.529 Y143.824 E58.46412
M204 S2000
G0 F7500 X102.325 Y143.054
M204 S500
G1 F1500 X113.373 Y154.102 E58.98378
M204 S2000
G0 F7500 X113.731 Y153.894
M204 S500
G1 F1500 X102.121 Y142.284 E59.52988
M204 S2000
G0 F7500 X101.916 Y141.514
M204 S500
G1 F1500 X114.088 Y153.686 E60.10241
M204 S2000
G0 F7500 X114.447 Y153.479
M204 S500
G1 F1500 X101.712 Y140.744 E60.70143
M204 S2000
G0 F7500 X101.508 Y139.975
M204 S500
G1 F1500 X114.805 Y153.271 E61.32686
M204 S2000
G0 F7500 X115.054 Y152.954
M204 S500
G1 F1500 X101.304 Y139.205 E61.97359
M204 S2000
G0 F7500 X101.1 Y138.435
M204 S500
G1 F1500 X115.172 Y152.508 E62.63552
M204 S2000
G0 F7500 X115.291 Y152.061
M204 S500
G1 F1500 X100.895 Y137.665 E63.31266
M204 S2000
G0 F7500 X100.692 Y136.895
M204 S500
G1 F1500 X115.409 Y151.613 E64.00493
M204 S2000
G0 F7500 X115.528 Y151.166
M204 S500
G1 F1500 X100.487 Y136.125 E64.71241
M204 S2000
G0 F7500 X100.283 Y135.355
M204 S500
G1 F1500 X115.647 Y150.719 E65.43509
M204 S2000
G0 F7500 X115.765 Y150.272
M204 S500
G1 F1500 X100.078 Y134.585 E66.17295
M204 S2000
G0 F7500 X99.875 Y133.816
M204 S500
G1 F1500 X115.884 Y149.825 E66.92597
M204 S2000
G0 F7500 X116.002 Y149.378
M204 S500
G1 F1500 X99.67 Y133.046 E67.69418
M204 S2000
G0 F7500 X99.466 Y132.276
M204 S500
G1 F1500 X116.121 Y148.93 E68.47755
M204 S2000
G0 F7500 X116.239 Y148.483
M204 S500
G1 F1500 X99.262 Y131.506 E69.2761
M204 S2000
G0 F7500 X99.058 Y130.736
M204 S500
G1 F1500 X116.358 Y148.037 E70.08986
M204 S2000
G0 F7500 X116.476 Y147.589
M204 S500
G1 F1500 X98.854 Y129.966 E70.91877
M204 S2000
G0 F7500 X98.649 Y129.196
M204 S500
