; LightBurn 1.4.00
; Marlin device profile, absolute coords
; Bounds: X2.34 Y9.71 to X203.66 Y218.29
G21
G90
; Cut @ 10 mm/sec, 100% power
M8
M05 
G0 X19.718 Y68.169 F0
; Layer C00 Pass 1 of 3
M03 S1000
G1 X19.418 Y68.235 F600
G1 X19.127 Y68.334
G1 X18.848 Y68.466
G1 X18.584 Y68.63
G1 X18.339 Y68.825
G1 X17.869 Y69.288
G1 X17.447 Y69.793
G1 X17.076 Y70.337
G1 X16.757 Y70.914
G1 X16.239 Y72.035
G1 X15.784 Y73.183
G1 X15.395 Y74.354
G1 X15.072 Y75.546
G1 X14.518 Y78.015
G1 X14.062 Y80.503
G1 X13.704 Y83.008
G1 X13.445 Y85.525
G1 X13.279 Y87.609
G1 X13.149 Y89.695
G1 X13.056 Y91.782
G1 X12.998 Y93.869
G1 X12.976 Y95.956
G1 X12.99 Y98.043
G1 X13.039 Y100.129
G1 X13.125 Y102.214
G1 X13.246 Y104.296
G1 X13.403 Y106.377
G1 X13.596 Y108.455
G1 X13.824 Y110.53
G1 X14.089 Y112.601
G1 X14.388 Y114.668
G1 X14.724 Y116.731
G1 X15.095 Y118.789
G1 X15.395 Y120.28
G1 X15.724 Y121.766
G1 X16.083 Y123.244
G1 X16.472 Y124.714
G1 X16.89 Y126.176
G1 X17.337 Y127.63
G1 X17.813 Y129.075
G1 X18.318 Y130.51
G1 X18.766 Y131.706
G1 X19.246 Y132.887
G1 X19.758 Y134.055
G1 X20.303 Y135.208
G1 X20.879 Y136.345
G1 X21.487 Y137.465
G1 X22.126 Y138.569
G1 X22.796 Y139.656
G1 X23.368 Y140.521
G1 X23.972 Y141.364
G1 X24.607 Y142.182
G1 X25.272 Y142.975
G1 X25.967 Y143.742
G1 X26.69 Y144.483
G1 X27.442 Y145.196
G1 X28.221 Y145.881
G1 X28.961 Y146.473
G1 X29.726 Y147.026
G1 X30.515 Y147.538
G1 X31.325 Y148.009
G1 X32.155 Y148.439
G1 X33.004 Y148.827
G1 X33.87 Y149.174
G1 X34.752 Y149.477
G1 X35.647 Y149.737
G1 X36.554 Y149.953
G1 X37.471 Y150.125
G1 X38.398 Y150.253
G1 X39.332 Y150.335
G1 X40.271 Y150.371
G1 X41.215 Y150.36
G1 X42.161 Y150.303
G1 X43.333 Y150.179
G1 X44.497 Y150.005
G1 X45.652 Y149.783
G1 X46.796 Y149.512
G1 X47.927 Y149.194
G1 X49.045 Y148.828
G1 X50.147 Y148.416
G1 X51.233 Y147.956
G1 X52.402 Y147.415
G1 X53.551 Y146.839
G1 X54.68 Y146.228
G1 X55.788 Y145.582
G1 X56.875 Y144.903
G1 X57.938 Y144.191
G1 X58.979 Y143.446
G1 X59.995 Y142.669
G1 X60.987 Y141.861
G1 X61.953 Y141.022
G1 X62.893 Y140.153
G1 X63.806 Y139.254
G1 X64.691 Y138.326
G1 X65.548 Y137.37
G1 X66.376 Y136.385
G1 X67.173 Y135.374
G1 X67.665 Y134.705
G1 X68.132 Y134.02
G1 X68.573 Y133.319
G1 X68.989 Y132.602
G1 X69.378 Y131.87
G1 X69.74 Y131.125
G1 X70.075 Y130.366
G1 X70.382 Y129.595
G1 X70.602 Y128.967
G1 X70.785 Y128.328
G1 X70.93 Y127.681
G1 X71.038 Y127.028
G1 X71.109 Y126.369
G1 X71.142 Y125.707
G1  Y125.042
G1 X71.093 Y124.378
G1 X70.99 Y123.731
G1 X70.847 Y123.094
G1 X70.664 Y122.469
G1 X70.443 Y121.857
G1 X70.183 Y121.26
G1 X69.886 Y120.68
G1 X69.553 Y120.119
G1 X69.183 Y119.578
G1 X68.463 Y118.639
G1 X67.693 Y117.743
G1 X66.874 Y116.89
G1 X66.008 Y116.083
G1 X64.883 Y115.1
G1 X63.737 Y114.14
G1 X62.573 Y113.203
G1 X61.39 Y112.289
G1 X58.742 Y110.251
G1 X56.135 Y108.224
G1 X53.588 Y106.125
G1 X51.101 Y103.953
G1 X48.677 Y101.711
G1 X47.186 Y100.229
G1 X45.727 Y98.717
G1 X44.299 Y97.175
G1 X42.904 Y95.605
G1 X41.541 Y94.006
G1 X40.212 Y92.379
G1 X38.916 Y90.725
G1 X37.654 Y89.044
G1 X35.738 Y86.396
G1 X33.849 Y83.73
G1 X31.987 Y81.044
G1 X30.152 Y78.34
G1 X28.671 Y76.185
G1 X27.675 Y74.801
G1 X26.649 Y73.439
G1 X25.593 Y72.1
G1 X24.93 Y71.306
G1 X24.224 Y70.553
G1 X23.475 Y69.841
G1 X22.687 Y69.173
G1 X22.222 Y68.837
G1 X21.724 Y68.558
G1 X21.196 Y68.338
G1 X20.646 Y68.18
G1 X20.335 Y68.141
G1 X20.025
G1 X19.718 Y68.169
; Layer C00 Pass 2 of 3
G1 X19.418 Y68.235
G1 X19.127 Y68.334
G1 X18.848 Y68.466
G1 X18.584 Y68.63
G1 X18.339 Y68.825
G1 X17.869 Y69.288
G1 X17.447 Y69.793
G1 X17.076 Y70.337
G1 X16.757 Y70.914
G1 X16.239 Y72.035
G1 X15.784 Y73.183
G1 X15.395 Y74.354
G1 X15.072 Y75.546
G1 X14.518 Y78.015
G1 X14.062 Y80.503
G1 X13.704 Y83.008
G1 X13.445 Y85.525
G1 X13.279 Y87.609
G1 X13.149 Y89.695
G1 X13.056 Y91.782
G1 X12.998 Y93.869
G1 X12.976 Y95.956
G1 X12.99 Y98.043
G1 X13.039 Y100.129
G1 X13.125 Y102.214
G1 X13.246 Y104.296
G1 X13.403 Y106.377
G1 X13.596 Y108.455
G1 X13.824 Y110.53
G1 X14.089 Y112.601
G1 X14.388 Y114.668
G1 X14.724 Y116.731
G1 X15.095 Y118.789
G1 X15.395 Y120.28
G1 X15.724 Y121.766
G1 X16.083 Y123.244
G1 X16.472 Y124.714
G1 X16.89 Y126.176
G1 X17.337 Y127.63
G1 X17.813 Y129.075
G1 X18.318 Y130.51
G1 X18.766 Y131.706
G1 X19.246 Y132.887
G1 X19.758 Y134.055
G1 X20.303 Y135.208
G1 X20.879 Y136.345
G1 X21.487 Y137.465
G1 X22.126 Y138.569
G1 X22.796 Y139.656
G1 X23.368 Y140.521
G1 X23.972 Y141.364
G1 X24.607 Y142.182
G1 X25.272 Y142.975
G1 X25.967 Y143.742
G1 X26.69 Y144.483
G1 X27.442 Y145.196
G1 X28.221 Y145.881
G1 X28.961 Y146.473
G1 X29.726 Y147.026
G1 X30.515 Y147.538
G1 X31.325 Y148.009
G1 X32.155 Y148.439
G1 X33.004 Y148.827
G1 X33.87 Y149.174
G1 X34.752 Y149.477
G1 X35.647 Y149.737
G1 X36.554 Y149.953
G1 X37.471 Y150.125
G1 X38.398 Y150.253
G1 X39.332 Y150.335
G1 X40.271 Y150.371
G1 X41.215 Y150.36
G1 X42.161 Y150.303
G1 X43.333 Y150.179
G1 X44.497 Y150.005
G1 X45.652 Y149.783
G1 X46.796 Y149.512
G1 X47.927 Y149.194
G1 X49.045 Y148.828
G1 X50.147 Y148.416
G1 X51.233 Y147.956
G1 X52.402 Y147.415
G1 X53.551 Y146.839
G1 X54.68 Y146.228
G1 X55.788 Y145.582
G1 X56.875 Y144.903
G1 X57.938 Y144.191
G1 X58.979 Y143.446
G1 X59.995 Y142.669
G1 X60.987 Y141.861
G1 X61.953 Y141.022
G1 X62.893 Y140.153
G1 X63.806 Y139.254
G1 X64.691 Y138.326
G1 X65.548 Y137.37
G1 X66.376 Y136.385
G1 X67.173 Y135.374
G1 X67.665 Y134.705
G1 X68.132 Y134.02
G1 X68.573 Y133.319
G1 X68.989 Y132.602
G1 X69.378 Y131.87
G1 X69.74 Y131.125
G1 X70.075 Y130.366
G1 X70.382 Y129.595
G1 X70.602 Y128.967
G1 X70.785 Y128.328
G1 X70.93 Y127.681
G1 X71.038 Y127.028
G1 X71.109 Y126.369
G1 X71.142 Y125.707
G1  Y125.042
G1 X71.093 Y124.378
G1 X70.99 Y123.731
G1 X70.847 Y123.094
G1 X70.664 Y122.469
G1 X70.443 Y121.857
G1 X70.183 Y121.26
G1 X69.886 Y120.68
G1 X69.553 Y120.119
G1 X69.183 Y119.578
G1 X68.463 Y118.639
G1 X67.693 Y117.743
G1 X66.874 Y116.89
G1 X66.008 Y116.083
G1 X64.883 Y115.1
G1 X63.737 Y114.14
G1 X62.573 Y113.203
G1 X61.39 Y112.289
G1 X58.742 Y110.251
G1 X56.135 Y108.224
G1 X53.588 Y106.125
G1 X51.101 Y103.953
G1 X48.677 Y101.711
G1 X47.186 Y100.229
G1 X45.727 Y98.717
G1 X44.299 Y97.175
G1 X42.904 Y95.605
G1 X41.541 Y94.006
G1 X40.212 Y92.379
G1 X38.916 Y90.725
G1 X37.654 Y89.044
G1 X35.738 Y86.396
G1 X33.849 Y83.73
G1 X31.987 Y81.044
G1 X30.152 Y78.34
G1 X28.671 Y76.185
G1 X27.675 Y74.801
G1 X26.649 Y73.439
G1 X25.593 Y72.1
G1 X24.93 Y71.306
G1 X24.224 Y70.553
G1 X23.475 Y69.841
G1 X22.687 Y69.173
G1 X22.222 Y68.837
G1 X21.724 Y68.558
G1 X21.196 Y68.338
G1 X20.646 Y68.18
G1 X20.335 Y68.141
G1 X20.025
G1 X19.718 Y68.169
; Layer C00 Pass 3 of 3
G1 X19.418 Y68.235
G1 X19.127 Y68.334
G1 X18.848 Y68.466
G1 X18.584 Y68.63
G1 X18.339 Y68.825
G1 X17.869 Y69.288
G1 X17.447 Y69.793
G1 X17.076 Y70.337
G1 X16.757 Y70.914
G1 X16.239 Y72.035
G1 X15.784 Y73.183
G1 X15.395 Y74.354
G1 X15.072 Y75.546
G1 X14.518 Y78.015
G1 X14.062 Y80.503
G1 X13.704 Y83.008
G1 X13.445 Y85.525
G1 X13.279 Y87.609
G1 X13.149 Y89.695
G1 X13.056 Y91.782
G1 X12.998 Y93.869
G1 X12.976 Y95.956
G1 X12.99 Y98.043
G1 X13.039 Y100.129
G1 X13.125 Y102.214
G1 X13.246 Y104.296
G1 X13.403 Y106.377
G1 X13.596 Y108.455
G1 X13.824 Y110.53
G1 X14.089 Y112.601
G1 X14.388 Y114.668
G1 X14.724 Y116.731
G1 X15.095 Y118.789
G1 X15.395 Y120.28
G1 X15.724 Y121.766
G1 X16.083 Y123.244
G1 X16.472 Y124.714
G1 X16.89 Y126.176
G1 X17.337 Y127.63
G1 X17.813 Y129.075
G1 X18.318 Y130.51
G1 X18.766 Y131.706
G1 X19.246 Y132.887
G1 X19.758 Y134.055
G1 X20.303 Y135.208
G1 X20.879 Y136.345
G1 X21.487 Y137.465
G1 X22.126 Y138.569
G1 X22.796 Y139.656
G1 X23.368 Y140.521
G1 X23.972 Y141.364
G1 X24.607 Y142.182
G1 X25.272 Y142.975
G1 X25.967 Y143.742
G1 X26.69 Y144.483
G1 X27.442 Y145.196
G1 X28.221 Y145.881
G1 X28.961 Y146.473
G1 X29.726 Y147.026
G1 X30.515 Y147.538
G1 X31.325 Y148.009
G1 X32.155 Y148.439
G1 X33.004 Y148.827
G1 X33.87 Y149.174
G1 X34.752 Y149.477
G1 X35.647 Y149.737
G1 X36.554 Y149.953
G1 X37.471 Y150.125
G1 X38.398 Y150.253
G1 X39.332 Y150.335
G1 X40.271 Y150.371
G1 X41.215 Y150.36
G1 X42.161 Y150.303
G1 X43.333 Y150.179
G1 X44.497 Y150.005
G1 X45.652 Y149.783
G1 X46.796 Y149.512
G1 X47.927 Y149.194
G1 X49.045 Y148.828
G1 X50.147 Y148.416
G1 X51.233 Y147.956
G1 X52.402 Y147.415
G1 X53.551 Y146.839
G1 X54.68 Y146.228
G1 X55.788 Y145.582
G1 X56.875 Y144.903
G1 X57.938 Y144.191
G1 X58.979 Y143.446
G1 X59.995 Y142.669
G1 X60.987 Y141.861
G1 X61.953 Y141.022
G1 X62.893 Y140.153
G1 X63.806 Y139.254
G1 X64.691 Y138.326
G1 X65.548 Y137.37
G1 X66.376 Y136.385
G1 X67.173 Y135.374
G1 X67.665 Y134.705
G1 X68.132 Y134.02
G1 X68.573 Y133.319
G1 X68.989 Y132.602
G1 X69.378 Y131.87
G1 X69.74 Y131.125
G1 X70.075 Y130.366
G1 X70.382 Y129.595
G1 X70.602 Y128.967
G1 X70.785 Y128.328
G1 X70.93 Y127.681
G1 X71.038 Y127.028
G1 X71.109 Y126.369
G1 X71.142 Y125.707
G1  Y125.042
G1 X71.093 Y124.378
G1 X70.99 Y123.731
G1 X70.847 Y123.094
G1 X70.664 Y122.469
G1 X70.443 Y121.857
G1 X70.183 Y121.26
G1 X69.886 Y120.68
G1 X69.553 Y120.119
G1 X69.183 Y119.578
G1 X68.463 Y118.639
G1 X67.693 Y117.743
G1 X66.874 Y116.89
G1 X66.008 Y116.083
G1 X64.883 Y115.1
G1 X63.737 Y114.14
G1 X62.573 Y113.203
G1 X61.39 Y112.289
G1 X58.742 Y110.251
G1 X56.135 Y108.224
G1 X53.588 Y106.125
G1 X51.101 Y103.953
G1 X48.677 Y101.711
G1 X47.186 Y100.229
G1 X45.727 Y98.717
G1 X44.299 Y97.175
G1 X42.904 Y95.605
G1 X41.541 Y94.006
G1 X40.212 Y92.379
G1 X38.916 Y90.725
G1 X37.654 Y89.044
G1 X35.738 Y86.396
G1 X33.849 Y83.73
G1 X31.987 Y81.044
G1 X30.152 Y78.34
G1 X28.671 Y76.185
G1 X27.675 Y74.801
G1 X26.649 Y73.439
G1 X25.593 Y72.1
G1 X24.93 Y71.306
G1 X24.224 Y70.553
G1 X23.475 Y69.841
G1 X22.687 Y69.173
G1 X22.222 Y68.837
G1 X21.724 Y68.558
G1 X21.196 Y68.338
G1 X20.646 Y68.18
G1 X20.335 Y68.141
G1 X20.025
G1 X19.718 Y68.169
M05 
G0 X82.916 Y58.893 F0
; Layer C00 Pass 1 of 3
M03 S1000
G1 X83.183 Y59.615 F600
G1 X83.499 Y60.319
G1 X84.283 Y61.877
G1 X85.116 Y63.409
G1 X85.998 Y64.914
G1 X86.927 Y66.391
G1 X88.541 Y68.878
G1 X90.215 Y71.324
G1 X91.948 Y73.729
G1 X93.741 Y76.091
G1 X95.02 Y77.675
G1 X96.369 Y79.199
G1 X97.785 Y80.66
G1 X99.267 Y82.057
G1 X99.873 Y82.583
G1 X100.497 Y83.085
G1 X101.139 Y83.563
G1 X101.799 Y84.017
G1 X102.474 Y84.446
G1 X103.166 Y84.85
G1 X103.872 Y85.228
G1 X104.593 Y85.579
G1 X105.613 Y85.997
G1 X106.656 Y86.344
G1 X107.717 Y86.618
G1 X108.793 Y86.821
G1 X109.88 Y86.95
G1 X110.975 Y87.006
G1 X112.074 Y86.988
G1 X113.172 Y86.895
G1 X114.335 Y86.732
G1 X115.488 Y86.51
G1 X116.628 Y86.23
G1 X117.753 Y85.891
G1 X118.771 Y85.532
G1 X119.778 Y85.145
G1 X120.774 Y84.731
G1 X121.758 Y84.289
G1 X122.73 Y83.819
G1 X123.688 Y83.324
G1 X124.632 Y82.801
G1 X125.562 Y82.252
G1 X127.021 Y81.341
G1 X128.458 Y80.396
G1 X129.872 Y79.419
G1 X131.263 Y78.41
G1 X132.631 Y77.369
G1 X133.974 Y76.296
G1 X135.293 Y75.193
G1 X136.587 Y74.059
G1 X138.193 Y72.612
G1 X139.765 Y71.127
G1 X141.299 Y69.606
G1 X142.797 Y68.049
G1 X144.257 Y66.456
G1 X145.678 Y64.829
G1 X147.061 Y63.167
G1 X148.404 Y61.472
G1 X149.527 Y59.964
G1 X150.581 Y58.409
G1 X151.566 Y56.808
G1 X152.479 Y55.165
G1 X152.939 Y54.231
G1 X153.334 Y53.269
G1 X153.663 Y52.282
G1 X153.924 Y51.274
G1 X154.03 Y50.635
G1 X154.056 Y49.99
G1 X154 Y49.347
G1 X153.863 Y48.714
G1 X153.724 Y48.374
G1 X153.551 Y48.053
G1 X153.346 Y47.755
G1 X153.11 Y47.482
G1 X152.846 Y47.235
G1 X152.556 Y47.018
G1 X152.243 Y46.832
G1 X151.909 Y46.68
G1 X151.139 Y46.411
G1 X150.349 Y46.211
G1 X149.545 Y46.08
G1 X148.732 Y46.02
G1 X147.537 Y45.99
G1 X146.342 Y46.01
G1 X145.15 Y46.078
G1 X143.96 Y46.196
G1 X141.632 Y46.491
G1 X139.31 Y46.831
G1 X136.996 Y47.217
G1 X134.689 Y47.647
G1 X130.666 Y48.41
G1 X126.643 Y49.179
G1 X124.786 Y49.527
G1 X120.644 Y50.284
G1 X116.489 Y50.963
G1 X112.321 Y51.563
G1 X108.143 Y52.084
G1 X104.979 Y52.406
G1 X101.81 Y52.677
G1 X98.637 Y52.897
G1 X95.46 Y53.066
G1 X92.852 Y53.193
G1 X91.311 Y53.26
G1 X89.772 Y53.362
G1 X88.236 Y53.499
G1 X86.703 Y53.672
G1 X86.038 Y53.774
G1 X85.383 Y53.922
G1 X84.739 Y54.114
G1 X84.11 Y54.35
G1 X83.694 Y54.558
G1 X83.322 Y54.832
G1 X83.002 Y55.164
G1 X82.74 Y55.548
G1 X82.578 Y55.995
G1 X82.488 Y56.458
G1 X82.471 Y56.93
G1 X82.528 Y57.401
G1 X82.697 Y58.154
G1 X82.916 Y58.893
; Layer C00 Pass 2 of 3
G1 X83.183 Y59.615
G1 X83.499 Y60.319
G1 X84.283 Y61.877
G1 X85.116 Y63.409
G1 X85.998 Y64.914
G1 X86.927 Y66.391
G1 X88.541 Y68.878
G1 X90.215 Y71.324
G1 X91.948 Y73.729
G1 X93.741 Y76.091
G1 X95.02 Y77.675
G1 X96.369 Y79.199
G1 X97.785 Y80.66
G1 X99.267 Y82.057
G1 X99.873 Y82.583
G1 X100.497 Y83.085
G1 X101.139 Y83.563
G1 X101.799 Y84.017
G1 X102.474 Y84.446
G1 X103.166 Y84.85
G1 X103.872 Y85.228
G1 X104.593 Y85.579
G1 X105.613 Y85.997
G1 X106.656 Y86.344
G1 X107.717 Y86.618
G1 X108.793 Y86.821
G1 X109.88 Y86.95
G1 X110.975 Y87.006
G1 X112.074 Y86.988
G1 X113.172 Y86.895
G1 X114.335 Y86.732
G1 X115.488 Y86.51
G1 X116.628 Y86.23
G1 X117.753 Y85.891
G1 X118.771 Y85.532
G1 X119.778 Y85.145
G1 X120.774 Y84.731
G1 X121.758 Y84.289
G1 X122.73 Y83.819
G1 X123.688 Y83.324
G1 X124.632 Y82.801
G1 X125.562 Y82.252
G1 X127.021 Y81.341
G1 X128.458 Y80.396
G1 X129.872 Y79.419
G1 X131.263 Y78.41
G1 X132.631 Y77.369
G1 X133.974 Y76.296
G1 X135.293 Y75.193
G1 X136.587 Y74.059
G1 X138.193 Y72.612
G1 X139.765 Y71.127
G1 X141.299 Y69.606
G1 X142.797 Y68.049
G1 X144.257 Y66.456
G1 X145.678 Y64.829
G1 X147.061 Y63.167
G1 X148.404 Y61.472
G1 X149.527 Y59.964
G1 X150.581 Y58.409
G1 X151.566 Y56.808
G1 X152.479 Y55.165
G1 X152.939 Y54.231
G1 X153.334 Y53.269
G1 X153.663 Y52.282
G1 X153.924 Y51.274
G1 X154.03 Y50.635
G1 X154.056 Y49.99
G1 X154 Y49.347
G1 X153.863 Y48.714
G1 X153.724 Y48.374
G1 X153.551 Y48.053
G1 X153.346 Y47.755
G1 X153.11 Y47.482
G1 X152.846 Y47.235
G1 X152.556 Y47.018
G1 X152.243 Y46.832
G1 X151.909 Y46.68
G1 X151.139 Y46.411
G1 X150.349 Y46.211
G1 X149.545 Y46.08
G1 X148.732 Y46.02
G1 X147.537 Y45.99
G1 X146.342 Y46.01
G1 X145.15 Y46.078
G1 X143.96 Y46.196
G1 X141.632 Y46.491
G1 X139.31 Y46.831
G1 X136.996 Y47.217
G1 X134.689 Y47.647
G1 X130.666 Y48.41
G1 X126.643 Y49.179
G1 X124.786 Y49.527
G1 X120.644 Y50.284
G1 X116.489 Y50.963
G1 X112.321 Y51.563
G1 X108.143 Y52.084
G1 X104.979 Y52.406
G1 X101.81 Y52.677
G1 X98.637 Y52.897
G1 X95.46 Y53.066
G1 X92.852 Y53.193
G1 X91.311 Y53.26
G1 X89.772 Y53.362
G1 X88.236 Y53.499
G1 X86.703 Y53.672
G1 X86.038 Y53.774
G1 X85.383 Y53.922
G1 X84.739 Y54.114
G1 X84.11 Y54.35
G1 X83.694 Y54.558
G1 X83.322 Y54.832
G1 X83.002 Y55.164
G1 X82.74 Y55.548
G1 X82.578 Y55.995
G1 X82.488 Y56.458
G1 X82.471 Y56.93
G1 X82.528 Y57.401
G1 X82.697 Y58.154
G1 X82.916 Y58.893
; Layer C00 Pass 3 of 3
G1 X83.183 Y59.615
G1 X83.499 Y60.319
G1 X84.283 Y61.877
G1 X85.116 Y63.409
G1 X85.998 Y64.914
G1 X86.927 Y66.391
G1 X88.541 Y68.878
G1 X90.215 Y71.324
G1 X91.948 Y73.729
G1 X93.741 Y76.091
G1 X95.02 Y77.675
G1 X96.369 Y79.199
G1 X97.785 Y80.66
G1 X99.267 Y82.057
G1 X99.873 Y82.583
G1 X100.497 Y83.085
G1 X101.139 Y83.563
G1 X101.799 Y84.017
G1 X102.474 Y84.446
G1 X103.166 Y84.85
G1 X103.872 Y85.228
G1 X104.593 Y85.579
G1 X105.613 Y85.997
G1 X106.656 Y86.344
G1 X107.717 Y86.618
G1 X108.793 Y86.821
G1 X109.88 Y86.95
G1 X110.975 Y87.006
G1 X112.074 Y86.988
G1 X113.172 Y86.895
G1 X114.335 Y86.732
G1 X115.488 Y86.51
G1 X116.628 Y86.23
G1 X117.753 Y85.891
G1 X118.771 Y85.532
G1 X119.778 Y85.145
G1 X120.774 Y84.731
G1 X121.758 Y84.289
G1 X122.73 Y83.819
G1 X123.688 Y83.324
G1 X124.632 Y82.801
G1 X125.562 Y82.252
G1 X127.021 Y81.341
G1 X128.458 Y80.396
G1 X129.872 Y79.419
G1 X131.263 Y78.41
G1 X132.631 Y77.369
G1 X133.974 Y76.296
G1 X135.293 Y75.193
G1 X136.587 Y74.059
G1 X138.193 Y72.612
G1 X139.765 Y71.127
G1 X141.299 Y69.606
G1 X142.797 Y68.049
G1 X144.257 Y66.456
G1 X145.678 Y64.829
G1 X147.061 Y63.167
G1 X148.404 Y61.472
G1 X149.527 Y59.964
G1 X150.581 Y58.409
G1 X151.566 Y56.808
G1 X152.479 Y55.165
G1 X152.939 Y54.231
G1 X153.334 Y53.269
G1 X153.663 Y52.282
G1 X153.924 Y51.274
G1 X154.03 Y50.635
G1 X154.056 Y49.99
G1 X154 Y49.347
G1 X153.863 Y48.714
G1 X153.724 Y48.374
G1 X153.551 Y48.053
G1 X153.346 Y47.755
G1 X153.11 Y47.482
G1 X152.846 Y47.235
G1 X152.556 Y47.018
G1 X152.243 Y46.832
G1 X151.909 Y46.68
G1 X151.139 Y46.411
G1 X150.349 Y46.211
G1 X149.545 Y46.08
G1 X148.732 Y46.02
G1 X147.537 Y45.99
G1 X146.342 Y46.01
G1 X145.15 Y46.078
G1 X143.96 Y46.196
G1 X141.632 Y46.491
G1 X139.31 Y46.831
G1 X136.996 Y47.217
G1 X134.689 Y47.647
G1 X130.666 Y48.41
G1 X126.643 Y49.179
G1 X124.786 Y49.527
G1 X120.644 Y50.284
G1 X116.489 Y50.963
G1 X112.321 Y51.563
G1 X108.143 Y52.084
G1 X104.979 Y52.406
G1 X101.81 Y52.677
G1 X98.637 Y52.897
G1 X95.46 Y53.066
G1 X92.852 Y53.193
G1 X91.311 Y53.26
G1 X89.772 Y53.362
G1 X88.236 Y53.499
G1 X86.703 Y53.672
G1 X86.038 Y53.774
G1 X85.383 Y53.922
G1 X84.739 Y54.114
G1 X84.11 Y54.35
G1 X83.694 Y54.558
G1 X83.322 Y54.832
G1 X83.002 Y55.164
G1 X82.74 Y55.548
G1 X82.578 Y55.995
G1 X82.488 Y56.458
G1 X82.471 Y56.93
G1 X82.528 Y57.401
G1 X82.697 Y58.154
G1 X82.916 Y58.893
M05 
G0 X143.107 Y87.847 F0
; Layer C00 Pass 1 of 3
M03 S1000
G1 X142.194 Y88.746 F600
G1 X141.309 Y89.674
G1 X140.452 Y90.63
G1 X139.624 Y91.615
G1 X138.827 Y92.626
G1 X138.335 Y93.295
G1 X137.868 Y93.98
G1 X137.427 Y94.681
G1 X137.011 Y95.398
G1 X136.622 Y96.13
G1 X136.26 Y96.875
G1 X135.925 Y97.634
G1 X135.618 Y98.405
G1 X135.398 Y99.033
G1 X135.215 Y99.672
G1 X135.07 Y100.319
G1 X134.962 Y100.972
G1 X134.891 Y101.631
G1 X134.858 Y102.293
G1  Y102.958
G1 X134.907 Y103.622
G1 X135.01 Y104.269
G1 X135.153 Y104.906
G1 X135.336 Y105.531
G1 X135.557 Y106.143
G1 X135.817 Y106.74
G1 X136.114 Y107.32
G1 X136.447 Y107.881
G1 X136.817 Y108.422
G1 X137.537 Y109.361
G1 X138.307 Y110.257
G1 X139.126 Y111.11
G1 X139.992 Y111.917
G1 X141.117 Y112.9
G1 X142.263 Y113.86
G1 X143.427 Y114.797
G1 X144.61 Y115.711
G1 X147.258 Y117.749
G1 X149.865 Y119.776
G1 X152.412 Y121.875
G1 X154.899 Y124.047
G1 X157.323 Y126.289
G1 X158.814 Y127.771
G1 X160.273 Y129.283
G1 X161.701 Y130.825
G1 X163.096 Y132.395
G1 X164.459 Y133.994
G1 X165.788 Y135.621
G1 X167.084 Y137.275
G1 X168.346 Y138.956
G1 X170.262 Y141.604
G1 X172.151 Y144.27
G1 X174.013 Y146.956
G1 X175.848 Y149.66
G1 X177.329 Y151.815
G1 X178.325 Y153.199
G1 X179.351 Y154.561
G1 X180.407 Y155.9
G1 X181.07 Y156.694
G1 X181.776 Y157.447
G1 X182.525 Y158.159
G1 X183.313 Y158.827
G1 X183.778 Y159.163
G1 X184.276 Y159.442
G1 X184.804 Y159.662
G1 X185.354 Y159.82
G1 X185.665 Y159.859
G1 X185.975
G1 X186.282 Y159.831
G1 X186.582 Y159.765
G1 X186.873 Y159.666
G1 X187.152 Y159.534
G1 X187.416 Y159.37
G1 X187.661 Y159.175
G1 X188.131 Y158.712
G1 X188.553 Y158.207
G1 X188.924 Y157.663
G1 X189.243 Y157.086
G1 X189.761 Y155.965
G1 X190.216 Y154.817
G1 X190.605 Y153.646
G1 X190.928 Y152.454
G1 X191.482 Y149.985
G1 X191.938 Y147.497
G1 X192.296 Y144.992
G1 X192.555 Y142.475
G1 X192.721 Y140.391
G1 X192.851 Y138.305
G1 X192.944 Y136.218
G1 X193.002 Y134.131
G1 X193.024 Y132.044
G1 X193.01 Y129.957
G1 X192.961 Y127.871
G1 X192.875 Y125.786
G1 X192.754 Y123.704
G1 X192.597 Y121.623
G1 X192.404 Y119.545
G1 X192.176 Y117.47
G1 X191.911 Y115.399
G1 X191.612 Y113.332
G1 X191.276 Y111.269
G1 X190.905 Y109.211
G1 X190.605 Y107.72
G1 X190.276 Y106.234
G1 X189.917 Y104.756
G1 X189.528 Y103.286
G1 X189.11 Y101.824
G1 X188.663 Y100.37
G1 X188.187 Y98.925
G1 X187.682 Y97.49
G1 X187.234 Y96.294
G1 X186.754 Y95.113
G1 X186.242 Y93.945
G1 X185.697 Y92.792
G1 X185.121 Y91.655
G1 X184.513 Y90.535
G1 X183.874 Y89.431
G1 X183.204 Y88.344
G1 X182.632 Y87.479
G1 X182.028 Y86.636
G1 X181.393 Y85.818
G1 X180.728 Y85.025
G1 X180.033 Y84.258
G1 X179.31 Y83.517
G1 X178.558 Y82.804
G1 X177.779 Y82.119
G1 X177.039 Y81.527
G1 X176.274 Y80.974
G1 X175.485 Y80.462
G1 X174.675 Y79.991
G1 X173.845 Y79.561
G1 X172.996 Y79.173
G1 X172.13 Y78.826
G1 X171.248 Y78.523
G1 X170.353 Y78.263
G1 X169.446 Y78.047
G1 X168.529 Y77.875
G1 X167.602 Y77.747
G1 X166.668 Y77.665
G1 X165.729 Y77.629
G1 X164.785 Y77.64
G1 X163.839 Y77.697
G1 X162.667 Y77.821
G1 X161.503 Y77.995
G1 X160.348 Y78.217
G1 X159.204 Y78.488
G1 X158.073 Y78.806
G1 X156.955 Y79.172
G1 X155.853 Y79.584
G1 X154.767 Y80.044
G1 X153.598 Y80.585
G1 X152.449 Y81.161
G1 X151.32 Y81.772
G1 X150.212 Y82.418
G1 X149.125 Y83.097
G1 X148.062 Y83.809
G1 X147.021 Y84.554
G1 X146.005 Y85.331
G1 X145.013 Y86.139
G1 X144.047 Y86.978
G1 X143.107 Y87.847
; Layer C00 Pass 2 of 3
G1 X142.194 Y88.746
G1 X141.309 Y89.674
G1 X140.452 Y90.63
G1 X139.624 Y91.615
G1 X138.827 Y92.626
G1 X138.335 Y93.295
G1 X137.868 Y93.98
G1 X137.427 Y94.681
G1 X137.011 Y95.398
G1 X136.622 Y96.13
G1 X136.26 Y96.875
G1 X135.925 Y97.634
G1 X135.618 Y98.405
G1 X135.398 Y99.033
G1 X135.215 Y99.672
G1 X135.07 Y100.319
G1 X134.962 Y100.972
G1 X134.891 Y101.631
G1 X134.858 Y102.293
G1  Y102.958
G1 X134.907 Y103.622
G1 X135.01 Y104.269
G1 X135.153 Y104.906
G1 X135.336 Y105.531
G1 X135.557 Y106.143
G1 X135.817 Y106.74
G1 X136.114 Y107.32
G1 X136.447 Y107.881
G1 X136.817 Y108.422
G1 X137.537 Y109.361
G1 X138.307 Y110.257
G1 X139.126 Y111.11
G1 X139.992 Y111.917
G1 X141.117 Y112.9
G1 X142.263 Y113.86
G1 X143.427 Y114.797
G1 X144.61 Y115.711
G1 X147.258 Y117.749
G1 X149.865 Y119.776
G1 X152.412 Y121.875
G1 X154.899 Y124.047
G1 X157.323 Y126.289
G1 X158.814 Y127.771
G1 X160.273 Y129.283
G1 X161.701 Y130.825
G1 X163.096 Y132.395
G1 X164.459 Y133.994
G1 X165.788 Y135.621
G1 X167.084 Y137.275
G1 X168.346 Y138.956
G1 X170.262 Y141.604
G1 X172.151 Y144.27
G1 X174.013 Y146.956
G1 X175.848 Y149.66
G1 X177.329 Y151.815
G1 X178.325 Y153.199
G1 X179.351 Y154.561
G1 X180.407 Y155.9
G1 X181.07 Y156.694
G1 X181.776 Y157.447
G1 X182.525 Y158.159
G1 X183.313 Y158.827
G1 X183.778 Y159.163
G1 X184.276 Y159.442
G1 X184.804 Y159.662
G1 X185.354 Y159.82
G1 X185.665 Y159.859
G1 X185.975
G1 X186.282 Y159.831
G1 X186.582 Y159.765
G1 X186.873 Y159.666
G1 X187.152 Y159.534
G1 X187.416 Y159.37
G1 X187.661 Y159.175
G1 X188.131 Y158.712
G1 X188.553 Y158.207
G1 X188.924 Y157.663
G1 X189.243 Y157.086
G1 X189.761 Y155.965
G1 X190.216 Y154.817
G1 X190.605 Y153.646
G1 X190.928 Y152.454
G1 X191.482 Y149.985
G1 X191.938 Y147.497
G1 X192.296 Y144.992
G1 X192.555 Y142.475
G1 X192.721 Y140.391
G1 X192.851 Y138.305
G1 X192.944 Y136.218
G1 X193.002 Y134.131
G1 X193.024 Y132.044
G1 X193.01 Y129.957
G1 X192.961 Y127.871
G1 X192.875 Y125.786
G1 X192.754 Y123.704
G1 X192.597 Y121.623
G1 X192.404 Y119.545
G1 X192.176 Y117.47
G1 X191.911 Y115.399
G1 X191.612 Y113.332
G1 X191.276 Y111.269
G1 X190.905 Y109.211
G1 X190.605 Y107.72
G1 X190.276 Y106.234
G1 X189.917 Y104.756
G1 X189.528 Y103.286
G1 X189.11 Y101.824
G1 X188.663 Y100.37
G1 X188.187 Y98.925
G1 X187.682 Y97.49
G1 X187.234 Y96.294
G1 X186.754 Y95.113
G1 X186.242 Y93.945
G1 X185.697 Y92.792
G1 X185.121 Y91.655
G1 X184.513 Y90.535
G1 X183.874 Y89.431
G1 X183.204 Y88.344
G1 X182.632 Y87.479
G1 X182.028 Y86.636
G1 X181.393 Y85.818
G1 X180.728 Y85.025
G1 X180.033 Y84.258
G1 X179.31 Y83.517
G1 X178.558 Y82.804
G1 X177.779 Y82.119
G1 X177.039 Y81.527
G1 X176.274 Y80.974
G1 X175.485 Y80.462
G1 X174.675 Y79.991
G1 X173.845 Y79.561
G1 X172.996 Y79.173
G1 X172.13 Y78.826
G1 X171.248 Y78.523
G1 X170.353 Y78.263
G1 X169.446 Y78.047
G1 X168.529 Y77.875
G1 X167.602 Y77.747
G1 X166.668 Y77.665
G1 X165.729 Y77.629
G1 X164.785 Y77.64
G1 X163.839 Y77.697
G1 X162.667 Y77.821
G1 X161.503 Y77.995
G1 X160.348 Y78.217
G1 X159.204 Y78.488
G1 X158.073 Y78.806
G1 X156.955 Y79.172
G1 X155.853 Y79.584
G1 X154.767 Y80.044
G1 X153.598 Y80.585
G1 X152.449 Y81.161
G1 X151.32 Y81.772
G1 X150.212 Y82.418
G1 X149.125 Y83.097
G1 X148.062 Y83.809
G1 X147.021 Y84.554
G1 X146.005 Y85.331
G1 X145.013 Y86.139
G1 X144.047 Y86.978
G1 X143.107 Y87.847
; Layer C00 Pass 3 of 3
G1 X142.194 Y88.746
G1 X141.309 Y89.674
G1 X140.452 Y90.63
G1 X139.624 Y91.615
G1 X138.827 Y92.626
G1 X138.335 Y93.295
G1 X137.868 Y93.98
G1 X137.427 Y94.681
G1 X137.011 Y95.398
G1 X136.622 Y96.13
G1 X136.26 Y96.875
G1 X135.925 Y97.634
G1 X135.618 Y98.405
G1 X135.398 Y99.033
G1 X135.215 Y99.672
G1 X135.07 Y100.319
G1 X134.962 Y100.972
G1 X134.891 Y101.631
G1 X134.858 Y102.293
G1  Y102.958
G1 X134.907 Y103.622
G1 X135.01 Y104.269
G1 X135.153 Y104.906
G1 X135.336 Y105.531
G1 X135.557 Y106.143
G1 X135.817 Y106.74
G1 X136.114 Y107.32
G1 X136.447 Y107.881
G1 X136.817 Y108.422
G1 X137.537 Y109.361
G1 X138.307 Y110.257
G1 X139.126 Y111.11
G1 X139.992 Y111.917
G1 X141.117 Y112.9
G1 X142.263 Y113.86
G1 X143.427 Y114.797
G1 X144.61 Y115.711
G1 X147.258 Y117.749
G1 X149.865 Y119.776
G1 X152.412 Y121.875
G1 X154.899 Y124.047
G1 X157.323 Y126.289
G1 X158.814 Y127.771
G1 X160.273 Y129.283
G1 X161.701 Y130.825
G1 X163.096 Y132.395
G1 X164.459 Y133.994
G1 X165.788 Y135.621
G1 X167.084 Y137.275
G1 X168.346 Y138.956
G1 X170.262 Y141.604
G1 X172.151 Y144.27
G1 X174.013 Y146.956
G1 X175.848 Y149.66
G1 X177.329 Y151.815
G1 X178.325 Y153.199
G1 X179.351 Y154.561
G1 X180.407 Y155.9
G1 X181.07 Y156.694
G1 X181.776 Y157.447
G1 X182.525 Y158.159
G1 X183.313 Y158.827
G1 X183.778 Y159.163
G1 X184.276 Y159.442
G1 X184.804 Y159.662
G1 X185.354 Y159.82
G1 X185.665 Y159.859
G1 X185.975
G1 X186.282 Y159.831
G1 X186.582 Y159.765
G1 X186.873 Y159.666
G1 X187.152 Y159.534
G1 X187.416 Y159.37
G1 X187.661 Y159.175
G1 X188.131 Y158.712
G1 X188.553 Y158.207
G1 X188.924 Y157.663
G1 X189.243 Y157.086
G1 X189.761 Y155.965
G1 X190.216 Y154.817
G1 X190.605 Y153.646
G1 X190.928 Y152.454
G1 X191.482 Y149.985
G1 X191.938 Y147.497
G1 X192.296 Y144.992
G1 X192.555 Y142.475
G1 X192.721 Y140.391
G1 X192.851 Y138.305
G1 X192.944 Y136.218
G1 X193.002 Y134.131
G1 X193.024 Y132.044
G1 X193.01 Y129.957
G1 X192.961 Y127.871
G1 X192.875 Y125.786
G1 X192.754 Y123.704
G1 X192.597 Y121.623
G1 X192.404 Y119.545
G1 X192.176 Y117.47
G1 X191.911 Y115.399
G1 X191.612 Y113.332
G1 X191.276 Y111.269
G1 X190.905 Y109.211
G1 X190.605 Y107.72
G1 X190.276 Y106.234
G1 X189.917 Y104.756
G1 X189.528 Y103.286
G1 X189.11 Y101.824
G1 X188.663 Y100.37
G1 X188.187 Y98.925
G1 X187.682 Y97.49
G1 X187.234 Y96.294
G1 X186.754 Y95.113
G1 X186.242 Y93.945
G1 X185.697 Y92.792
G1 X185.121 Y91.655
G1 X184.513 Y90.535
G1 X183.874 Y89.431
G1 X183.204 Y88.344
G1 X182.632 Y87.479
G1 X182.028 Y86.636
G1 X181.393 Y85.818
G1 X180.728 Y85.025
G1 X180.033 Y84.258
G1 X179.31 Y83.517
G1 X178.558 Y82.804
G1 X177.779 Y82.119
G1 X177.039 Y81.527
G1 X176.274 Y80.974
G1 X175.485 Y80.462
G1 X174.675 Y79.991
G1 X173.845 Y79.561
G1 X172.996 Y79.173
G1 X172.13 Y78.826
G1 X171.248 Y78.523
G1 X170.353 Y78.263
G1 X169.446 Y78.047
G1 X168.529 Y77.875
G1 X167.602 Y77.747
G1 X166.668 Y77.665
G1 X165.729 Y77.629
G1 X164.785 Y77.64
G1 X163.839 Y77.697
G1 X162.667 Y77.821
G1 X161.503 Y77.995
G1 X160.348 Y78.217
G1 X159.204 Y78.488
G1 X158.073 Y78.806
G1 X156.955 Y79.172
G1 X155.853 Y79.584
G1 X154.767 Y80.044
G1 X153.598 Y80.585
G1 X152.449 Y81.161
G1 X151.32 Y81.772
G1 X150.212 Y82.418
G1 X149.125 Y83.097
G1 X148.062 Y83.809
G1 X147.021 Y84.554
G1 X146.005 Y85.331
G1 X145.013 Y86.139
G1 X144.047 Y86.978
G1 X143.107 Y87.847
M05 
G0 X122.412 Y102.326 F0
; Layer C00 Pass 1 of 3
M03 S1000
G1 X123.897 Y103.811 F600
G1 X116.826 Y110.882
G1 X186.763 Y180.819
G1 X193.834 Y173.748
G1 X195.319 Y175.233
G1 X188.248 Y182.304
G1 X201.949 Y196.005
G1 X202.188 Y196.181
G1 X202.461 Y196.279
G1 X202.751 Y196.294
G1 X203.039 Y196.222
G1 X203.293 Y196.069
G1 X203.488 Y195.854
G1 X203.612 Y195.591
G1 X203.656 Y195.298
G1  Y64.636
G1 X193.655
G1  Y62.536
G1 X203.655
G1  Y19.706
G1 X203.62 Y18.872
G1 X203.516 Y18.047
G1 X203.345 Y17.237
G1 X203.108 Y16.445
G1 X202.806 Y15.675
G1 X202.441 Y14.932
G1 X202.014 Y14.219
G1 X201.527 Y13.54
G1 X199.985 Y11.965
G1 X199.294 Y11.449
G1 X198.566 Y10.996
G1 X197.805 Y10.608
G1 X197.015 Y10.288
G1 X196.2 Y10.036
G1 X195.366 Y9.854
G1 X194.516 Y9.744
G1 X193.655 Y9.706
G1 X191.655
G1  Y19.706
G1 X189.555
G1 X189.65 Y9.706
G1 X185.646
G1 X184.844 Y9.721
G1 X184.046 Y9.766
G1 X183.251 Y9.84
G1 X182.461 Y9.944
G1 X181.677 Y10.076
G1 X180.898 Y10.237
G1 X180.127 Y10.427
G1 X179.363 Y10.645
G1 X178.608 Y10.891
G1 X177.863 Y11.165
G1 X177.127 Y11.466
G1 X176.402 Y11.795
G1 X175.689 Y12.151
G1 X174.989 Y12.533
G1 X174.302 Y12.943
G1 X173.629 Y13.378
G1 X170.934 Y15.176
G1 X168.218 Y16.943
G1 X165.482 Y18.679
G1 X162.727 Y20.384
G1 X160.21 Y21.911
G1 X157.671 Y23.4
G1 X155.111 Y24.852
G1 X152.53 Y26.266
G1 X149.929 Y27.643
G1 X147.308 Y28.981
G1 X144.667 Y30.281
G1 X142.007 Y31.543
G1 X140.011 Y32.45
G1 X138 Y33.321
G1 X135.973 Y34.155
G1 X133.932 Y34.952
G1 X131.877 Y35.712
G1 X129.808 Y36.434
G1 X127.726 Y37.119
G1 X125.632 Y37.766
G1 X123.884 Y38.266
G1 X122.126 Y38.723
G1 X120.357 Y39.136
G1 X118.579 Y39.505
G1 X116.792 Y39.83
G1 X114.998 Y40.111
G1 X113.196 Y40.347
G1 X111.389 Y40.539
G1 X109.664 Y40.67
G1 X107.936 Y40.739
G1 X106.209
G1 X104.483 Y40.696
G1 X102.759 Y40.584
G1 X101.04 Y40.411
G1 X99.327 Y40.178
G1 X97.622 Y39.884
G1 X96.478 Y39.639
G1 X95.342 Y39.364
G1 X94.215 Y39.058
G1 X93.098 Y38.723
G1 X91.991 Y38.359
G1 X90.895 Y37.965
G1 X89.81 Y37.542
G1 X88.736 Y37.091
G1 X87.676 Y36.611
G1 X86.628 Y36.102
G1 X85.594 Y35.566
G1 X84.574 Y35.002
G1 X83.568 Y34.411
G1 X82.578 Y33.792
G1 X81.604 Y33.146
G1 X80.647 Y32.474
G1 X74.501 Y40.415
G1 X72.84 Y39.129
G1 X78.961 Y31.221
G1 X77.77 Y30.27
G1 X76.606 Y29.286
G1 X77.379 Y29.997
G1 X75.82 Y28.59
G1 X74.581 Y27.438
G1 X73.356 Y26.234
G1 X72.147 Y24.978
G1 X70.953 Y23.67
G1 X69.774 Y22.31
G1 X68.612 Y20.899
G1 X67.465 Y19.436
G1 X66.334 Y17.921
G1 X65.602 Y16.978
G1 X64.82 Y16.086
G1 X63.992 Y15.246
G1 X63.119 Y14.46
G1 X62.204 Y13.729
G1 X61.251 Y13.054
G1 X60.261 Y12.436
G1 X59.238 Y11.878
G1 X58.184 Y11.38
G1 X57.102 Y10.945
G1 X55.995 Y10.572
G1 X54.865 Y10.264
G1 X53.716 Y10.022
G1 X52.549 Y9.848
G1 X51.368 Y9.742
G1 X50.175 Y9.706
G1 X34.344
G1 X33.829 Y9.719
G1 X33.321 Y9.758
G1 X32.821 Y9.822
G1 X32.328 Y9.91
G1 X31.37 Y10.156
G1 X30.451 Y10.492
G1 X29.577 Y10.913
G1 X28.753 Y11.414
G1 X27.983 Y11.99
G1 X27.273 Y12.635
G1 X26.627 Y13.346
G1 X26.052 Y14.115
G1 X25.551 Y14.94
G1 X25.13 Y15.814
G1 X24.793 Y16.733
G1 X24.547 Y17.691
G1 X24.459 Y18.184
G1 X24.395 Y18.684
G1 X24.357 Y19.192
G1 X24.344 Y19.706
G1  Y27.481
G1 X34.344
G1  Y29.581
G1 X24.344
G1  Y43.355
G1 X24.362 Y44.099
G1 X24.417 Y44.837
G1 X24.508 Y45.57
G1 X24.635 Y46.295
G1 X24.796 Y47.011
G1 X24.992 Y47.717
G1 X25.222 Y48.412
G1 X25.485 Y49.095
G1 X25.782 Y49.764
G1 X26.111 Y50.418
G1 X26.472 Y51.056
G1 X26.864 Y51.677
G1 X27.287 Y52.279
G1 X27.741 Y52.861
G1 X28.224 Y53.422
G1 X28.737 Y53.961
G1 X36.271 Y61.495
G1 X37.481 Y62.37
G1 X38.719 Y63.204
G1 X39.647 Y63.792
G1 X40.605 Y64.329
G1 X41.59 Y64.814
G1 X42.6 Y65.246
G1 X43.255 Y65.471
G1 X43.924 Y65.633
G1 X44.603 Y65.731
G1 X45.286 Y65.766
G1 X45.969 Y65.738
G1 X46.649 Y65.647
G1 X47.32 Y65.492
G1 X47.977 Y65.273
G1 X48.204 Y65.16
G1 X48.392 Y64.996
G1 X48.534 Y64.79
G1 X48.621 Y64.552
G1 X48.646 Y64.3
G1 X48.607 Y64.053
G1 X48.509 Y63.823
G1 X48.354 Y63.623
G1 X46.552 Y61.821
G1 X49.981 Y58.391
G1 X42.91 Y51.32
G1 X44.395 Y49.835
G1 X51.466 Y56.906
G1 X57.158 Y51.214
G1 X115.341 Y109.397
G1 X122.412 Y102.326
; Layer C00 Pass 2 of 3
G1 X123.897 Y103.811
G1 X116.826 Y110.882
G1 X186.763 Y180.819
G1 X193.834 Y173.748
G1 X195.319 Y175.233
G1 X188.248 Y182.304
G1 X201.949 Y196.005
G1 X202.188 Y196.181
G1 X202.461 Y196.279
G1 X202.751 Y196.294
G1 X203.039 Y196.222
G1 X203.293 Y196.069
G1 X203.488 Y195.854
G1 X203.612 Y195.591
G1 X203.656 Y195.298
G1  Y64.636
G1 X193.655
G1  Y62.536
G1 X203.655
G1  Y19.706
G1 X203.62 Y18.872
G1 X203.516 Y18.047
G1 X203.345 Y17.237
G1 X203.108 Y16.445
G1 X202.806 Y15.675
G1 X202.441 Y14.932
G1 X202.014 Y14.219
G1 X201.527 Y13.54
G1 X199.985 Y11.965
G1 X199.294 Y11.449
G1 X198.566 Y10.996
G1 X197.805 Y10.608
G1 X197.015 Y10.288
G1 X196.2 Y10.036
G1 X195.366 Y9.854
G1 X194.516 Y9.744
G1 X193.655 Y9.706
G1 X191.655
G1  Y19.706
G1 X189.555
G1 X189.65 Y9.706
G1 X185.646
G1 X184.844 Y9.721
G1 X184.046 Y9.766
G1 X183.251 Y9.84
G1 X182.461 Y9.944
G1 X181.677 Y10.076
G1 X180.898 Y10.237
G1 X180.127 Y10.427
G1 X179.363 Y10.645
G1 X178.608 Y10.891
G1 X177.863 Y11.165
G1 X177.127 Y11.466
G1 X176.402 Y11.795
G1 X175.689 Y12.151
G1 X174.989 Y12.533
G1 X174.302 Y12.943
G1 X173.629 Y13.378
G1 X170.934 Y15.176
G1 X168.218 Y16.943
G1 X165.482 Y18.679
G1 X162.727 Y20.384
G1 X160.21 Y21.911
G1 X157.671 Y23.4
G1 X155.111 Y24.852
G1 X152.53 Y26.266
G1 X149.929 Y27.643
G1 X147.308 Y28.981
G1 X144.667 Y30.281
G1 X142.007 Y31.543
G1 X140.011 Y32.45
G1 X138 Y33.321
G1 X135.973 Y34.155
G1 X133.932 Y34.952
G1 X131.877 Y35.712
G1 X129.808 Y36.434
G1 X127.726 Y37.119
G1 X125.632 Y37.766
G1 X123.884 Y38.266
G1 X122.126 Y38.723
G1 X120.357 Y39.136
G1 X118.579 Y39.505
G1 X116.792 Y39.83
G1 X114.998 Y40.111
G1 X113.196 Y40.347
G1 X111.389 Y40.539
G1 X109.664 Y40.67
G1 X107.936 Y40.739
G1 X106.209
G1 X104.483 Y40.696
G1 X102.759 Y40.584
G1 X101.04 Y40.411
G1 X99.327 Y40.178
G1 X97.622 Y39.884
G1 X96.478 Y39.639
G1 X95.342 Y39.364
G1 X94.215 Y39.058
G1 X93.098 Y38.723
G1 X91.991 Y38.359
G1 X90.895 Y37.965
G1 X89.81 Y37.542
G1 X88.736 Y37.091
G1 X87.676 Y36.611
G1 X86.628 Y36.102
G1 X85.594 Y35.566
G1 X84.574 Y35.002
G1 X83.568 Y34.411
G1 X82.578 Y33.792
G1 X81.604 Y33.146
G1 X80.647 Y32.474
G1 X74.501 Y40.415
G1 X72.84 Y39.129
G1 X78.961 Y31.221
G1 X77.77 Y30.27
G1 X76.606 Y29.286
G1 X77.379 Y29.997
G1 X75.82 Y28.59
G1 X74.581 Y27.438
G1 X73.356 Y26.234
G1 X72.147 Y24.978
G1 X70.953 Y23.67
G1 X69.774 Y22.31
G1 X68.612 Y20.899
G1 X67.465 Y19.436
G1 X66.334 Y17.921
G1 X65.602 Y16.978
G1 X64.82 Y16.086
G1 X63.992 Y15.246
G1 X63.119 Y14.46
G1 X62.204 Y13.729
G1 X61.251 Y13.054
G1 X60.261 Y12.436
G1 X59.238 Y11.878
G1 X58.184 Y11.38
G1 X57.102 Y10.945
G1 X55.995 Y10.572
G1 X54.865 Y10.264
G1 X53.716 Y10.022
G1 X52.549 Y9.848
G1 X51.368 Y9.742
G1 X50.175 Y9.706
G1 X34.344
G1 X33.829 Y9.719
G1 X33.321 Y9.758
G1 X32.821 Y9.822
G1 X32.328 Y9.91
G1 X31.37 Y10.156
G1 X30.451 Y10.492
G1 X29.577 Y10.913
G1 X28.753 Y11.414
G1 X27.983 Y11.99
G1 X27.273 Y12.635
G1 X26.627 Y13.346
G1 X26.052 Y14.115
G1 X25.551 Y14.94
G1 X25.13 Y15.814
G1 X24.793 Y16.733
G1 X24.547 Y17.691
G1 X24.459 Y18.184
G1 X24.395 Y18.684
G1 X24.357 Y19.192
G1 X24.344 Y19.706
G1  Y27.481
G1 X34.344
G1  Y29.581
G1 X24.344
G1  Y43.355
G1 X24.362 Y44.099
G1 X24.417 Y44.837
G1 X24.508 Y45.57
G1 X24.635 Y46.295
G1 X24.796 Y47.011
G1 X24.992 Y47.717
G1 X25.222 Y48.412
G1 X25.485 Y49.095
G1 X25.782 Y49.764
G1 X26.111 Y50.418
G1 X26.472 Y51.056
G1 X26.864 Y51.677
G1 X27.287 Y52.279
G1 X27.741 Y52.861
G1 X28.224 Y53.422
G1 X28.737 Y53.961
G1 X36.271 Y61.495
G1 X37.481 Y62.37
G1 X38.719 Y63.204
G1 X39.647 Y63.792
G1 X40.605 Y64.329
G1 X41.59 Y64.814
G1 X42.6 Y65.246
G1 X43.255 Y65.471
G1 X43.924 Y65.633
G1 X44.603 Y65.731
G1 X45.286 Y65.766
G1 X45.969 Y65.738
G1 X46.649 Y65.647
G1 X47.32 Y65.492
G1 X47.977 Y65.273
G1 X48.204 Y65.16
G1 X48.392 Y64.996
G1 X48.534 Y64.79
G1 X48.621 Y64.552
G1 X48.646 Y64.3
G1 X48.607 Y64.053
G1 X48.509 Y63.823
G1 X48.354 Y63.623
G1 X46.552 Y61.821
G1 X49.981 Y58.391
G1 X42.91 Y51.32
G1 X44.395 Y49.835
G1 X51.466 Y56.906
G1 X57.158 Y51.214
G1 X115.341 Y109.397
G1 X122.412 Y102.326
; Layer C00 Pass 3 of 3
G1 X123.897 Y103.811
G1 X116.826 Y110.882
G1 X186.763 Y180.819
G1 X193.834 Y173.748
G1 X195.319 Y175.233
G1 X188.248 Y182.304
G1 X201.949 Y196.005
G1 X202.188 Y196.181
G1 X202.461 Y196.279
G1 X202.751 Y196.294
G1 X203.039 Y196.222
G1 X203.293 Y196.069
G1 X203.488 Y195.854
G1 X203.612 Y195.591
G1 X203.656 Y195.298
G1  Y64.636
G1 X193.655
G1  Y62.536
G1 X203.655
G1  Y19.706
G1 X203.62 Y18.872
G1 X203.516 Y18.047
G1 X203.345 Y17.237
G1 X203.108 Y16.445
G1 X202.806 Y15.675
G1 X202.441 Y14.932
G1 X202.014 Y14.219
G1 X201.527 Y13.54
G1 X199.985 Y11.965
G1 X199.294 Y11.449
G1 X198.566 Y10.996
G1 X197.805 Y10.608
G1 X197.015 Y10.288
G1 X196.2 Y10.036
G1 X195.366 Y9.854
G1 X194.516 Y9.744
G1 X193.655 Y9.706
G1 X191.655
G1  Y19.706
G1 X189.555
G1 X189.65 Y9.706
G1 X185.646
G1 X184.844 Y9.721
G1 X184.046 Y9.766
G1 X183.251 Y9.84
G1 X182.461 Y9.944
G1 X181.677 Y10.076
G1 X180.898 Y10.237
G1 X180.127 Y10.427
G1 X179.363 Y10.645
G1 X178.608 Y10.891
G1 X177.863 Y11.165
G1 X177.127 Y11.466
G1 X176.402 Y11.795
G1 X175.689 Y12.151
G1 X174.989 Y12.533
G1 X174.302 Y12.943
G1 X173.629 Y13.378
G1 X170.934 Y15.176
G1 X168.218 Y16.943
G1 X165.482 Y18.679
G1 X162.727 Y20.384
G1 X160.21 Y21.911
G1 X157.671 Y23.4
G1 X155.111 Y24.852
G1 X152.53 Y26.266
G1 X149.929 Y27.643
G1 X147.308 Y28.981
G1 X144.667 Y30.281
G1 X142.007 Y31.543
G1 X140.011 Y32.45
G1 X138 Y33.321
G1 X135.973 Y34.155
G1 X133.932 Y34.952
G1 X131.877 Y35.712
G1 X129.808 Y36.434
G1 X127.726 Y37.119
G1 X125.632 Y37.766
G1 X123.884 Y38.266
G1 X122.126 Y38.723
G1 X120.357 Y39.136
G1 X118.579 Y39.505
G1 X116.792 Y39.83
G1 X114.998 Y40.111
G1 X113.196 Y40.347
G1 X111.389 Y40.539
G1 X109.664 Y40.67
G1 X107.936 Y40.739
G1 X106.209
G1 X104.483 Y40.696
G1 X102.759 Y40.584
G1 X101.04 Y40.411
G1 X99.327 Y40.178
G1 X97.622 Y39.884
G1 X96.478 Y39.639
G1 X95.342 Y39.364
G1 X94.215 Y39.058
G1 X93.098 Y38.723
G1 X91.991 Y38.359
G1 X90.895 Y37.965
G1 X89.81 Y37.542
G1 X88.736 Y37.091
G1 X87.676 Y36.611
G1 X86.628 Y36.102
G1 X85.594 Y35.566
G1 X84.574 Y35.002
G1 X83.568 Y34.411
G1 X82.578 Y33.792
G1 X81.604 Y33.146
G1 X80.647 Y32.474
G1 X74.501 Y40.415
G1 X72.84 Y39.129
G1 X78.961 Y31.221
G1 X77.77 Y30.27
G1 X76.606 Y29.286
G1 X77.379 Y29.997
G1 X75.82 Y28.59
G1 X74.581 Y27.438
G1 X73.356 Y26.234
G1 X72.147 Y24.978
G1 X70.953 Y23.67
G1 X69.774 Y22.31
G1 X68.612 Y20.899
G1 X67.465 Y19.436
G1 X66.334 Y17.921
G1 X65.602 Y16.978
G1 X64.82 Y16.086
G1 X63.992 Y15.246
G1 X63.119 Y14.46
G1 X62.204 Y13.729
G1 X61.251 Y13.054
G1 X60.261 Y12.436
G1 X59.238 Y11.878
G1 X58.184 Y11.38
G1 X57.102 Y10.945
G1 X55.995 Y10.572
G1 X54.865 Y10.264
G1 X53.716 Y10.022
G1 X52.549 Y9.848
G1 X51.368 Y9.742
G1 X50.175 Y9.706
G1 X34.344
G1 X33.829 Y9.719
G1 X33.321 Y9.758
G1 X32.821 Y9.822
G1 X32.328 Y9.91
G1 X31.37 Y10.156
G1 X30.451 Y10.492
G1 X29.577 Y10.913
G1 X28.753 Y11.414
G1 X27.983 Y11.99
G1 X27.273 Y12.635
G1 X26.627 Y13.346
G1 X26.052 Y14.115
G1 X25.551 Y14.94
G1 X25.13 Y15.814
G1 X24.793 Y16.733
G1 X24.547 Y17.691
G1 X24.459 Y18.184
G1 X24.395 Y18.684
G1 X24.357 Y19.192
G1 X24.344 Y19.706
G1  Y27.481
G1 X34.344
G1  Y29.581
G1 X24.344
G1  Y43.355
G1 X24.362 Y44.099
G1 X24.417 Y44.837
G1 X24.508 Y45.57
G1 X24.635 Y46.295
G1 X24.796 Y47.011
G1 X24.992 Y47.717
G1 X25.222 Y48.412
G1 X25.485 Y49.095
G1 X25.782 Y49.764
G1 X26.111 Y50.418
G1 X26.472 Y51.056
G1 X26.864 Y51.677
G1 X27.287 Y52.279
G1 X27.741 Y52.861
G1 X28.224 Y53.422
G1 X28.737 Y53.961
G1 X36.271 Y61.495
G1 X37.481 Y62.37
G1 X38.719 Y63.204
G1 X39.647 Y63.792
G1 X40.605 Y64.329
G1 X41.59 Y64.814
G1 X42.6 Y65.246
G1 X43.255 Y65.471
G1 X43.924 Y65.633
G1 X44.603 Y65.731
G1 X45.286 Y65.766
G1 X45.969 Y65.738
G1 X46.649 Y65.647
G1 X47.32 Y65.492
G1 X47.977 Y65.273
G1 X48.204 Y65.16
G1 X48.392 Y64.996
G1 X48.534 Y64.79
G1 X48.621 Y64.552
G1 X48.646 Y64.3
G1 X48.607 Y64.053
G1 X48.509 Y63.823
G1 X48.354 Y63.623
G1 X46.552 Y61.821
G1 X49.981 Y58.391
G1 X42.91 Y51.32
G1 X44.395 Y49.835
G1 X51.466 Y56.906
G1 X57.158 Y51.214
G1 X115.341 Y109.397
G1 X122.412 Y102.326
M05 
G0 X99.344 Y141.656 F0
; Layer C00 Pass 1 of 3
M03 S1000
G1 X98.283 Y141.382 F600
G1 X97.207 Y141.179
G1 X96.12 Y141.05
G1 X95.025 Y140.994
G1 X93.926 Y141.012
G1 X92.828 Y141.105
G1 X91.665 Y141.268
G1 X90.512 Y141.49
G1 X89.372 Y141.771
G1 X88.247 Y142.109
G1 X87.229 Y142.468
G1 X86.222 Y142.855
G1 X85.226 Y143.269
G1 X84.242 Y143.711
G1 X83.27 Y144.181
G1 X82.312 Y144.676
G1 X81.368 Y145.199
G1 X80.438 Y145.748
G1 X78.979 Y146.659
G1 X77.542 Y147.604
G1 X76.128 Y148.581
G1 X74.737 Y149.59
G1 X73.369 Y150.631
G1 X72.026 Y151.704
G1 X70.707 Y152.807
G1 X69.414 Y153.941
G1 X67.807 Y155.388
G1 X66.235 Y156.873
G1 X64.701 Y158.394
G1 X63.203 Y159.951
G1 X61.743 Y161.544
G1 X60.322 Y163.172
G1 X58.939 Y164.833
G1 X57.596 Y166.528
G1 X56.473 Y168.036
G1 X55.419 Y169.591
G1 X54.434 Y171.192
G1 X53.521 Y172.835
G1 X53.061 Y173.769
G1 X52.666 Y174.731
G1 X52.337 Y175.718
G1 X52.076 Y176.726
G1 X51.97 Y177.365
G1 X51.944 Y178.01
G1 X52 Y178.653
G1 X52.137 Y179.286
G1 X52.276 Y179.626
G1 X52.449 Y179.947
G1 X52.654 Y180.245
G1 X52.89 Y180.518
G1 X53.154 Y180.765
G1 X53.444 Y180.982
G1 X53.757 Y181.168
G1 X54.091 Y181.32
G1 X54.861 Y181.589
G1 X55.651 Y181.789
G1 X56.455 Y181.92
G1 X57.268 Y181.98
G1 X58.463 Y182.01
G1 X59.658 Y181.99
G1 X60.85 Y181.922
G1 X62.04 Y181.804
G1 X64.368 Y181.509
G1 X66.69 Y181.169
G1 X69.004 Y180.783
G1 X71.311 Y180.353
G1 X75.334 Y179.59
G1 X79.357 Y178.821
G1 X81.214 Y178.473
G1 X85.356 Y177.716
G1 X89.511 Y177.037
G1 X93.679 Y176.437
G1 X97.857 Y175.916
G1 X101.021 Y175.594
G1 X104.19 Y175.323
G1 X107.363 Y175.103
G1 X110.54 Y174.934
G1 X113.148 Y174.807
G1 X114.689 Y174.74
G1 X116.228 Y174.638
G1 X117.764 Y174.501
G1 X119.297 Y174.328
G1 X119.962 Y174.226
G1 X120.617 Y174.078
G1 X121.261 Y173.886
G1 X121.89 Y173.65
G1 X122.306 Y173.442
G1 X122.678 Y173.168
G1 X122.998 Y172.836
G1 X123.26 Y172.452
G1 X123.422 Y172.005
G1 X123.512 Y171.542
G1 X123.529 Y171.07
G1 X123.472 Y170.599
G1 X123.303 Y169.846
G1 X123.084 Y169.107
G1 X122.817 Y168.385
G1 X122.501 Y167.681
G1 X121.717 Y166.123
G1 X120.884 Y164.591
G1 X120.002 Y163.086
G1 X119.073 Y161.609
G1 X117.459 Y159.122
G1 X115.785 Y156.676
G1 X114.052 Y154.271
G1 X112.259 Y151.909
G1 X110.98 Y150.325
G1 X109.631 Y148.801
G1 X108.215 Y147.34
G1 X106.733 Y145.943
G1 X106.127 Y145.417
G1 X105.503 Y144.915
G1 X104.861 Y144.437
G1 X104.201 Y143.983
G1 X103.526 Y143.554
G1 X102.834 Y143.15
G1 X102.128 Y142.772
G1 X101.407 Y142.421
G1 X100.387 Y142.003
G1 X99.344 Y141.656
; Layer C00 Pass 2 of 3
G1 X98.283 Y141.382
G1 X97.207 Y141.179
G1 X96.12 Y141.05
G1 X95.025 Y140.994
G1 X93.926 Y141.012
G1 X92.828 Y141.105
G1 X91.665 Y141.268
G1 X90.512 Y141.49
G1 X89.372 Y141.771
G1 X88.247 Y142.109
G1 X87.229 Y142.468
G1 X86.222 Y142.855
G1 X85.226 Y143.269
G1 X84.242 Y143.711
G1 X83.27 Y144.181
G1 X82.312 Y144.676
G1 X81.368 Y145.199
G1 X80.438 Y145.748
G1 X78.979 Y146.659
G1 X77.542 Y147.604
G1 X76.128 Y148.581
G1 X74.737 Y149.59
G1 X73.369 Y150.631
G1 X72.026 Y151.704
G1 X70.707 Y152.807
G1 X69.414 Y153.941
G1 X67.807 Y155.388
G1 X66.235 Y156.873
G1 X64.701 Y158.394
G1 X63.203 Y159.951
G1 X61.743 Y161.544
G1 X60.322 Y163.172
G1 X58.939 Y164.833
G1 X57.596 Y166.528
G1 X56.473 Y168.036
G1 X55.419 Y169.591
G1 X54.434 Y171.192
G1 X53.521 Y172.835
G1 X53.061 Y173.769
G1 X52.666 Y174.731
G1 X52.337 Y175.718
G1 X52.076 Y176.726
G1 X51.97 Y177.365
G1 X51.944 Y178.01
G1 X52 Y178.653
G1 X52.137 Y179.286
G1 X52.276 Y179.626
G1 X52.449 Y179.947
G1 X52.654 Y180.245
G1 X52.89 Y180.518
G1 X53.154 Y180.765
G1 X53.444 Y180.982
G1 X53.757 Y181.168
G1 X54.091 Y181.32
G1 X54.861 Y181.589
G1 X55.651 Y181.789
G1 X56.455 Y181.92
G1 X57.268 Y181.98
G1 X58.463 Y182.01
G1 X59.658 Y181.99
G1 X60.85 Y181.922
G1 X62.04 Y181.804
G1 X64.368 Y181.509
G1 X66.69 Y181.169
G1 X69.004 Y180.783
G1 X71.311 Y180.353
G1 X75.334 Y179.59
G1 X79.357 Y178.821
G1 X81.214 Y178.473
G1 X85.356 Y177.716
G1 X89.511 Y177.037
G1 X93.679 Y176.437
G1 X97.857 Y175.916
G1 X101.021 Y175.594
G1 X104.19 Y175.323
G1 X107.363 Y175.103
G1 X110.54 Y174.934
G1 X113.148 Y174.807
G1 X114.689 Y174.74
G1 X116.228 Y174.638
G1 X117.764 Y174.501
G1 X119.297 Y174.328
G1 X119.962 Y174.226
G1 X120.617 Y174.078
G1 X121.261 Y173.886
G1 X121.89 Y173.65
G1 X122.306 Y173.442
G1 X122.678 Y173.168
G1 X122.998 Y172.836
G1 X123.26 Y172.452
G1 X123.422 Y172.005
G1 X123.512 Y171.542
G1 X123.529 Y171.07
G1 X123.472 Y170.599
G1 X123.303 Y169.846
G1 X123.084 Y169.107
G1 X122.817 Y168.385
G1 X122.501 Y167.681
G1 X121.717 Y166.123
G1 X120.884 Y164.591
G1 X120.002 Y163.086
G1 X119.073 Y161.609
G1 X117.459 Y159.122
G1 X115.785 Y156.676
G1 X114.052 Y154.271
G1 X112.259 Y151.909
G1 X110.98 Y150.325
G1 X109.631 Y148.801
G1 X108.215 Y147.34
G1 X106.733 Y145.943
G1 X106.127 Y145.417
G1 X105.503 Y144.915
G1 X104.861 Y144.437
G1 X104.201 Y143.983
G1 X103.526 Y143.554
G1 X102.834 Y143.15
G1 X102.128 Y142.772
G1 X101.407 Y142.421
G1 X100.387 Y142.003
G1 X99.344 Y141.656
; Layer C00 Pass 3 of 3
G1 X98.283 Y141.382
G1 X97.207 Y141.179
G1 X96.12 Y141.05
G1 X95.025 Y140.994
G1 X93.926 Y141.012
G1 X92.828 Y141.105
G1 X91.665 Y141.268
G1 X90.512 Y141.49
G1 X89.372 Y141.771
G1 X88.247 Y142.109
G1 X87.229 Y142.468
G1 X86.222 Y142.855
G1 X85.226 Y143.269
G1 X84.242 Y143.711
G1 X83.27 Y144.181
G1 X82.312 Y144.676
G1 X81.368 Y145.199
G1 X80.438 Y145.748
G1 X78.979 Y146.659
G1 X77.542 Y147.604
G1 X76.128 Y148.581
G1 X74.737 Y149.59
G1 X73.369 Y150.631
G1 X72.026 Y151.704
G1 X70.707 Y152.807
G1 X69.414 Y153.941
G1 X67.807 Y155.388
G1 X66.235 Y156.873
G1 X64.701 Y158.394
G1 X63.203 Y159.951
G1 X61.743 Y161.544
G1 X60.322 Y163.172
G1 X58.939 Y164.833
G1 X57.596 Y166.528
G1 X56.473 Y168.036
G1 X55.419 Y169.591
G1 X54.434 Y171.192
G1 X53.521 Y172.835
G1 X53.061 Y173.769
G1 X52.666 Y174.731
G1 X52.337 Y175.718
G1 X52.076 Y176.726
G1 X51.97 Y177.365
G1 X51.944 Y178.01
G1 X52 Y178.653
G1 X52.137 Y179.286
G1 X52.276 Y179.626
G1 X52.449 Y179.947
G1 X52.654 Y180.245
G1 X52.89 Y180.518
G1 X53.154 Y180.765
G1 X53.444 Y180.982
G1 X53.757 Y181.168
G1 X54.091 Y181.32
G1 X54.861 Y181.589
G1 X55.651 Y181.789
G1 X56.455 Y181.92
G1 X57.268 Y181.98
G1 X58.463 Y182.01
G1 X59.658 Y181.99
G1 X60.85 Y181.922
G1 X62.04 Y181.804
G1 X64.368 Y181.509
G1 X66.69 Y181.169
G1 X69.004 Y180.783
G1 X71.311 Y180.353
G1 X75.334 Y179.59
G1 X79.357 Y178.821
G1 X81.214 Y178.473
G1 X85.356 Y177.716
G1 X89.511 Y177.037
G1 X93.679 Y176.437
G1 X97.857 Y175.916
G1 X101.021 Y175.594
G1 X104.19 Y175.323
G1 X107.363 Y175.103
G1 X110.54 Y174.934
G1 X113.148 Y174.807
G1 X114.689 Y174.74
G1 X116.228 Y174.638
G1 X117.764 Y174.501
G1 X119.297 Y174.328
G1 X119.962 Y174.226
G1 X120.617 Y174.078
G1 X121.261 Y173.886
G1 X121.89 Y173.65
G1 X122.306 Y173.442
G1 X122.678 Y173.168
G1 X122.998 Y172.836
G1 X123.26 Y172.452
G1 X123.422 Y172.005
G1 X123.512 Y171.542
G1 X123.529 Y171.07
G1 X123.472 Y170.599
G1 X123.303 Y169.846
G1 X123.084 Y169.107
G1 X122.817 Y168.385
G1 X122.501 Y167.681
G1 X121.717 Y166.123
G1 X120.884 Y164.591
G1 X120.002 Y163.086
G1 X119.073 Y161.609
G1 X117.459 Y159.122
G1 X115.785 Y156.676
G1 X114.052 Y154.271
G1 X112.259 Y151.909
G1 X110.98 Y150.325
G1 X109.631 Y148.801
G1 X108.215 Y147.34
G1 X106.733 Y145.943
G1 X106.127 Y145.417
G1 X105.503 Y144.915
G1 X104.861 Y144.437
G1 X104.201 Y143.983
G1 X103.526 Y143.554
G1 X102.834 Y143.15
G1 X102.128 Y142.772
G1 X101.407 Y142.421
G1 X100.387 Y142.003
G1 X99.344 Y141.656
M05 
G0 X83.588 Y125.674 F0
; Layer C00 Pass 1 of 3
M03 S1000
G1 X82.103 Y124.189 F600
G1 X89.174 Y117.118
G1 X19.237 Y47.181
G1 X12.166 Y54.252
G1 X10.681 Y52.767
G1 X17.752 Y45.696
G1 X4.051 Y31.995
G1 X3.812 Y31.819
G1 X3.539 Y31.721
G1 X3.249 Y31.706
G1 X2.961 Y31.778
G1 X2.707 Y31.931
G1 X2.512 Y32.146
G1 X2.388 Y32.409
G1 X2.344 Y32.702
G1  Y163.364
G1 X12.345
G1  Y165.464
G1 X2.345
G1  Y208.294
G1 X2.38 Y209.128
G1 X2.484 Y209.953
G1 X2.655 Y210.763
G1 X2.892 Y211.555
G1 X3.194 Y212.325
G1 X3.559 Y213.068
G1 X3.986 Y213.781
G1 X4.473 Y214.46
G1 X6.015 Y216.035
G1 X6.706 Y216.551
G1 X7.434 Y217.004
G1 X8.195 Y217.392
G1 X8.985 Y217.712
G1 X9.8 Y217.964
G1 X10.634 Y218.146
G1 X11.484 Y218.256
G1 X12.345 Y218.294
G1 X14.345
G1  Y208.294
G1 X16.445
G1 X16.35 Y218.294
G1 X20.354
G1 X21.156 Y218.279
G1 X21.954 Y218.234
G1 X22.749 Y218.16
G1 X23.539 Y218.056
G1 X24.323 Y217.924
G1 X25.102 Y217.763
G1 X25.873 Y217.573
G1 X26.637 Y217.355
G1 X27.392 Y217.109
G1 X28.138 Y216.835
G1 X28.873 Y216.534
G1 X29.598 Y216.205
G1 X30.311 Y215.849
G1 X31.011 Y215.467
G1 X31.698 Y215.057
G1 X32.371 Y214.622
G1 X35.066 Y212.824
G1 X37.782 Y211.057
G1 X40.518 Y209.321
G1 X43.273 Y207.616
G1 X45.79 Y206.089
G1 X48.329 Y204.6
G1 X50.889 Y203.148
G1 X53.47 Y201.734
G1 X56.071 Y200.357
G1 X58.692 Y199.019
G1 X61.333 Y197.719
G1 X63.993 Y196.457
G1 X65.989 Y195.55
G1 X68 Y194.679
G1 X70.027 Y193.845
G1 X72.068 Y193.048
G1 X74.123 Y192.288
G1 X76.192 Y191.566
G1 X78.274 Y190.881
G1 X80.368 Y190.234
G1 X82.116 Y189.734
G1 X83.874 Y189.277
G1 X85.643 Y188.864
G1 X87.421 Y188.495
G1 X89.208 Y188.17
G1 X91.002 Y187.889
G1 X92.804 Y187.653
G1 X94.611 Y187.461
G1 X96.336 Y187.331
G1 X98.064 Y187.261
G1 X99.791
G1 X101.517 Y187.304
G1 X103.241 Y187.416
G1 X104.96 Y187.589
G1 X106.673 Y187.822
G1 X108.378 Y188.116
G1 X109.522 Y188.361
G1 X110.658 Y188.636
G1 X111.785 Y188.942
G1 X112.902 Y189.277
G1 X114.009 Y189.641
G1 X115.105 Y190.035
G1 X116.19 Y190.458
G1 X117.264 Y190.909
G1 X118.324 Y191.389
G1 X119.372 Y191.898
G1 X120.406 Y192.434
G1 X121.426 Y192.998
G1 X122.432 Y193.589
G1 X123.422 Y194.208
G1 X124.396 Y194.854
G1 X125.353 Y195.526
G1 X131.499 Y187.585
G1 X133.16 Y188.871
G1 X127.039 Y196.779
G1 X128.23 Y197.73
G1 X129.394 Y198.714
G1 X128.621 Y198.003
G1 X130.18 Y199.41
G1 X131.419 Y200.562
G1 X132.644 Y201.766
G1 X133.853 Y203.022
G1 X135.047 Y204.33
G1 X136.226 Y205.69
G1 X137.388 Y207.101
G1 X138.535 Y208.564
G1 X139.667 Y210.079
G1 X140.398 Y211.022
G1 X141.18 Y211.914
G1 X142.008 Y212.754
G1 X142.881 Y213.54
G1 X143.796 Y214.271
G1 X144.749 Y214.946
G1 X145.739 Y215.564
G1 X146.762 Y216.122
G1 X147.816 Y216.62
G1 X148.898 Y217.055
G1 X150.005 Y217.428
G1 X151.135 Y217.736
G1 X152.284 Y217.978
G1 X153.451 Y218.152
G1 X154.632 Y218.258
G1 X155.825 Y218.294
G1 X171.656
G1 X172.171 Y218.281
G1 X172.679 Y218.242
G1 X173.179 Y218.178
G1 X173.672 Y218.09
G1 X174.63 Y217.844
G1 X175.549 Y217.508
G1 X176.423 Y217.087
G1 X177.247 Y216.586
G1 X178.017 Y216.01
G1 X178.727 Y215.365
G1 X179.373 Y214.654
G1 X179.949 Y213.885
G1 X180.449 Y213.06
G1 X180.871 Y212.186
G1 X181.207 Y211.267
G1 X181.453 Y210.309
G1 X181.541 Y209.816
G1 X181.605 Y209.316
G1 X181.643 Y208.808
G1 X181.656 Y208.294
G1  Y200.519
G1 X171.656
G1  Y198.419
G1 X181.656
G1  Y184.645
G1 X181.638 Y183.901
G1 X181.583 Y183.163
G1 X181.492 Y182.43
G1 X181.365 Y181.705
G1 X181.204 Y180.989
G1 X181.008 Y180.283
G1 X180.778 Y179.588
G1 X180.515 Y178.905
G1 X180.218 Y178.236
G1 X179.889 Y177.582
G1 X179.528 Y176.944
G1 X179.136 Y176.323
G1 X178.713 Y175.721
G1 X178.259 Y175.139
G1 X177.776 Y174.578
G1 X177.263 Y174.039
G1 X169.729 Y166.505
G1 X168.519 Y165.63
G1 X167.281 Y164.796
G1 X166.353 Y164.208
G1 X165.395 Y163.671
G1 X164.41 Y163.186
G1 X163.4 Y162.754
G1 X162.745 Y162.529
G1 X162.076 Y162.367
G1 X161.397 Y162.269
G1 X160.714 Y162.234
G1 X160.031 Y162.262
G1 X159.351 Y162.353
G1 X158.681 Y162.508
G1 X158.023 Y162.727
G1 X157.796 Y162.84
G1 X157.608 Y163.004
G1 X157.466 Y163.21
G1 X157.379 Y163.448
G1 X157.354 Y163.7
G1 X157.393 Y163.947
G1 X157.491 Y164.177
G1 X157.646 Y164.377
G1 X159.448 Y166.179
G1 X156.019 Y169.609
G1 X163.09 Y176.68
G1 X161.605 Y178.165
G1 X154.534 Y171.094
G1 X148.842 Y176.786
G1 X90.659 Y118.603
G1 X83.588 Y125.674
; Layer C00 Pass 2 of 3
G1 X82.103 Y124.189
G1 X89.174 Y117.118
G1 X19.237 Y47.181
G1 X12.166 Y54.252
G1 X10.681 Y52.767
G1 X17.752 Y45.696
G1 X4.051 Y31.995
G1 X3.812 Y31.819
G1 X3.539 Y31.721
G1 X3.249 Y31.706
G1 X2.961 Y31.778
G1 X2.707 Y31.931
G1 X2.512 Y32.146
G1 X2.388 Y32.409
G1 X2.344 Y32.702
G1  Y163.364
G1 X12.345
G1  Y165.464
G1 X2.345
G1  Y208.294
G1 X2.38 Y209.128
G1 X2.484 Y209.953
G1 X2.655 Y210.763
G1 X2.892 Y211.555
G1 X3.194 Y212.325
G1 X3.559 Y213.068
G1 X3.986 Y213.781
G1 X4.473 Y214.46
G1 X6.015 Y216.035
G1 X6.706 Y216.551
G1 X7.434 Y217.004
G1 X8.195 Y217.392
G1 X8.985 Y217.712
G1 X9.8 Y217.964
G1 X10.634 Y218.146
G1 X11.484 Y218.256
G1 X12.345 Y218.294
G1 X14.345
G1  Y208.294
G1 X16.445
G1 X16.35 Y218.294
G1 X20.354
G1 X21.156 Y218.279
G1 X21.954 Y218.234
G1 X22.749 Y218.16
G1 X23.539 Y218.056
G1 X24.323 Y217.924
G1 X25.102 Y217.763
G1 X25.873 Y217.573
G1 X26.637 Y217.355
G1 X27.392 Y217.109
G1 X28.138 Y216.835
G1 X28.873 Y216.534
G1 X29.598 Y216.205
G1 X30.311 Y215.849
G1 X31.011 Y215.467
G1 X31.698 Y215.057
G1 X32.371 Y214.622
G1 X35.066 Y212.824
G1 X37.782 Y211.057
G1 X40.518 Y209.321
G1 X43.273 Y207.616
G1 X45.79 Y206.089
G1 X48.329 Y204.6
G1 X50.889 Y203.148
G1 X53.47 Y201.734
G1 X56.071 Y200.357
G1 X58.692 Y199.019
G1 X61.333 Y197.719
G1 X63.993 Y196.457
G1 X65.989 Y195.55
G1 X68 Y194.679
G1 X70.027 Y193.845
G1 X72.068 Y193.048
G1 X74.123 Y192.288
G1 X76.192 Y191.566
G1 X78.274 Y190.881
G1 X80.368 Y190.234
G1 X82.116 Y189.734
G1 X83.874 Y189.277
G1 X85.643 Y188.864
G1 X87.421 Y188.495
G1 X89.208 Y188.17
G1 X91.002 Y187.889
G1 X92.804 Y187.653
G1 X94.611 Y187.461
G1 X96.336 Y187.331
G1 X98.064 Y187.261
G1 X99.791
G1 X101.517 Y187.304
G1 X103.241 Y187.416
G1 X104.96 Y187.589
G1 X106.673 Y187.822
G1 X108.378 Y188.116
G1 X109.522 Y188.361
G1 X110.658 Y188.636
G1 X111.785 Y188.942
G1 X112.902 Y189.277
G1 X114.009 Y189.641
G1 X115.105 Y190.035
G1 X116.19 Y190.458
G1 X117.264 Y190.909
G1 X118.324 Y191.389
G1 X119.372 Y191.898
G1 X120.406 Y192.434
G1 X121.426 Y192.998
G1 X122.432 Y193.589
G1 X123.422 Y194.208
G1 X124.396 Y194.854
G1 X125.353 Y195.526
G1 X131.499 Y187.585
G1 X133.16 Y188.871
G1 X127.039 Y196.779
G1 X128.23 Y197.73
G1 X129.394 Y198.714
G1 X128.621 Y198.003
G1 X130.18 Y199.41
G1 X131.419 Y200.562
G1 X132.644 Y201.766
G1 X133.853 Y203.022
G1 X135.047 Y204.33
G1 X136.226 Y205.69
G1 X137.388 Y207.101
G1 X138.535 Y208.564
G1 X139.667 Y210.079
G1 X140.398 Y211.022
G1 X141.18 Y211.914
G1 X142.008 Y212.754
G1 X142.881 Y213.54
G1 X143.796 Y214.271
G1 X144.749 Y214.946
G1 X145.739 Y215.564
G1 X146.762 Y216.122
G1 X147.816 Y216.62
G1 X148.898 Y217.055
G1 X150.005 Y217.428
G1 X151.135 Y217.736
G1 X152.284 Y217.978
G1 X153.451 Y218.152
G1 X154.632 Y218.258
G1 X155.825 Y218.294
G1 X171.656
G1 X172.171 Y218.281
G1 X172.679 Y218.242
G1 X173.179 Y218.178
G1 X173.672 Y218.09
G1 X174.63 Y217.844
G1 X175.549 Y217.508
G1 X176.423 Y217.087
G1 X177.247 Y216.586
G1 X178.017 Y216.01
G1 X178.727 Y215.365
G1 X179.373 Y214.654
G1 X179.949 Y213.885
G1 X180.449 Y213.06
G1 X180.871 Y212.186
G1 X181.207 Y211.267
G1 X181.453 Y210.309
G1 X181.541 Y209.816
G1 X181.605 Y209.316
G1 X181.643 Y208.808
G1 X181.656 Y208.294
G1  Y200.519
G1 X171.656
G1  Y198.419
G1 X181.656
G1  Y184.645
G1 X181.638 Y183.901
G1 X181.583 Y183.163
G1 X181.492 Y182.43
G1 X181.365 Y181.705
G1 X181.204 Y180.989
G1 X181.008 Y180.283
G1 X180.778 Y179.588
G1 X180.515 Y178.905
G1 X180.218 Y178.236
G1 X179.889 Y177.582
G1 X179.528 Y176.944
G1 X179.136 Y176.323
G1 X178.713 Y175.721
G1 X178.259 Y175.139
G1 X177.776 Y174.578
G1 X177.263 Y174.039
G1 X169.729 Y166.505
G1 X168.519 Y165.63
G1 X167.281 Y164.796
G1 X166.353 Y164.208
G1 X165.395 Y163.671
G1 X164.41 Y163.186
G1 X163.4 Y162.754
G1 X162.745 Y162.529
G1 X162.076 Y162.367
G1 X161.397 Y162.269
G1 X160.714 Y162.234
G1 X160.031 Y162.262
G1 X159.351 Y162.353
G1 X158.681 Y162.508
G1 X158.023 Y162.727
G1 X157.796 Y162.84
G1 X157.608 Y163.004
G1 X157.466 Y163.21
G1 X157.379 Y163.448
G1 X157.354 Y163.7
G1 X157.393 Y163.947
G1 X157.491 Y164.177
G1 X157.646 Y164.377
G1 X159.448 Y166.179
G1 X156.019 Y169.609
G1 X163.09 Y176.68
G1 X161.605 Y178.165
G1 X154.534 Y171.094
G1 X148.842 Y176.786
G1 X90.659 Y118.603
G1 X83.588 Y125.674
; Layer C00 Pass 3 of 3
G1 X82.103 Y124.189
G1 X89.174 Y117.118
G1 X19.237 Y47.181
G1 X12.166 Y54.252
G1 X10.681 Y52.767
G1 X17.752 Y45.696
G1 X4.051 Y31.995
G1 X3.812 Y31.819
G1 X3.539 Y31.721
G1 X3.249 Y31.706
G1 X2.961 Y31.778
G1 X2.707 Y31.931
G1 X2.512 Y32.146
G1 X2.388 Y32.409
G1 X2.344 Y32.702
G1  Y163.364
G1 X12.345
G1  Y165.464
G1 X2.345
G1  Y208.294
G1 X2.38 Y209.128
G1 X2.484 Y209.953
G1 X2.655 Y210.763
G1 X2.892 Y211.555
G1 X3.194 Y212.325
G1 X3.559 Y213.068
G1 X3.986 Y213.781
G1 X4.473 Y214.46
G1 X6.015 Y216.035
G1 X6.706 Y216.551
G1 X7.434 Y217.004
G1 X8.195 Y217.392
G1 X8.985 Y217.712
G1 X9.8 Y217.964
G1 X10.634 Y218.146
G1 X11.484 Y218.256
G1 X12.345 Y218.294
G1 X14.345
G1  Y208.294
G1 X16.445
G1 X16.35 Y218.294
G1 X20.354
G1 X21.156 Y218.279
G1 X21.954 Y218.234
G1 X22.749 Y218.16
G1 X23.539 Y218.056
G1 X24.323 Y217.924
G1 X25.102 Y217.763
G1 X25.873 Y217.573
G1 X26.637 Y217.355
G1 X27.392 Y217.109
G1 X28.138 Y216.835
G1 X28.873 Y216.534
G1 X29.598 Y216.205
G1 X30.311 Y215.849
G1 X31.011 Y215.467
G1 X31.698 Y215.057
G1 X32.371 Y214.622
G1 X35.066 Y212.824
G1 X37.782 Y211.057
G1 X40.518 Y209.321
G1 X43.273 Y207.616
G1 X45.79 Y206.089
G1 X48.329 Y204.6
G1 X50.889 Y203.148
G1 X53.47 Y201.734
G1 X56.071 Y200.357
G1 X58.692 Y199.019
G1 X61.333 Y197.719
G1 X63.993 Y196.457
G1 X65.989 Y195.55
G1 X68 Y194.679
G1 X70.027 Y193.845
G1 X72.068 Y193.048
G1 X74.123 Y192.288
G1 X76.192 Y191.566
G1 X78.274 Y190.881
G1 X80.368 Y190.234
G1 X82.116 Y189.734
G1 X83.874 Y189.277
G1 X85.643 Y188.864
G1 X87.421 Y188.495
G1 X89.208 Y188.17
G1 X91.002 Y187.889
G1 X92.804 Y187.653
G1 X94.611 Y187.461
G1 X96.336 Y187.331
G1 X98.064 Y187.261
G1 X99.791
G1 X101.517 Y187.304
G1 X103.241 Y187.416
G1 X104.96 Y187.589
G1 X106.673 Y187.822
G1 X108.378 Y188.116
G1 X109.522 Y188.361
G1 X110.658 Y188.636
G1 X111.785 Y188.942
G1 X112.902 Y189.277
G1 X114.009 Y189.641
G1 X115.105 Y190.035
G1 X116.19 Y190.458
G1 X117.264 Y190.909
G1 X118.324 Y191.389
G1 X119.372 Y191.898
G1 X120.406 Y192.434
G1 X121.426 Y192.998
G1 X122.432 Y193.589
G1 X123.422 Y194.208
G1 X124.396 Y194.854
G1 X125.353 Y195.526
G1 X131.499 Y187.585
G1 X133.16 Y188.871
G1 X127.039 Y196.779
G1 X128.23 Y197.73
G1 X129.394 Y198.714
G1 X128.621 Y198.003
G1 X130.18 Y199.41
G1 X131.419 Y200.562
G1 X132.644 Y201.766
G1 X133.853 Y203.022
G1 X135.047 Y204.33
G1 X136.226 Y205.69
G1 X137.388 Y207.101
G1 X138.535 Y208.564
G1 X139.667 Y210.079
G1 X140.398 Y211.022
G1 X141.18 Y211.914
G1 X142.008 Y212.754
G1 X142.881 Y213.54
G1 X143.796 Y214.271
G1 X144.749 Y214.946
G1 X145.739 Y215.564
G1 X146.762 Y216.122
G1 X147.816 Y216.62
G1 X148.898 Y217.055
G1 X150.005 Y217.428
G1 X151.135 Y217.736
G1 X152.284 Y217.978
G1 X153.451 Y218.152
G1 X154.632 Y218.258
G1 X155.825 Y218.294
G1 X171.656
G1 X172.171 Y218.281
G1 X172.679 Y218.242
G1 X173.179 Y218.178
G1 X173.672 Y218.09
G1 X174.63 Y217.844
G1 X175.549 Y217.508
G1 X176.423 Y217.087
G1 X177.247 Y216.586
G1 X178.017 Y216.01
G1 X178.727 Y215.365
G1 X179.373 Y214.654
G1 X179.949 Y213.885
G1 X180.449 Y213.06
G1 X180.871 Y212.186
G1 X181.207 Y211.267
G1 X181.453 Y210.309
G1 X181.541 Y209.816
G1 X181.605 Y209.316
G1 X181.643 Y208.808
G1 X181.656 Y208.294
G1  Y200.519
G1 X171.656
G1  Y198.419
G1 X181.656
G1  Y184.645
G1 X181.638 Y183.901
G1 X181.583 Y183.163
G1 X181.492 Y182.43
G1 X181.365 Y181.705
G1 X181.204 Y180.989
G1 X181.008 Y180.283
G1 X180.778 Y179.588
G1 X180.515 Y178.905
G1 X180.218 Y178.236
G1 X179.889 Y177.582
G1 X179.528 Y176.944
G1 X179.136 Y176.323
G1 X178.713 Y175.721
G1 X178.259 Y175.139
G1 X177.776 Y174.578
G1 X177.263 Y174.039
G1 X169.729 Y166.505
G1 X168.519 Y165.63
G1 X167.281 Y164.796
G1 X166.353 Y164.208
G1 X165.395 Y163.671
G1 X164.41 Y163.186
G1 X163.4 Y162.754
G1 X162.745 Y162.529
G1 X162.076 Y162.367
G1 X161.397 Y162.269
G1 X160.714 Y162.234
G1 X160.031 Y162.262
G1 X159.351 Y162.353
G1 X158.681 Y162.508
G1 X158.023 Y162.727
G1 X157.796 Y162.84
G1 X157.608 Y163.004
G1 X157.466 Y163.21
G1 X157.379 Y163.448
G1 X157.354 Y163.7
G1 X157.393 Y163.947
G1 X157.491 Y164.177
G1 X157.646 Y164.377
G1 X159.448 Y166.179
G1 X156.019 Y169.609
G1 X163.09 Y176.68
G1 X161.605 Y178.165
G1 X154.534 Y171.094
G1 X148.842 Y176.786
G1 X90.659 Y118.603
G1 X83.588 Y125.674
M9
M05
G90
; return to user-defined finish pos
G0 X0 Y0 F0
