;FLAVOR:Marlin
;TIME:976
;Filament used: 0.825641m
;Layer height: 0.4
;MINX:96.589
;MINY:90.351
;MINZ:0.2
;MAXX:126.003
;MAXY:134.499
;MAXZ:26.8
;Generated with Cura_SteamEngine 5.2.2
M82 ;absolute extrusion mode
; Ender 3 S1 Start G-code
G92 E0 ; Reset Extruder
G28 ; Home all axes
M420 S1 ;Use bed leveling data
G1 Z10.0 F3000 ; Move Z Axis up little to prevent scratching of Heat Bed
G1 X0 Y0

M104 S210.0
M190 S60
M109 S210.0

G1 X0.1 Y20 Z0.3 F5000.0 ; Move to start position
G1 X0.1 Y200.0 Z0.3 F1500.0 E15 ; Draw the first line
G1 X0.4 Y200.0 Z0.3 F5000.0 ; Move to side a little
G1 X0.4 Y20 Z0.3 F1500.0 E30 ; Draw the second line
G92 E0 ; Reset Extruder
G1 Z2.0 F3000 ; Move Z Axis up little to prevent scratching of Heat Bed
G1 X5 Y20 Z0.3 F5000.0 ; Move over to prevent blob squish
G92 E0
G92 E0
G1 F2400 E-0.8
;LAYER_COUNT:68
;LAYER:0
M107
M204 S2000
G1 F300 Z0.4
G0 F7500 X98.639 Y94.05 Z0.4
M204 S500
;TYPE:SKIRT
G1 F300 Z0.2
G1 F2400 E0
G1 F1500 X99.201 Y93.496 E0.02625
G1 X99.816 Y93.001 E0.0525
G1 X100.479 Y92.571 E0.07879
G1 X101.181 Y92.21 E0.10504
G1 X101.917 Y91.922 E0.13133
G1 X102.939 Y91.656 E0.16645
G1 X109.121 Y90.486 E0.37572
G1 X109.903 Y90.379 E0.40197
G1 X110.692 Y90.351 E0.42823
G1 X111.48 Y90.403 E0.4545
G1 X111.987 Y90.48 E0.47155
G1 X118.346 Y91.551 E0.68603
G1 X119.118 Y91.721 E0.71232
G1 X119.868 Y91.968 E0.73859
G1 X120.589 Y92.29 E0.76485
G1 X121.274 Y92.683 E0.79112
G1 X121.916 Y93.143 E0.81738
G1 X122.508 Y93.666 E0.84366
G1 X123.044 Y94.245 E0.8699
G1 X123.519 Y94.876 E0.89617
G1 X123.927 Y95.552 E0.92243
G1 X124.265 Y96.266 E0.94871
G1 X124.529 Y97.01 E0.97496
G1 X124.717 Y97.777 E1.00123
G1 X124.826 Y98.559 E1.02749
G1 X124.861 Y99.351 E1.05386
G1 X124.816 Y100.232 E1.0832
G1 X124.697 Y101.012 E1.10944
G1 X124.499 Y101.777 E1.13572
G1 X124.225 Y102.517 E1.16197
G1 X123.877 Y103.226 E1.18824
G1 X123.459 Y103.897 E1.21453
G1 X123.256 Y104.159 E1.22555
G1 X123.517 Y104.505 E1.23997
G1 X123.925 Y105.181 E1.26623
G1 X124.263 Y105.895 E1.29251
G1 X124.527 Y106.639 E1.31876
G1 X124.715 Y107.406 E1.34503
G1 X124.824 Y108.188 E1.37129
G1 X124.859 Y108.979 E1.39762
G1 X124.814 Y109.86 E1.42696
G1 X124.695 Y110.64 E1.45321
G1 X124.497 Y111.405 E1.47949
G1 X124.223 Y112.145 E1.50574
G1 X123.803 Y113 E1.53742
G1 X124.285 Y113.798 E1.56843
G1 X124.623 Y114.512 E1.5947
G1 X124.887 Y115.256 E1.62096
G1 X125.075 Y116.023 E1.64722
G1 X125.184 Y116.805 E1.67348
G1 X125.219 Y117.597 E1.69985
G1 X125.174 Y118.478 E1.72919
G1 X125.055 Y119.258 E1.75544
G1 X124.857 Y120.023 E1.78172
G1 X124.526 Y120.916 E1.81339
G1 X124.661 Y121.094 E1.82082
G1 X125.069 Y121.77 E1.84709
G1 X125.407 Y122.484 E1.87336
G1 X125.671 Y123.228 E1.89962
G1 X125.859 Y123.995 E1.92588
G1 X125.968 Y124.777 E1.95214
G1 X126.003 Y125.569 E1.97851
G1 X125.958 Y126.45 E2.00785
G1 X125.839 Y127.23 E2.03409
G1 X125.641 Y127.995 E2.06038
G1 X125.367 Y128.735 E2.08662
G1 X125.019 Y129.444 E2.11289
G1 X124.601 Y130.115 E2.13919
G1 X124.118 Y130.739 E2.16543
G1 X123.575 Y131.312 E2.19169
G1 X122.976 Y131.827 E2.21796
G1 X122.328 Y132.278 E2.24422
G1 X121.637 Y132.662 E2.27051
G1 X120.912 Y132.974 E2.29676
G1 X120.159 Y133.211 E2.32302
G1 X119.416 Y133.365 E2.34826
G1 X113.522 Y134.297 E2.54673
G1 X113.149 Y134.367 E2.55935
G1 X112.367 Y134.473 E2.5856
G1 X111.578 Y134.499 E2.61186
G1 X110.79 Y134.445 E2.63813
G1 X110.272 Y134.366 E2.65555
G1 X104.09 Y133.204 E2.86477
G1 X103.322 Y133.019 E2.89104
G1 X102.577 Y132.757 E2.91731
G1 X101.863 Y132.421 E2.94356
G1 X101.185 Y132.015 E2.96984
G1 X100.553 Y131.543 E2.99608
G1 X99.971 Y131.009 E3.02235
G1 X99.446 Y130.418 E3.04864
G1 X98.984 Y129.778 E3.07489
G1 X98.589 Y129.094 E3.10116
G1 X98.265 Y128.374 E3.12742
G1 X98.015 Y127.625 E3.15369
G1 X97.843 Y126.854 E3.17996
G1 X97.749 Y126.07 E3.20622
G1 X97.735 Y125.281 E3.23247
G1 X97.801 Y124.494 E3.25874
G1 X97.946 Y123.718 E3.28499
G1 X98.169 Y122.96 E3.31127
G1 X98.484 Y122.198 E3.3387
G1 X98.202 Y121.807 E3.35473
G1 X97.807 Y121.124 E3.38097
G1 X97.482 Y120.404 E3.40725
G1 X97.233 Y119.654 E3.43353
G1 X97.06 Y118.884 E3.45978
G1 X96.966 Y118.1 E3.48604
G1 X96.952 Y117.31 E3.51232
G1 X97.018 Y116.523 E3.53859
G1 X97.163 Y115.747 E3.56485
G1 X97.386 Y114.989 E3.59113
G1 X97.684 Y114.258 E3.61738
G1 X98.08 Y113.523 E3.64515
G1 X97.838 Y113.188 E3.6589
G1 X97.443 Y112.505 E3.68514
G1 X97.119 Y111.785 E3.7114
G1 X96.87 Y111.035 E3.73768
G1 X96.697 Y110.265 E3.76393
G1 X96.603 Y109.481 E3.79019
G1 X96.589 Y108.691 E3.81647
G1 X96.655 Y107.904 E3.84274
G1 X96.8 Y107.128 E3.869
G1 X97.023 Y106.37 E3.89528
G1 X97.322 Y105.639 E3.92155
G1 X97.692 Y104.942 E3.94779
G1 X98.245 Y104.118 E3.9808
G1 X97.843 Y103.561 E4.00364
G1 X97.448 Y102.877 E4.02992
G1 X97.123 Y102.157 E4.05619
G1 X96.874 Y101.408 E4.08244
G1 X96.701 Y100.638 E4.10869
G1 X96.607 Y99.854 E4.13495
G1 X96.593 Y99.064 E4.16123
G1 X96.659 Y98.277 E4.1875
G1 X96.804 Y97.501 E4.21376
G1 X97.027 Y96.743 E4.24004
G1 X97.325 Y96.012 E4.26629
G1 X97.696 Y95.315 E4.29255
G1 X98.135 Y94.658 E4.31884
G1 X98.639 Y94.05 E4.3451
M204 S2000
G0 F7500 X98.703 Y94.584
M204 S500
G1 F1500 X99.226 Y94.019 E4.37071
G1 X99.804 Y93.512 E4.39628
G1 X100.432 Y93.067 E4.42188
G1 X101.102 Y92.69 E4.44745
G1 X101.808 Y92.385 E4.47303
G1 X102.542 Y92.154 E4.49862
G1 X103.013 Y92.049 E4.51467
G1 X109.195 Y90.879 E4.72394
G1 X109.957 Y90.776 E4.74951
G1 X110.726 Y90.752 E4.7751
G1 X111.493 Y90.808 E4.80068
G1 X111.914 Y90.873 E4.81485
G1 X112.215 Y90.929 E4.82503
G1 X118.28 Y91.946 E5.02957
G1 X119.031 Y92.112 E5.05515
G1 X119.761 Y92.356 E5.08075
G1 X120.461 Y92.674 E5.10632
G1 X121.125 Y93.063 E5.13192
G1 X121.744 Y93.519 E5.15749
G1 X122.313 Y94.036 E5.18306
G1 X122.825 Y94.61 E5.20864
G1 X123.275 Y95.234 E5.23423
G1 X123.658 Y95.901 E5.25981
G1 X123.969 Y96.605 E5.28541
G1 X124.206 Y97.336 E5.31097
G1 X124.365 Y98.089 E5.33657
G1 X124.446 Y98.854 E5.36215
G1 X124.456 Y99.443 E5.38175
G1 X124.416 Y100.211 E5.40733
G1 X124.297 Y100.971 E5.43291
G1 X124.099 Y101.714 E5.45849
G1 X123.825 Y102.433 E5.48408
G1 X123.478 Y103.119 E5.50965
G1 X123.062 Y103.766 E5.53523
G1 X122.756 Y104.147 E5.55148
G1 X123.273 Y104.863 E5.58086
G1 X123.656 Y105.53 E5.60644
G1 X123.967 Y106.234 E5.63204
G1 X124.204 Y106.965 E5.6576
G1 X124.363 Y107.718 E5.68319
G1 X124.444 Y108.483 E5.70878
G1 X124.454 Y109.071 E5.72834
G1 X124.414 Y109.839 E5.75392
G1 X124.295 Y110.599 E5.7795
G1 X124.097 Y111.342 E5.80508
G1 X123.823 Y112.061 E5.83067
G1 X123.476 Y112.747 E5.85624
G1 X123.301 Y113.019 E5.867
G1 X123.633 Y113.48 E5.88589
G1 X124.016 Y114.147 E5.91147
G1 X124.327 Y114.851 E5.93707
G1 X124.564 Y115.582 E5.96263
G1 X124.723 Y116.335 E5.98823
G1 X124.804 Y117.1 E6.01381
G1 X124.814 Y117.689 E6.03341
G1 X124.774 Y118.457 E6.05899
G1 X124.655 Y119.217 E6.08457
G1 X124.457 Y119.96 E6.11015
G1 X124.183 Y120.679 E6.13574
G1 X124.05 Y120.943 E6.14557
G1 X124.417 Y121.452 E6.16644
G1 X124.8 Y122.119 E6.19202
G1 X125.111 Y122.823 E6.21762
G1 X125.348 Y123.554 E6.24318
G1 X125.507 Y124.307 E6.26878
G1 X125.588 Y125.072 E6.29436
G1 X125.598 Y125.661 E6.31396
G1 X125.558 Y126.429 E6.33954
G1 X125.439 Y127.189 E6.36512
G1 X125.241 Y127.932 E6.3907
G1 X124.967 Y128.651 E6.41629
G1 X124.62 Y129.337 E6.44186
G1 X124.204 Y129.984 E6.46744
G1 X123.723 Y130.584 E6.49302
G1 X123.182 Y131.131 E6.51861
G1 X122.587 Y131.619 E6.5442
G1 X121.945 Y132.042 E6.56977
G1 X121.262 Y132.397 E6.59537
G1 X120.547 Y132.678 E6.62092
G1 X119.805 Y132.884 E6.64654
G1 X119.354 Y132.97 E6.66181
G1 X113.423 Y133.908 E6.86153
G1 X113.076 Y133.973 E6.87327
G1 X112.313 Y134.076 E6.89888
G1 X111.545 Y134.098 E6.92443
G1 X110.778 Y134.041 E6.95001
G1 X110.346 Y133.973 E6.96456
G1 X104.164 Y132.811 E7.17377
G1 X103.416 Y132.629 E7.19938
G1 X102.692 Y132.372 E7.22493
G1 X101.998 Y132.04 E7.25052
G1 X101.342 Y131.638 E7.2761
G1 X100.731 Y131.17 E7.3017
G1 X100.173 Y130.642 E7.32725
G1 X99.672 Y130.058 E7.35285
G1 X99.234 Y129.425 E7.37845
G1 X98.865 Y128.751 E7.40401
G1 X98.567 Y128.042 E7.42959
G1 X98.345 Y127.305 E7.45519
G1 X98.2 Y126.55 E7.48076
G1 X98.135 Y125.783 E7.50636
G1 X98.15 Y125.014 E7.53194
G1 X98.244 Y124.251 E7.55751
G1 X98.417 Y123.502 E7.58308
G1 X98.667 Y122.774 E7.60868
G1 X98.947 Y122.169 E7.63085
G1 X98.452 Y121.455 E7.65975
G1 X98.082 Y120.78 E7.68535
G1 X97.785 Y120.071 E7.71092
G1 X97.562 Y119.335 E7.7365
G1 X97.418 Y118.579 E7.76209
G1 X97.352 Y117.813 E7.78766
G1 X97.366 Y117.044 E7.81325
G1 X97.461 Y116.28 E7.83885
G1 X97.633 Y115.531 E7.86441
G1 X97.883 Y114.803 E7.89001
G1 X98.207 Y114.106 E7.91558
G1 X98.559 Y113.515 E7.93846
G1 X98.089 Y112.836 E7.96592
G1 X97.719 Y112.161 E7.99153
G1 X97.422 Y111.452 E8.01709
G1 X97.199 Y110.716 E8.04267
G1 X97.055 Y109.96 E8.06827
G1 X96.989 Y109.194 E8.09384
G1 X97.004 Y108.425 E8.11942
G1 X97.098 Y107.661 E8.14502
G1 X97.271 Y106.912 E8.17059
G1 X97.52 Y106.185 E8.19615
G1 X97.844 Y105.487 E8.22174
G1 X98.239 Y104.827 E8.24733
G1 X98.769 Y104.119 E8.27674
G1 X98.531 Y103.841 E8.28891
G1 X98.093 Y103.208 E8.31452
G1 X97.723 Y102.534 E8.34009
G1 X97.426 Y101.825 E8.36566
G1 X97.203 Y101.088 E8.39127
G1 X97.059 Y100.333 E8.41683
G1 X96.993 Y99.567 E8.4424
G1 X97.007 Y98.798 E8.46798
G1 X97.102 Y98.034 E8.49359
G1 X97.274 Y97.285 E8.51915
G1 X97.524 Y96.557 E8.54475
G1 X97.848 Y95.86 E8.57032
G1 X98.242 Y95.199 E8.59591
G1 X98.703 Y94.584 E8.62147
M204 S2000
G0 F7500 X98.801 Y95.104
M204 S500
G1 F1500 X99.282 Y94.532 E8.64633
G1 X99.823 Y94.015 E8.67122
G1 X100.415 Y93.558 E8.6961
G1 X101.052 Y93.166 E8.72097
G1 X101.728 Y92.845 E8.74586
G1 X102.434 Y92.598 E8.77074
G1 X103.087 Y92.442 E8.79307
G1 X109.269 Y91.272 E9.00233
G1 X110.011 Y91.172 E9.02724
G1 X110.758 Y91.153 E9.05209
G1 X111.842 Y91.266 E9.08834
G1 X112.143 Y91.322 E9.09852
G1 X118.214 Y92.34 E9.30326
G1 X118.944 Y92.503 E9.32814
G1 X119.653 Y92.743 E9.35304
G1 X120.332 Y93.058 E9.37793
G1 X120.973 Y93.443 E9.4028
G1 X121.57 Y93.894 E9.42769
G1 X122.115 Y94.406 E9.45256
G1 X122.602 Y94.973 E9.47742
G1 X123.026 Y95.59 E9.50232
G1 X123.382 Y96.248 E9.5272
G1 X123.666 Y96.94 E9.55208
G1 X123.874 Y97.658 E9.57694
G1 X124.004 Y98.395 E9.60183
G1 X124.062 Y99.337 E9.63322
G1 X124.016 Y100.19 E9.66164
G1 X123.897 Y100.928 E9.6865
G1 X123.699 Y101.65 E9.7114
G1 X123.426 Y102.346 E9.73627
G1 X123.079 Y103.009 E9.76116
G1 X122.664 Y103.632 E9.78605
G1 X122.222 Y104.162 E9.80901
G1 X122.6 Y104.602 E9.8283
G1 X123.024 Y105.219 E9.8532
G1 X123.38 Y105.877 E9.87808
G1 X123.664 Y106.569 E9.90296
G1 X123.872 Y107.287 E9.92782
G1 X124.002 Y108.024 E9.95271
G1 X124.06 Y108.965 E9.98407
G1 X124.014 Y109.818 E10.01248
G1 X123.895 Y110.556 E10.03735
G1 X123.697 Y111.278 E10.06225
G1 X123.424 Y111.974 E10.08711
G1 X123.077 Y112.637 E10.112
G1 X122.808 Y113.042 E10.12817
G1 X122.96 Y113.219 E10.13593
G1 X123.384 Y113.836 E10.16083
G1 X123.74 Y114.494 E10.18572
G1 X124.024 Y115.186 E10.2106
G1 X124.232 Y115.904 E10.23546
G1 X124.362 Y116.641 E10.26035
G1 X124.42 Y117.583 E10.29174
G1 X124.374 Y118.436 E10.32015
G1 X124.255 Y119.174 E10.34501
G1 X124.057 Y119.896 E10.36992
G1 X123.784 Y120.592 E10.39478
G1 X123.574 Y120.993 E10.40984
G1 X123.744 Y121.191 E10.41852
G1 X124.168 Y121.808 E10.44342
G1 X124.524 Y122.466 E10.4683
G1 X124.808 Y123.158 E10.49318
G1 X125.016 Y123.876 E10.51804
G1 X125.146 Y124.613 E10.54293
G1 X125.204 Y125.555 E10.57432
G1 X125.158 Y126.408 E10.60273
G1 X125.039 Y127.146 E10.6276
G1 X124.841 Y127.868 E10.6525
G1 X124.568 Y128.564 E10.67736
G1 X124.221 Y129.227 E10.70225
G1 X123.806 Y129.85 E10.72715
G1 X123.327 Y130.424 E10.75202
G1 X122.79 Y130.945 E10.7769
G1 X122.2 Y131.404 E10.80176
G1 X121.564 Y131.799 E10.82667
G1 X120.89 Y132.123 E10.85154
G1 X120.185 Y132.373 E10.87642
G1 X119.291 Y132.575 E10.9069
G1 X113.358 Y133.513 E11.10669
G1 X113.002 Y133.58 E11.11873
G1 X112.261 Y133.679 E11.1436
G1 X111.513 Y133.697 E11.16848
G1 X110.42 Y133.58 E11.20505
G1 X104.238 Y132.418 E11.41426
G1 X103.511 Y132.24 E11.43915
G1 X102.807 Y131.986 E11.46405
G1 X102.135 Y131.659 E11.4889
G1 X101.501 Y131.262 E11.51378
G1 X100.913 Y130.799 E11.53868
G1 X100.378 Y130.276 E11.56356
G1 X99.902 Y129.699 E11.58844
G1 X99.49 Y129.075 E11.61331
G1 X99.147 Y128.41 E11.6382
G1 X98.877 Y127.712 E11.66309
G1 X98.683 Y126.99 E11.68795
G1 X98.567 Y126.251 E11.71283
G1 X98.531 Y125.504 E11.73771
G1 X98.575 Y124.757 E11.7626
G1 X98.698 Y124.019 E11.78748
G1 X98.899 Y123.298 E11.81238
G1 X99.176 Y122.603 E11.83726
G1 X99.436 Y122.111 E11.85577
G1 X99.12 Y121.728 E11.87228
G1 X98.708 Y121.104 E11.89715
G1 X98.365 Y120.439 E11.92204
G1 X98.095 Y119.741 E11.94693
G1 X97.9 Y119.019 E11.97181
G1 X97.785 Y118.28 E11.99668
G1 X97.748 Y117.533 E12.02156
G1 X97.792 Y116.786 E12.04644
G1 X97.915 Y116.048 E12.07133
G1 X98.116 Y115.328 E12.09619
G1 X98.392 Y114.633 E12.12106
G1 X98.742 Y113.971 E12.14597
G1 X99.068 Y113.487 E12.16538
G1 X98.756 Y113.109 E12.18168
G1 X98.344 Y112.485 E12.20655
G1 X98.001 Y111.82 E12.23144
G1 X97.731 Y111.123 E12.2563
G1 X97.537 Y110.4 E12.2812
G1 X97.421 Y109.661 E12.30608
G1 X97.385 Y108.914 E12.33095
G1 X97.429 Y108.167 E12.35584
G1 X97.552 Y107.429 E12.38072
G1 X97.753 Y106.709 E12.40559
G1 X98.03 Y106.014 E12.43047
G1 X98.379 Y105.352 E12.45536
G1 X98.797 Y104.732 E12.48023
G1 X99.303 Y104.139 E12.50616
G1 X98.761 Y103.482 E12.53449
G1 X98.349 Y102.858 E12.55936
G1 X98.006 Y102.193 E12.58424
G1 X97.736 Y101.495 E12.60914
G1 X97.541 Y100.773 E12.63401
G1 X97.425 Y100.034 E12.65889
G1 X97.389 Y99.287 E12.68376
G1 X97.433 Y98.54 E12.70865
G1 X97.556 Y97.802 E12.73354
G1 X97.757 Y97.081 E12.75843
G1 X98.033 Y96.386 E12.7833
G1 X98.383 Y95.725 E12.80818
G1 X98.801 Y95.104 E12.83308
M204 S2000
G0 F7500 X98.93 Y95.611
M204 S500
G1 F1500 X99.371 Y95.033 E12.85726
G1 X99.872 Y94.508 E12.8814
G1 X100.428 Y94.041 E12.90555
G1 X101.032 Y93.637 E12.92972
G1 X101.677 Y93.303 E12.95387
G1 X102.355 Y93.041 E12.97805
G1 X103.162 Y92.835 E13.00575
G1 X109.344 Y91.665 E13.21502
G1 X110.064 Y91.57 E13.23917
G1 X110.79 Y91.554 E13.26332
G1 X111.769 Y91.66 E13.29607
G1 X118.148 Y92.735 E13.51123
G1 X118.857 Y92.894 E13.5354
G1 X119.543 Y93.131 E13.55954
G1 X120.2 Y93.441 E13.5837
G1 X120.819 Y93.822 E13.60788
G1 X121.392 Y94.268 E13.63203
G1 X121.912 Y94.775 E13.65618
G1 X122.374 Y95.335 E13.68033
G1 X122.771 Y95.943 E13.70448
G1 X123.099 Y96.591 E13.72864
G1 X123.354 Y97.272 E13.75282
G1 X123.533 Y97.976 E13.77698
G1 X123.633 Y98.695 E13.80113
G1 X123.661 Y99.357 E13.82317
G1 X123.616 Y100.168 E13.85018
G1 X123.497 Y100.885 E13.87435
G1 X123.299 Y101.584 E13.89852
G1 X123.026 Y102.257 E13.92267
G1 X122.681 Y102.896 E13.94683
G1 X122.267 Y103.493 E13.97099
G1 X121.675 Y104.175 E14.00103
G1 X121.91 Y104.404 E14.01194
G1 X122.372 Y104.964 E14.03609
G1 X122.769 Y105.572 E14.06024
G1 X123.097 Y106.22 E14.08439
G1 X123.352 Y106.901 E14.10858
G1 X123.531 Y107.605 E14.13274
G1 X123.631 Y108.324 E14.15689
G1 X123.659 Y108.986 E14.17892
G1 X123.614 Y109.796 E14.20591
G1 X123.495 Y110.513 E14.23008
G1 X123.297 Y111.212 E14.25424
G1 X123.024 Y111.885 E14.2784
G1 X122.679 Y112.524 E14.30255
G1 X122.305 Y113.063 E14.32437
G1 X122.732 Y113.581 E14.3467
G1 X123.129 Y114.189 E14.37085
G1 X123.457 Y114.837 E14.39501
G1 X123.712 Y115.518 E14.41919
G1 X123.891 Y116.222 E14.44335
G1 X123.991 Y116.941 E14.4675
G1 X124.019 Y117.603 E14.48954
G1 X123.974 Y118.414 E14.51655
G1 X123.855 Y119.131 E14.54072
G1 X123.657 Y119.83 E14.56489
G1 X123.384 Y120.503 E14.58904
G1 X123.094 Y121.041 E14.60937
G1 X123.516 Y121.553 E14.63144
G1 X123.913 Y122.161 E14.65559
G1 X124.241 Y122.809 E14.67975
G1 X124.496 Y123.49 E14.70393
G1 X124.675 Y124.194 E14.72809
G1 X124.775 Y124.913 E14.75224
G1 X124.803 Y125.575 E14.77428
G1 X124.758 Y126.386 E14.80129
G1 X124.639 Y127.103 E14.82546
G1 X124.441 Y127.802 E14.84963
G1 X124.168 Y128.475 E14.87378
G1 X123.823 Y129.114 E14.89794
G1 X123.409 Y129.711 E14.9221
G1 X122.933 Y130.259 E14.94624
G1 X122.399 Y130.752 E14.97042
G1 X121.814 Y131.182 E14.99456
G1 X121.185 Y131.546 E15.01873
G1 X120.52 Y131.839 E15.0429
G1 X119.827 Y132.057 E15.06707
G1 X119.229 Y132.18 E15.08737
