;FLAVOR:Marlin
;TIME:489
;Filament used: 0.574337m
;Layer height: 0.4
;MINX:92.067
;MINY:94.024
;MINZ:0.2
;MAXX:126.771
;MAXY:128.535
;MAXZ:12.4
;Generated with Cura_SteamEngine 5.2.2
M82 ;absolute extrusion mode
; Ender 3 S1 Start G-code
G92 E0 ; Reset Extruder
G28 ; Home all axes
M420 S1 ;Use bed leveling data
G1 Z10.0 F3000 ; Move Z Axis up little to prevent scratching of Heat Bed
G1 X0 Y0

M104 S210.0
M190 S60
M109 S210.0

G1 X0.1 Y20 Z0.3 F5000.0 ; Move to start position
G1 X0.1 Y200.0 Z0.3 F1500.0 E15 ; Draw the first line
G1 X0.4 Y200.0 Z0.3 F5000.0 ; Move to side a little
G1 X0.4 Y20 Z0.3 F1500.0 E30 ; Draw the second line
G92 E0 ; Reset Extruder
G1 Z2.0 F3000 ; Move Z Axis up little to prevent scratching of Heat Bed
G1 X5 Y20 Z0.3 F5000.0 ; Move over to prevent blob squish
G92 E0
G92 E0
G1 F2400 E-0.8
;LAYER_COUNT:31
;LAYER:0
M107
M204 S2000
G1 F300 Z0.4
G0 F7500 X98.861 Y97.586 Z0.4
M204 S500
;TYPE:SKIRT
G1 F300 Z0.2
G1 F2400 E0
G1 F1500 X99.57 Y96.972 E0.0312
G1 X100.328 Y96.42 E0.06238
G1 X101.133 Y95.933 E0.09368
G1 X101.752 Y95.594 E0.11715
G1 X102.502 Y95.208 E0.1452
G1 X103.356 Y94.821 E0.17639
G1 X104.24 Y94.508 E0.20758
G1 X105.148 Y94.271 E0.23879
G1 X106.072 Y94.113 E0.26997
G1 X107.467 Y94.024 E0.31646
G1 X108.309 Y94.03 E0.34447
G1 X109.02 Y94.054 E0.36813
G1 X109.955 Y94.126 E0.39932
G1 X110.881 Y94.277 E0.43052
G1 X111.79 Y94.506 E0.4617
G1 X112.677 Y94.812 E0.49291
G1 X113.228 Y95.046 E0.51282
G1 X114.069 Y95.431 E0.54358
G1 X114.978 Y95.862 E0.57704
G1 X117.853 Y97.121 E0.68143
G1 X118.822 Y97.526 E0.71637
G1 X119.465 Y97.804 E0.73966
G1 X120.31 Y98.213 E0.77089
G1 X121.116 Y98.692 E0.80207
G1 X121.878 Y99.238 E0.83325
G1 X122.592 Y99.847 E0.86446
G1 X123.251 Y100.514 E0.89565
G1 X123.85 Y101.235 E0.92683
G1 X124.399 Y102.024 E0.9588
G1 X124.782 Y102.63 E0.98264
G1 X125.207 Y103.343 E1.01025
G1 X125.647 Y104.171 E1.04144
G1 X126.016 Y105.033 E1.07262
G1 X126.309 Y105.924 E1.10382
G1 X126.526 Y106.837 E1.13503
G1 X126.702 Y108.224 E1.18153
G1 X126.751 Y109.098 E1.21065
G1 X126.771 Y109.772 E1.23307
G1 X126.759 Y110.71 E1.26427
G1 X126.667 Y111.643 E1.29546
G1 X126.496 Y112.565 E1.32665
G1 X126.247 Y113.469 E1.35783
G1 X126.05 Y114.028 E1.37755
G1 X125.698 Y114.945 E1.41022
G1 X125.346 Y115.823 E1.44168
G1 X124.266 Y118.78 E1.54638
G1 X123.958 Y119.672 E1.57777
G1 X123.682 Y120.44 E1.60491
G1 X123.327 Y121.308 E1.6361
G1 X122.899 Y122.143 E1.66731
G1 X122.402 Y122.938 E1.69849
G1 X121.839 Y123.688 E1.72969
G1 X121.214 Y124.388 E1.7609
G1 X120.532 Y125.031 E1.79207
G1 X119.772 Y125.632 E1.8243
G1 X118.934 Y126.232 E1.85858
G1 X118.551 Y126.492 E1.87398
G1 X117.754 Y126.985 E1.90515
G1 X116.917 Y127.409 E1.93635
G1 X116.047 Y127.759 E1.96754
G1 X115.037 Y128.064 E2.00263
G1 X114.456 Y128.209 E2.02255
G1 X113.537 Y128.397 E2.05375
G1 X112.605 Y128.506 E2.08496
G1 X111.668 Y128.535 E2.11614
G1 X110.731 Y128.485 E2.14735
G1 X109.803 Y128.355 E2.17851
G1 X108.888 Y128.146 E2.20973
G1 X107.736 Y127.761 E2.25013
G1 X106.215 Y127.158 E2.30455
G1 X106.068 Y127.107 E2.30972
G1 X104.822 Y126.611 E2.35433
G1 X101.783 Y125.511 E2.46182
G1 X100.923 Y125.216 E2.49206
G1 X100.05 Y124.874 E2.52325
G1 X99.208 Y124.459 E2.55447
G1 X98.024 Y123.709 E2.60109
G1 X97.336 Y123.202 E2.62951
G1 X96.789 Y122.776 E2.65257
G1 X96.074 Y122.168 E2.68379
G1 X95.414 Y121.502 E2.71497
G1 X94.813 Y120.783 E2.74614
G1 X94.275 Y120.014 E2.77736
G1 X93.805 Y119.203 E2.80853
G1 X93.596 Y118.782 E2.82417
G1 X93.242 Y118.017 E2.8522
G1 X92.968 Y117.383 E2.87517
G1 X92.633 Y116.507 E2.90637
G1 X92.373 Y115.606 E2.93756
G1 X92.192 Y114.685 E2.96878
G1 X92.09 Y113.753 E2.99996
G1 X92.067 Y112.816 E3.03113
G1 X92.087 Y112.323 E3.04755
G1 X92.149 Y111.444 E3.07685
G1 X92.215 Y110.769 E3.09941
G1 X92.346 Y109.84 E3.13062
G1 X92.556 Y108.926 E3.16181
G1 X92.843 Y108.033 E3.19301
G1 X93.204 Y107.167 E3.22421
G1 X93.468 Y106.642 E3.24376
G1 X93.855 Y105.92 E3.271
G1 X94.402 Y104.932 E3.30856
G1 X95.808 Y102.201 E3.41073
G1 X96.299 Y101.207 E3.4476
G1 X96.622 Y100.575 E3.47121
G1 X97.084 Y99.759 E3.5024
G1 X97.614 Y98.985 E3.5336
G1 X98.208 Y98.259 E3.5648
G1 X98.861 Y97.586 E3.59599
M204 S2000
G0 F7500 X99.185 Y97.831
M204 S500
G1 F1500 X99.885 Y97.233 E3.62661
G1 X100.634 Y96.697 E3.65724
G1 X101.325 Y96.284 E3.68401
G1 X101.944 Y95.945 E3.70749
G1 X102.683 Y95.565 E3.73513
G1 X103.522 Y95.186 E3.76575
G1 X104.39 Y94.88 E3.79636
G1 X105.282 Y94.652 E3.82698
G1 X106.19 Y94.501 E3.85759
G1 X107.467 Y94.424 E3.90015
G1 X108.296 Y94.43 E3.92772
G1 X109.007 Y94.454 E3.95138
G1 X109.925 Y94.525 E3.982
G1 X110.833 Y94.675 E4.01261
G1 X111.725 Y94.904 E4.04324
G1 X112.593 Y95.209 E4.07384
G1 X113.061 Y95.41 E4.09078
G1 X114.038 Y95.858 E4.12653
G1 X114.826 Y96.233 E4.15556
G1 X117.669 Y97.477 E4.25877
G1 X118.664 Y97.893 E4.29464
G1 X119.307 Y98.171 E4.31794
G1 X120.135 Y98.573 E4.34856
G1 X120.925 Y99.045 E4.37916
G1 X121.672 Y99.584 E4.4098
G1 X122.369 Y100.186 E4.44043
G1 X123.011 Y100.846 E4.47106
G1 X123.593 Y101.559 E4.50167
G1 X124.06 Y102.238 E4.52908
G1 X124.443 Y102.844 E4.55292
G1 X124.862 Y103.546 E4.58011
G1 X125.294 Y104.359 E4.61074
G1 X125.653 Y105.206 E4.64133
G1 X125.938 Y106.082 E4.67197
G1 X126.145 Y106.979 E4.70259
G1 X126.303 Y108.249 E4.74516
G1 X126.335 Y108.756 E4.76205
G1 X126.371 Y109.784 E4.79626
G1 X126.359 Y110.704 E4.82687
G1 X126.266 Y111.62 E4.85749
G1 X126.094 Y112.525 E4.88813
G1 X125.845 Y113.411 E4.91874
G1 X125.677 Y113.885 E4.93547
G1 X125.327 Y114.796 E4.96792
G1 X124.968 Y115.691 E5
G1 X123.902 Y118.611 E5.10339
G1 X123.306 Y120.305 E5.16311
G1 X122.956 Y121.157 E5.19375
G1 X122.535 Y121.975 E5.22435
G1 X122.044 Y122.754 E5.25498
G1 X121.487 Y123.487 E5.2856
G1 X120.868 Y124.169 E5.31623
G1 X120.193 Y124.795 E5.34685
G1 X119.538 Y125.308 E5.37452
G1 X118.71 Y125.901 E5.40839
G1 X118.327 Y126.161 E5.42379
G1 X117.543 Y126.645 E5.45444
G1 X116.721 Y127.058 E5.48503
G1 X115.865 Y127.399 E5.51568
G1 X114.94 Y127.676 E5.54779
G1 X114.359 Y127.821 E5.56771
G1 X113.457 Y128.004 E5.59832
G1 X112.542 Y128.109 E5.62896
G1 X111.622 Y128.135 E5.65957
G1 X110.703 Y128.08 E5.69019
G1 X109.792 Y127.946 E5.72081
G1 X108.896 Y127.733 E5.75145
G1 X107.883 Y127.389 E5.78703
G1 X106.434 Y126.814 E5.83888
G1 X106.216 Y126.736 E5.84658
G1 X104.952 Y126.233 E5.89183
G1 X101.87 Y125.117 E6.00085
G1 X101.053 Y124.837 E6.02957
G1 X100.196 Y124.501 E6.06019
G1 X99.371 Y124.092 E6.09081
G1 X98.259 Y123.385 E6.13464
G1 X97.582 Y122.886 E6.16261
G1 X97.035 Y122.46 E6.18567
G1 X96.334 Y121.863 E6.2163
G1 X95.687 Y121.208 E6.24692
G1 X95.1 Y120.499 E6.27754
G1 X94.576 Y119.742 E6.30816
G1 X93.957 Y118.611 E6.35104
G1 X93.609 Y117.858 E6.37863
G1 X93.335 Y117.224 E6.4016
G1 X93.007 Y116.364 E6.43222
G1 X92.754 Y115.479 E6.46283
G1 X92.58 Y114.575 E6.49345
G1 X92.484 Y113.659 E6.52408
G1 X92.486 Y112.349 E6.56765
G1 X92.547 Y111.482 E6.59656
G1 X92.613 Y110.807 E6.61912
G1 X92.743 Y109.896 E6.64973
G1 X92.951 Y108.999 E6.68035
G1 X93.235 Y108.124 E6.71095
G1 X93.595 Y107.276 E6.74159
G1 X93.82 Y106.831 E6.75817
G1 X94.207 Y106.109 E6.78542
G1 X94.743 Y105.142 E6.82219
G1 X96.188 Y102.335 E6.9272
G1 X96.655 Y101.389 E6.96229
G1 X96.978 Y100.757 E6.98589
G1 X97.432 Y99.956 E7.01652
G1 X97.954 Y99.198 E7.04713
G1 X98.54 Y98.488 E7.07775
G1 X99.185 Y97.831 E7.10837
M204 S2000
G0 F7500 X99.509 Y98.077
M204 S500
G1 F1500 X100.2 Y97.495 E7.13842
G1 X100.939 Y96.977 E7.16843
G1 X101.518 Y96.635 E7.1908
G1 X102.432 Y96.14 E7.22537
G1 X102.863 Y95.922 E7.24144
G1 X103.686 Y95.551 E7.27146
G1 X104.539 Y95.253 E7.30152
G1 X105.415 Y95.033 E7.33156
G1 X106.307 Y94.89 E7.3616
G1 X107.467 Y94.824 E7.40025
G1 X108.282 Y94.83 E7.42735
G1 X108.993 Y94.854 E7.45102
G1 X109.893 Y94.924 E7.48104
G1 X110.784 Y95.074 E7.51109
G1 X111.658 Y95.302 E7.54113
G1 X112.895 Y95.774 E7.58517
G1 X113.867 Y96.22 E7.62074
G1 X114.634 Y96.584 E7.64898
G1 X117.533 Y97.853 E7.75423
G1 X118.387 Y98.21 E7.78502
G1 X119.148 Y98.539 E7.81259
G1 X119.96 Y98.933 E7.84261
G1 X120.734 Y99.398 E7.87264
G1 X121.464 Y99.93 E7.90269
G1 X122.144 Y100.524 E7.93272
G1 X122.769 Y101.176 E7.96276
G1 X123.334 Y101.881 E7.99281
G1 X123.722 Y102.452 E8.01577
G1 X124.105 Y103.058 E8.03961
G1 X124.517 Y103.748 E8.06634
G1 X124.94 Y104.546 E8.09638
G1 X125.291 Y105.379 E8.12645
G1 X125.566 Y106.239 E8.15648
G1 X125.764 Y107.12 E8.18651
G1 X125.904 Y108.274 E8.22517
G1 X125.952 Y109.121 E8.25339
G1 X125.972 Y109.795 E8.27582
G1 X125.958 Y110.698 E8.30586
G1 X125.865 Y111.597 E8.33592
G1 X125.693 Y112.483 E8.36593
G1 X125.303 Y113.742 E8.40977
G1 X125.015 Y114.495 E8.43659
G1 X124.611 Y115.504 E8.47274
G1 X123.499 Y118.55 E8.58059
G1 X123.202 Y119.41 E8.61085
G1 X122.929 Y120.169 E8.63767
G1 X122.586 Y121.005 E8.66773
G1 X122.17 Y121.807 E8.69778
G1 X121.685 Y122.568 E8.72779
G1 X121.135 Y123.284 E8.75782
G1 X120.523 Y123.949 E8.78788
G1 X119.855 Y124.556 E8.8179
G1 X119.304 Y124.984 E8.84111
G1 X118.728 Y125.4 E8.86474
G1 X118.102 Y125.83 E8.89
G1 X117.333 Y126.304 E8.92004
G1 X116.525 Y126.708 E8.95009
G1 X115.685 Y127.038 E8.98011
G1 X114.843 Y127.287 E9.00931
G1 X114.262 Y127.432 E9.02923
G1 X113.377 Y127.612 E9.05927
G1 X112.479 Y127.713 E9.08932
G1 X111.576 Y127.734 E9.11936
G1 X110.675 Y127.675 E9.1494
G1 X109.783 Y127.536 E9.17942
G1 X108.906 Y127.319 E9.20947
G1 X108.031 Y127.017 E9.24026
G1 X106.481 Y126.402 E9.29572
G1 X106.364 Y126.364 E9.29981
G1 X105.1 Y125.86 E9.34507
G1 X102.046 Y124.755 E9.45309
G1 X101.182 Y124.459 E9.48347
G1 X100.342 Y124.128 E9.5135
G1 X99.534 Y123.725 E9.54353
G1 X98.494 Y123.062 E9.58455
G1 X98.099 Y122.775 E9.60079
G1 X97.281 Y122.144 E9.63515
G1 X96.593 Y121.559 E9.66519
G1 X95.961 Y120.914 E9.69522
G1 X95.387 Y120.216 E9.72528
G1 X94.878 Y119.47 E9.75532
G1 X94.319 Y118.441 E9.79427
G1 X94.11 Y117.997 E9.81059
G1 X93.702 Y117.065 E9.84443
G1 X93.381 Y116.221 E9.87446
G1 X93.135 Y115.352 E9.9045
G1 X92.968 Y114.465 E9.93452
G1 X92.88 Y113.566 E9.96456
G1 X92.885 Y112.374 E10.00421
G1 X92.945 Y111.521 E10.03265
G1 X93.011 Y110.846 E10.05521
G1 X93.139 Y109.952 E10.08525
G1 X93.345 Y109.073 E10.11527
G1 X93.628 Y108.216 E10.14529
G1 X94.173 Y107.02 E10.18901
G1 X94.629 Y106.171 E10.22106
G1 X95.11 Y105.303 E10.25407
G1 X96.52 Y102.563 E10.35656
G1 X97.011 Y101.571 E10.39337
G1 X97.334 Y100.939 E10.41698
G1 X97.781 Y100.154 E10.44702
G1 X98.295 Y99.411 E10.47707
G1 X98.872 Y98.717 E10.50709
G1 X99.509 Y98.077 E10.53712
M204 S2000
G1 F2400 E9.73712
G1 F300 Z0.4
;MESH:command moduel.stl
G0 F7500 X111.83 Y116.918 Z0.4
M204 S500
;TYPE:WALL-INNER
G1 F300 Z0.2
G1 F2400 E10.53712
G1 F1500 X112.114 Y116.851 E10.54683
G1 X112.832 Y116.35 E10.57595
G1 X114.692 Y110.969 E10.76531
G1 X115.179 Y109.971 E10.80225
G1 X115.157 Y109.461 E10.81923
G1 X115.141 Y109.093 E10.83148
G1 X114.707 Y108.378 E10.8593
G1 X109.382 Y106.151 E11.05127
G1 X108.486 Y105.634 E11.08568
G1 X107.609 Y105.618 E11.11485
G1 X106.865 Y106.007 E11.14278
G1 X104.331 Y111.14 E11.33317
G1 X103.739 Y112.04 E11.369
G1 X103.666 Y112.918 E11.3983
G1 X104.023 Y113.716 E11.42738
G1 X104.728 Y114.247 E11.45673
G1 X105.826 Y114.413 E11.49367
G1 X111.83 Y116.918 E11.71005
M204 S2000
G0 F7500 X111.796 Y117.338
M204 S500
;TYPE:WALL-OUTER
G1 F1500 X112.28 Y117.223 E11.72659
G1 X113.168 Y116.604 E11.7626
G1 X115.07 Y111.1 E11.95628
G1 X115.583 Y110.056 E11.99497
G1 X115.557 Y109.444 E12.01534
G1 X115.536 Y108.973 E12.03103
G1 X114.981 Y108.059 E12.06659
G1 X109.582 Y105.804 E12.2612
G1 X108.596 Y105.236 E12.29904
G1 X107.514 Y105.216 E12.33504
G1 X106.564 Y105.713 E12.3707
G1 X103.976 Y110.954 E12.56511
G1 X103.349 Y111.905 E12.60299
G1 X103.259 Y112.988 E12.63914
G1 X103.7 Y113.973 E12.67503
G1 X104.568 Y114.628 E12.7112
G1 X105.708 Y114.796 E12.74953
G1 X111.796 Y117.338 E12.96896
M204 S2000
G0 F7500 X111.86 Y116.538
M204 S500
;TYPE:SKIN
G1 F1500 X111.966 Y116.513 E12.97258
G1 X112.53 Y116.121 E12.99542
G1 X114.366 Y110.809 E13.18236
G1 X114.815 Y109.893 E13.21629
G1 X114.797 Y109.476 E13.23017
G1 X114.785 Y109.2 E13.23936
G1 X114.459 Y108.665 E13.26019
G1 X109.262 Y106.497 E13.44748
G1 X108.383 Y105.993 E13.48119
G1 X107.696 Y105.98 E13.50404
G1 X107.137 Y106.273 E13.52503
G1 X104.673 Y111.267 E13.71025
G1 X104.092 Y112.162 E13.74574
G1 X104.033 Y112.857 E13.76894
G1 X104.313 Y113.482 E13.79172
G1 X104.872 Y113.902 E13.81497
G1 X105.925 Y114.06 E13.85039
G1 X111.86 Y116.538 E14.0643
M204 S2000
G1 F2400 E13.2643
G1 F300 Z0.4
G0 F7500 X104.243 Y112.729 Z0.4
M204 S500
G1 F300 Z0.2
G1 F2400 E14.0643
G1 F1500 X105.274 Y113.76 E14.1128
M204 S2000
G0 F7500 X105.941 Y113.861
M204 S500
G1 F1500 X104.294 Y112.214 E14.19027
M204 S2000
G0 F7500 X104.518 Y111.872
M204 S500
G1 F1500 X106.894 Y114.248 E14.30203
M204 S2000
G0 F7500 X107.864 Y114.652
M204 S500
G1 F1500 X104.74 Y111.529 E14.44895
M204 S2000
G0 F7500 X104.942 Y111.164
M204 S500
G1 F1500 X108.833 Y115.056 E14.63199
M204 S2000
G0 F7500 X109.803 Y115.459
M204 S500
G1 F1500 X105.129 Y110.785 E14.85184
M204 S2000
G0 F7500 X105.316 Y110.407
M204 S500
G1 F1500 X110.772 Y115.863 E15.10847
M204 S2000
G0 F7500 X111.741 Y116.267
M204 S500
G1 F1500 X105.503 Y110.029 E15.40189
M204 S2000
G0 F7500 X105.69 Y109.65
M204 S500
G1 F1500 X112.167 Y116.127 E15.70655
M204 S2000
G0 F7500 X112.423 Y115.817
M204 S500
G1 F1500 X105.877 Y109.272 E16.01443
M204 S2000
G0 F7500 X106.064 Y108.893
M204 S500
G1 F1500 X112.569 Y115.397 E16.32038
M204 S2000
G0 F7500 X112.714 Y114.976
M204 S500
G1 F1500 X106.251 Y108.514 E16.62436
M204 S2000
G0 F7500 X106.438 Y108.135
M204 S500
G1 F1500 X112.859 Y114.556 E16.92638
M204 S2000
G0 F7500 X113.005 Y114.136
M204 S500
G1 F1500 X106.626 Y107.757 E17.22643
M204 S2000
G0 F7500 X106.812 Y107.378
M204 S500
G1 F1500 X113.151 Y113.716 E17.52457
M204 S2000
G0 F7500 X113.296 Y113.296
M204 S500
G1 F1500 X107 Y107 E17.82072
M204 S2000
G0 F7500 X107.187 Y106.621
M204 S500
G1 F1500 X113.441 Y112.876 E18.11491
M204 S2000
G0 F7500 X113.587 Y112.456
M204 S500
G1 F1500 X107.461 Y106.329 E18.40308
M204 S2000
G0 F7500 X107.881 Y106.184
M204 S500
G1 F1500 X113.733 Y112.036 E18.67834
M204 S2000
G0 F7500 X113.878 Y111.615
M204 S500
G1 F1500 X108.625 Y106.363 E18.9254
M204 S2000
G0 F7500 X109.745 Y106.916
M204 S500
G1 F1500 X114.023 Y111.195 E19.12665
M204 S2000
G0 F7500 X114.169 Y110.775
M204 S500
G1 F1500 X110.715 Y107.321 E19.28912
M204 S2000
G0 F7500 X111.686 Y107.726
M204 S500
G1 F1500 X114.348 Y110.388 E19.41433
M204 S2000
G0 F7500 X114.535 Y110.009
M204 S500
G1 F1500 X112.656 Y108.131 E19.50269
M204 S2000
G0 F7500 X113.627 Y108.535
M104 S210
M204 S500
G1 F1500 X114.597 Y109.506 E19.54834
M204 S2000
G1 F2400 E18.74834
G1 F300 Z0.4
;MESH:NONMESH
G0 F7500 X110.334 Y118.962 Z0.4
;TIME_ELAPSED:31.378386
;LAYER:1
M106 S85
;MESH:command moduel.stl
G0 F8250 X110.334 Y118.962 Z0.8
M204 S500
;TYPE:WALL-INNER
G1 F300 Z0.6
G1 F2400 E19.54834
G1 F1500 X112.199 Y118.518 E19.67586
G1 X115.278 Y116.366 E19.92575
G1 X115.361 Y116.257 E19.93486
G1 X116.985 Y112.955 E20.17964
G1 X116.991 Y112.923 E20.18181
G1 X116.998 Y112.892 E20.18392
G1 X116.831 Y109.203 E20.42956
G1 X116.738 Y108.996 E20.44466
G1 X114.887 Y105.954 E20.68153
G1 X114.702 Y105.814 E20.69696
G1 X111.55 Y104.004 E20.93875
G1 X107.761 Y103.937 E21.19083
G1 X104.392 Y105.711 E21.44411
G1 X102.331 Y108.836 E21.69312
G1 X102.294 Y108.968 E21.70224
G1 X101.997 Y112.665 E21.94896
G1 X103.555 Y116.131 E22.20174
G1 X106.593 Y118.417 E22.45465
G1 X110.334 Y118.962 E22.70613
M204 S2000
G0 F8250 X110.351 Y119.369
M204 S500
;TYPE:WALL-OUTER
G1 F1500 X112.308 Y118.904 E22.83994
G1 X112.544 Y118.765 E22.85816
G1 X115.559 Y116.658 E23.10284
G1 X115.703 Y116.468 E23.11869
G1 X117.367 Y113.085 E23.36948
G1 X117.383 Y113.003 E23.37504
G1 X117.4 Y112.924 E23.38041
G1 X117.227 Y109.109 E23.63445
G1 X117.093 Y108.81 E23.65625
G1 X115.189 Y105.681 E23.89989
G1 X114.923 Y105.48 E23.92207
G1 X111.737 Y103.649 E24.16651
G1 X111.57 Y103.603 E24.17803
G1 X107.707 Y103.535 E24.43504
G1 X107.453 Y103.647 E24.45351
G1 X104.188 Y105.366 E24.69896
G1 X104.068 Y105.476 E24.70979
G1 X101.963 Y108.668 E24.96413
G1 X101.898 Y108.897 E24.97997
