;FLAVOR:Marlin
;TIME:802
;Filament used: 0.624394m
;Layer height: 0.4
;MINX:87.528
;MINY:87.506
;MINZ:0.2
;MAXX:132.477
;MAXY:132.491
;MAXZ:66.6
;Generated with Cura_SteamEngine 5.2.2
M82 ;absolute extrusion mode
; Ender 3 S1 Start G-code
G92 E0 ; Reset Extruder
G28 ; Home all axes
M420 S1 ;Use bed leveling data
G1 Z10.0 F3000 ; Move Z Axis up little to prevent scratching of Heat Bed
G1 X0 Y0

M104 S210.0
M190 S60
M109 S210.0

G1 X0.1 Y20 Z0.3 F5000.0 ; Move to start position
G1 X0.1 Y200.0 Z0.3 F1500.0 E15 ; Draw the first line
G1 X0.4 Y200.0 Z0.3 F5000.0 ; Move to side a little
G1 X0.4 Y20 Z0.3 F1500.0 E30 ; Draw the second line
G92 E0 ; Reset Extruder
G1 Z2.0 F3000 ; Move Z Axis up little to prevent scratching of Heat Bed
G1 X5 Y20 Z0.3 F5000.0 ; Move over to prevent blob squish
G92 E0
G92 E0
G1 F2400 E-0.8
;LAYER_COUNT:167
;LAYER:0
M107
M204 S2000
G1 F300 Z0.4
G0 F7500 X93.801 Y94.425 Z0.4
M204 S500
;TYPE:SKIRT
G1 F300 Z0.2
G1 F2400 E0
G1 F1500 X94.784 Y93.46 E0.04582
G1 X95.439 Y92.834 E0.07595
G1 X96.145 Y92.216 E0.10716
G1 X96.9 Y91.661 E0.13832
G1 X97.448 Y91.316 E0.15986
G1 X98.435 Y90.737 E0.19792
G1 X99.783 Y89.978 E0.24937
G1 X100.371 Y89.656 E0.27167
G1 X101.212 Y89.241 E0.30286
G1 X102.085 Y88.899 E0.33405
G1 X102.723 Y88.702 E0.35626
G1 X103.803 Y88.405 E0.39351
G1 X105.167 Y88.054 E0.44036
G1 X105.969 Y87.858 E0.46782
G1 X106.889 Y87.675 E0.49901
G1 X108.18 Y87.552 E0.54215
G1 X109.16 Y87.517 E0.57476
G1 X110.217 Y87.506 E0.60992
G1 X111.155 Y87.541 E0.64114
G1 X111.769 Y87.607 E0.66168
G1 X112.734 Y87.739 E0.69408
G1 X114.319 Y87.942 E0.74722
G1 X115.244 Y88.101 E0.77844
G1 X116.122 Y88.329 E0.80861
G1 X117.472 Y88.746 E0.85561
G1 X118.052 Y88.945 E0.876
G1 X118.925 Y89.287 E0.90719
G1 X119.753 Y89.695 E0.93789
G1 X120.26 Y89.979 E0.95721
G1 X122.267 Y91.162 E1.0347
G1 X122.831 Y91.506 E1.05667
G1 X123.61 Y92.028 E1.08786
G1 X124.342 Y92.615 E1.11907
G1 X124.819 Y93.057 E1.1407
G1 X125.585 Y93.813 E1.1765
G1 X126.634 Y94.881 E1.22629
G1 X127.18 Y95.452 E1.25256
G1 X127.797 Y96.157 E1.28372
G1 X128.353 Y96.913 E1.31494
G1 X128.703 Y97.47 E1.33682
G1 X129.241 Y98.388 E1.37221
G1 X130.035 Y99.794 E1.42591
G1 X130.353 Y100.373 E1.44788
G1 X130.769 Y101.213 E1.47906
G1 X131.111 Y102.086 E1.51024
G1 X131.317 Y102.749 E1.53333
G1 X131.56 Y103.632 E1.5638
G1 X131.994 Y105.31 E1.62144
G1 X132.155 Y105.969 E1.64401
G1 X132.338 Y106.889 E1.6752
G1 X132.443 Y107.821 E1.7064
G1 X132.469 Y108.49 E1.72867
G1 X132.477 Y109.468 E1.7612
G1 X132.461 Y111.157 E1.81737
G1 X132.444 Y111.871 E1.84113
G1 X132.382 Y112.807 E1.87233
G1 X132.24 Y113.734 E1.90352
G1 X132.095 Y114.37 E1.92522
G1 X131.815 Y115.442 E1.96207
G1 X131.388 Y116.972 E2.0149
G1 X131.203 Y117.604 E2.0368
G1 X130.901 Y118.492 E2.068
G1 X130.525 Y119.351 E2.09919
G1 X130.216 Y119.937 E2.12122
G1 X129.698 Y120.848 E2.15608
G1 X128.862 Y122.266 E2.21083
G1 X128.524 Y122.823 E2.2325
G1 X128.004 Y123.603 E2.26368
G1 X127.419 Y124.336 E2.29487
G1 X126.954 Y124.838 E2.31763
G1 X126.203 Y125.598 E2.35316
G1 X125.133 Y126.649 E2.40305
G1 X124.565 Y127.192 E2.42918
G1 X123.859 Y127.81 E2.46039
G1 X123.103 Y128.365 E2.49158
G1 X122.553 Y128.711 E2.5132
G1 X121.563 Y129.292 E2.55138
G1 X120.357 Y129.972 E2.59742
G1 X119.613 Y130.379 E2.62563
G1 X118.772 Y130.793 E2.65681
G1 X117.898 Y131.134 E2.68801
G1 X117.262 Y131.33 E2.71015
G1 X116.254 Y131.607 E2.74491
G1 X114.688 Y132.011 E2.79871
G1 X114.031 Y132.171 E2.8212
G1 X113.111 Y132.354 E2.8524
G1 X112.179 Y132.457 E2.88358
G1 X111.526 Y132.483 E2.90532
G1 X110.434 Y132.491 E2.94164
G1 X108.813 Y132.475 E2.99556
G1 X108.133 Y132.458 E3.01818
G1 X107.197 Y132.394 E3.04938
G1 X106.27 Y132.251 E3.08058
G1 X105.649 Y132.109 E3.10177
G1 X104.584 Y131.832 E3.13837
G1 X103.175 Y131.44 E3.18701
G1 X102.428 Y131.223 E3.21289
G1 X101.539 Y130.923 E3.24409
G1 X100.679 Y130.548 E3.2753
G1 X100.064 Y130.223 E3.29843
G1 X99.106 Y129.677 E3.33511
G1 X97.796 Y128.904 E3.3857
G1 X97.191 Y128.537 E3.40923
G1 X96.41 Y128.017 E3.44044
G1 X95.677 Y127.432 E3.47163
G1 X95.172 Y126.964 E3.49453
G1 X94.52 Y126.321 E3.52499
G1 X93.397 Y125.179 E3.57826
G1 X92.817 Y124.572 E3.60618
G1 X92.199 Y123.866 E3.63739
G1 X91.644 Y123.11 E3.66858
G1 X91.299 Y122.562 E3.69012
G1 X90.832 Y121.768 E3.72076
G1 X90.032 Y120.353 E3.77482
G1 X89.642 Y119.642 E3.8018
G1 X89.227 Y118.801 E3.83299
G1 X88.885 Y117.928 E3.86417
G1 X88.686 Y117.284 E3.88659
G1 X88.392 Y116.214 E3.9235
G1 X88.003 Y114.706 E3.9753
G1 X87.841 Y114.042 E3.99803
G1 X87.658 Y113.122 E4.02923
G1 X87.554 Y112.19 E4.06042
G1 X87.528 Y111.435 E4.08555
G1 X87.528 Y110.959 E4.10138
G1 X87.541 Y110.42 E4.11931
G1 X87.659 Y107.85 E4.20488
G1 X87.746 Y106.916 E4.23608
G1 X87.914 Y105.986 E4.26751
G1 X88.066 Y105.312 E4.29049
G1 X88.327 Y104.221 E4.3278
G1 X88.706 Y102.752 E4.37826
G1 X88.98 Y101.855 E4.40946
G1 X89.329 Y100.984 E4.44066
G1 X89.782 Y100.093 E4.47391
G1 X90.33 Y99.128 E4.51082
G1 X91.144 Y97.752 E4.56399
G1 X91.48 Y97.199 E4.58552
G1 X92.001 Y96.419 E4.61671
G1 X92.586 Y95.686 E4.64791
G1 X93.041 Y95.195 E4.67017
G1 X93.801 Y94.425 E4.70615
M204 S2000
G0 F7500 X94.081 Y94.711
M204 S500
G1 F1500 X95.064 Y93.746 E4.75197
G1 X95.715 Y93.124 E4.78192
G1 X96.408 Y92.518 E4.81254
G1 X97.151 Y91.974 E4.84316
G1 X97.651 Y91.661 E4.86278
G1 X98.632 Y91.085 E4.90062
G1 X99.859 Y90.393 E4.94747
G1 X100.563 Y90.007 E4.97418
G1 X101.389 Y89.6 E5.0048
G1 X102.247 Y89.267 E5.03542
G1 X102.83 Y89.087 E5.05571
G1 X103.902 Y88.792 E5.09269
G1 X105.266 Y88.441 E5.13953
G1 X106.064 Y88.246 E5.16686
G1 X106.967 Y88.067 E5.19748
G1 X108.195 Y87.952 E5.2385
G1 X109.495 Y87.91 E5.28176
G1 X110.22 Y87.906 E5.30587
G1 X111.14 Y87.941 E5.33649
G1 X111.715 Y88.004 E5.35573
G1 X112.64 Y88.131 E5.38679
G1 X114.268 Y88.339 E5.44137
G1 X115.176 Y88.495 E5.47202
G1 X116.006 Y88.712 E5.50055
G1 X116.986 Y89.01 E5.53462
G1 X117.922 Y89.324 E5.56746
G1 X118.779 Y89.66 E5.59807
G1 X119.561 Y90.046 E5.62708
G1 X120.057 Y90.323 E5.64597
G1 X122.059 Y91.503 E5.72327
G1 X122.623 Y91.847 E5.74524
G1 X123.387 Y92.361 E5.77586
G1 X124.104 Y92.938 E5.80648
G1 X124.539 Y93.342 E5.82622
G1 X125.173 Y93.966 E5.85581
G1 X126.348 Y95.161 E5.91155
G1 X126.89 Y95.728 E5.93764
G1 X127.496 Y96.421 E5.96826
G1 X128.04 Y97.164 E5.99888
G1 X128.358 Y97.672 E6.01882
G1 X128.893 Y98.585 E6.05401
G1 X129.684 Y99.986 E6.10753
G1 X130.002 Y100.565 E6.1295
G1 X130.41 Y101.391 E6.16014
G1 X130.744 Y102.248 E6.19073
G1 X130.931 Y102.855 E6.21186
G1 X131.217 Y103.899 E6.24786
G1 X131.571 Y105.269 E6.29492
G1 X131.766 Y106.064 E6.32215
G1 X131.946 Y106.967 E6.35277
G1 X132.046 Y107.882 E6.38339
G1 X132.069 Y108.493 E6.40372
G1 X132.077 Y109.471 E6.43625
G1 X132.061 Y111.147 E6.492
G1 X132.044 Y111.861 E6.51575
G1 X131.982 Y112.78 E6.54639
G1 X131.841 Y113.69 E6.57702
G1 X131.708 Y114.27 E6.59681
G1 X131.43 Y115.335 E6.63342
G1 X131.043 Y116.725 E6.68141
G1 X130.819 Y117.492 E6.70798
G1 X130.522 Y118.363 E6.73859
G1 X130.151 Y119.206 E6.76922
G1 X129.868 Y119.74 E6.78932
G1 X129.354 Y120.645 E6.82394
G1 X128.591 Y121.94 E6.87393
G1 X128.182 Y122.615 E6.90018
G1 X127.671 Y123.381 E6.93081
G1 X127.095 Y124.099 E6.96142
G1 X126.669 Y124.558 E6.98225
G1 X126.044 Y125.192 E7.01186
G1 X124.74 Y126.473 E7.07266
G1 X124.289 Y126.903 E7.09339
G1 X123.595 Y127.509 E7.12403
G1 X122.852 Y128.052 E7.15464
G1 X122.35 Y128.367 E7.17435
G1 X121.536 Y128.846 E7.20576
G1 X120.036 Y129.692 E7.26304
G1 X119.421 Y130.028 E7.28635
G1 X118.595 Y130.434 E7.31696
G1 X117.736 Y130.767 E7.34761
G1 X117.156 Y130.945 E7.36778
G1 X116.154 Y131.22 E7.40234
G1 X114.738 Y131.586 E7.45099
G1 X113.936 Y131.782 E7.47845
G1 X113.033 Y131.961 E7.50907
G1 X112.118 Y132.061 E7.53968
G1 X111.523 Y132.083 E7.55948
G1 X110.438 Y132.091 E7.59557
G1 X108.993 Y132.078 E7.64363
G1 X108.143 Y132.058 E7.67191
G1 X107.225 Y131.995 E7.70252
G1 X106.315 Y131.852 E7.73316
G1 X105.749 Y131.722 E7.75247
G1 X104.691 Y131.446 E7.78884
G1 X103.161 Y131.02 E7.84166
G1 X102.539 Y130.839 E7.86321
G1 X101.667 Y130.543 E7.89384
G1 X100.824 Y130.174 E7.92444
G1 X100.262 Y129.876 E7.9456
G1 X99.453 Y129.416 E7.97655
G1 X98.003 Y128.562 E8.03252
G1 X97.398 Y128.195 E8.05606
G1 X96.633 Y127.684 E8.08666
G1 X95.914 Y127.108 E8.1173
G1 X95.453 Y126.679 E8.13824
G1 X94.682 Y125.917 E8.1743
G1 X93.569 Y124.783 E8.22715
G1 X93.106 Y124.297 E8.24947
G1 X92.501 Y123.603 E8.28009
G1 X91.958 Y122.86 E8.3107
G1 X91.644 Y122.359 E8.33037
G1 X91.082 Y121.4 E8.36734
G1 X90.38 Y120.156 E8.41485
G1 X89.993 Y119.45 E8.44162
G1 X89.586 Y118.624 E8.47225
G1 X89.253 Y117.766 E8.50286
G1 X89.072 Y117.178 E8.52333
G1 X88.78 Y116.114 E8.56002
G1 X88.392 Y114.611 E8.61165
G1 X88.23 Y113.947 E8.63438
G1 X88.051 Y113.044 E8.665
G1 X87.951 Y112.129 E8.69562
G1 X87.928 Y111.435 E8.71871
G1 X87.928 Y110.959 E8.73454
G1 X87.941 Y110.44 E8.75181
G1 X88.059 Y107.87 E8.83738
G1 X88.145 Y106.954 E8.86798
G1 X88.305 Y106.074 E8.89773
G1 X88.489 Y105.261 E8.92545
G1 X88.763 Y104.125 E8.96432
G1 X89.093 Y102.852 E9.00806
G1 X89.363 Y101.972 E9.03868
G1 X89.708 Y101.118 E9.06931
G1 X90.13 Y100.29 E9.10022
G1 X90.674 Y99.332 E9.13686
G1 X91.486 Y97.96 E9.18989
G1 X91.822 Y97.407 E9.21141
G1 X92.334 Y96.642 E9.24203
G1 X92.91 Y95.924 E9.27264
G1 X93.327 Y95.475 E9.29302
G1 X94.081 Y94.711 E9.32872
M204 S2000
G0 F7500 X94.361 Y94.996
M204 S500
G1 F1500 X95.344 Y94.031 E9.37454
G1 X95.991 Y93.413 E9.4043
G1 X96.672 Y92.819 E9.43435
G1 X97.402 Y92.288 E9.46438
G1 X97.854 Y92.006 E9.4821
G1 X98.828 Y91.434 E9.51967
G1 X100.167 Y90.68 E9.57078
G1 X100.755 Y90.358 E9.59307
G1 X101.565 Y89.959 E9.62311
G1 X102.408 Y89.634 E9.65316
G1 X102.937 Y89.473 E9.67155
G1 X104.002 Y89.18 E9.70829
G1 X105.494 Y88.797 E9.75952
G1 X106.159 Y88.635 E9.78228
G1 X107.045 Y88.46 E9.81232
G1 X108.209 Y88.351 E9.85121
G1 X109.189 Y88.316 E9.88382
G1 X110.222 Y88.306 E9.91818
G1 X111.124 Y88.341 E9.9482
G1 X111.66 Y88.4 E9.96614
G1 X112.626 Y88.532 E9.99857
G1 X114.218 Y88.736 E10.05195
G1 X115.107 Y88.89 E10.08196
G1 X115.889 Y89.094 E10.10884
G1 X116.869 Y89.392 E10.14291
G1 X117.792 Y89.702 E10.17529
G1 X118.633 Y90.033 E10.20535
G1 X119.369 Y90.397 E10.23266
G1 X119.854 Y90.668 E10.25114
G1 X121.715 Y91.764 E10.32297
G1 X122.414 Y92.189 E10.35018
G1 X123.164 Y92.693 E10.38024
G1 X123.866 Y93.261 E10.41027
G1 X124.258 Y93.627 E10.42811
G1 X124.892 Y94.251 E10.4577
G1 X126.167 Y95.549 E10.51821
G1 X126.601 Y96.004 E10.53913
G1 X127.195 Y96.684 E10.56916
G1 X127.726 Y97.415 E10.59921
G1 X128.013 Y97.875 E10.61724
G1 X128.545 Y98.782 E10.65221
G1 X129.273 Y100.07 E10.70142
G1 X129.651 Y100.758 E10.72753
G1 X130.051 Y101.568 E10.75758
G1 X130.377 Y102.41 E10.78761
G1 X130.545 Y102.962 E10.8068
G1 X130.83 Y103.999 E10.84257
G1 X131.217 Y105.5 E10.89413
G1 X131.378 Y106.159 E10.91669
G1 X131.553 Y107.045 E10.94673
G1 X131.649 Y107.943 E10.97676
G1 X131.669 Y108.497 E10.9952
G1 X131.677 Y109.657 E11.03378
G1 X131.664 Y110.994 E11.07826
G1 X131.644 Y111.852 E11.1068
G1 X131.583 Y112.753 E11.13684
G1 X131.442 Y113.645 E11.16687
G1 X131.32 Y114.17 E11.1848
G1 X131.044 Y115.228 E11.22117
G1 X130.62 Y116.748 E11.27365
G1 X130.435 Y117.38 E11.29555
G1 X130.143 Y118.234 E11.32557
G1 X129.777 Y119.06 E11.35562
G1 X129.52 Y119.543 E11.37382
G1 X129.009 Y120.442 E11.40821
G1 X128.178 Y121.851 E11.46262
G1 X127.84 Y122.408 E11.48429
G1 X127.338 Y123.158 E11.51431
G1 X126.771 Y123.861 E11.54435
G1 X126.384 Y124.277 E11.56324
G1 X125.643 Y125.027 E11.59831
G1 X124.573 Y126.078 E11.6482
G1 X124.013 Y126.613 E11.67395
G1 X123.332 Y127.207 E11.70401
G1 X122.602 Y127.738 E11.73403
G1 X122.147 Y128.022 E11.75187
G1 X121.17 Y128.595 E11.78955
G1 X119.964 Y129.275 E11.83559
G1 X119.229 Y129.677 E11.86346
G1 X118.418 Y130.075 E11.8935
G1 X117.576 Y130.399 E11.92351
G1 X117.05 Y130.559 E11.9418
G1 X116.054 Y130.832 E11.97615
G1 X114.638 Y131.198 E12.02479
G1 X113.841 Y131.393 E12.05208
G1 X112.955 Y131.568 E12.08212
G1 X112.057 Y131.664 E12.11216
G1 X111.519 Y131.683 E12.13006
G1 X110.441 Y131.691 E12.16592
G1 X108.996 Y131.678 E12.21398
G1 X108.153 Y131.658 E12.24203
G1 X107.252 Y131.595 E12.27207
G1 X106.36 Y131.453 E12.30211
G1 X105.849 Y131.335 E12.31955
G1 X104.798 Y131.061 E12.35568
G1 X103.273 Y130.636 E12.40833
G1 X102.651 Y130.455 E12.42988
G1 X101.796 Y130.164 E12.45992
G1 X100.97 Y129.799 E12.48995
G1 X100.459 Y129.528 E12.50919
G1 X99.65 Y129.068 E12.54014
G1 X98.211 Y128.22 E12.5957
G1 X97.606 Y127.853 E12.61923
G1 X96.855 Y127.351 E12.64928
G1 X96.152 Y126.784 E12.67932
G1 X95.734 Y126.394 E12.69833
G1 X94.967 Y125.637 E12.73417
G1 X93.967 Y124.619 E12.78164
G1 X93.396 Y124.021 E12.80914
G1 X92.803 Y123.34 E12.83917
G1 X92.272 Y122.609 E12.86922
G1 X91.989 Y122.156 E12.88699
G1 X91.431 Y121.204 E12.92369
G1 X90.729 Y119.96 E12.9712
G1 X90.344 Y119.258 E12.99783
G1 X89.945 Y118.448 E13.02786
G1 X89.62 Y117.605 E13.05791
G1 X89.457 Y117.071 E13.07648
G1 X89.209 Y116.172 E13.1075
G1 X88.815 Y114.653 E13.15969
G1 X88.619 Y113.853 E13.18708
G1 X88.444 Y112.967 E13.21712
G1 X88.348 Y112.069 E13.24716
G1 X88.328 Y111.435 E13.26826
G1 X88.328 Y110.959 E13.28409
G1 X88.34 Y110.459 E13.30072
G1 X88.458 Y107.89 E13.38626
G1 X88.544 Y106.991 E13.4163
G1 X88.695 Y106.162 E13.44432
G1 X88.878 Y105.354 E13.47188
G1 X89.15 Y104.225 E13.5105
G1 X89.48 Y102.952 E13.55424
G1 X89.745 Y102.089 E13.58427
G1 X90.086 Y101.253 E13.6143
G1 X90.478 Y100.487 E13.64292
G1 X91.018 Y99.536 E13.67929
G1 X91.764 Y98.274 E13.72805
G1 X92.164 Y97.615 E13.75369
G1 X92.667 Y96.864 E13.78376
G1 X93.234 Y96.161 E13.81379
G1 X93.612 Y95.756 E13.83222
G1 X94.361 Y94.996 E13.86771
M204 S2000
G1 F2400 E13.06771
G1 F300 Z0.4
;MESH:escape tower.stl
G0 F7500 X110.07 Y98.688 Z0.4
M204 S500
;TYPE:WALL-OUTER
G1 F300 Z0.2
G1 F2400 E13.86771
G1 F1608.6 X108.627 Y98.716 E13.91247
G1 F1604.3 X105.742 Y99.46 E14.00513
G1 F1608.6 X103.157 Y100.919 E14.09719
G1 X101.035 Y103.002 E14.18941
G1 F1604.3 X99.527 Y105.558 E14.2817
G1 F1608.6 X99.415 Y105.958 E14.29459
G1 F1719.2 X99.096 Y107.193 E14.3316
G1 F1973.7 X98.776 Y108.429 E14.36388
G1 F2135.2 X98.752 Y110.888 E14.42133
G1 F1834.9 X98.704 Y111.046 E14.42582
G1 F1604.3 X98.701 Y111.391 E14.43655
G1 X99.443 Y114.267 E14.52892
G1 F1608.6 X100.902 Y116.855 E14.62106
G1 F1617.3 X102.986 Y118.979 E14.71286
G1 X105.543 Y120.486 E14.80442
G1 X108.412 Y121.285 E14.89629
G1 X111.376 Y121.312 E14.98773
G1 F1612.9 X114.258 Y120.568 E15.0798
G1 X116.843 Y119.11 E15.1716
G1 X118.966 Y117.026 E15.26362
G1 X120.472 Y114.47 E15.35539
G1 F1608.6 X121.27 Y111.602 E15.44772
G1 F1604.3 X121.298 Y108.638 E15.5399
G1 F1600 X120.554 Y105.756 E15.63271
G1 X119.096 Y103.174 E15.72517
G1 F1604.3 X117.01 Y101.049 E15.81777
G1 F1591.5 X114.434 Y99.528 E15.91155
M104 S210
G1 F1574.8 X113.16 Y99.108 E15.95404
M204 S2000
G1 F2400 E15.15404
G1 F300 Z0.4
;MESH:NONMESH
G0 F7500 X108.418 Y121.25 Z0.4
;TIME_ELAPSED:24.548164
;LAYER:1
M106 S85
;MESH:escape tower.stl
G0 F8250 X108.418 Y121.25 Z0.8
M204 S500
;TYPE:WALL-OUTER
G1 F300 Z0.6
G1 F2400 E15.95404
G1 F1225.9 X111.371 Y121.279 E16.15049
G1 X114.245 Y120.537 E16.34794
G1 X116.821 Y119.081 E16.54477
G1 X118.937 Y117.004 E16.742
G1 X120.44 Y114.457 E16.93873
G1 X121.237 Y111.597 E17.13623
G1 X121.264 Y108.692 E17.32948
G1 X121.264 Y108.643 E17.33274
G1 X120.523 Y105.769 E17.53017
G1 X119.068 Y103.194 E17.72691
G1 X116.99 Y101.075 E17.92433
G1 X114.432 Y99.564 E18.12196
G1 X113.488 Y99.208 E18.18907
G1 X113.249 Y99.131 E18.20578
G1 X113.041 Y99.881 E18.25755
G1 X113.753 Y100.146 E18.30809
G1 X114.135 Y100.271 E18.33482
G1 X116.523 Y101.677 E18.51916
G1 X118.46 Y103.651 E18.70313
G1 X119.823 Y106.062 E18.88737
G1 X120.509 Y108.734 E19.07087
G1 X120.486 Y111.5 E19.25488
G1 X119.743 Y114.162 E19.43872
G1 X118.341 Y116.542 E19.62247
G1 X116.369 Y118.481 E19.80643
G1 X113.96 Y119.839 E19.99039
G1 X111.283 Y120.529 E20.17428
G1 X108.518 Y120.505 E20.35822
G1 X105.855 Y119.761 E20.54215
G1 X103.473 Y118.361 E20.72594
G1 X101.536 Y116.385 E20.91
G1 X100.177 Y113.975 E21.09405
G1 X99.489 Y111.301 E21.27772
G1 X99.515 Y108.532 E21.46192
