;FLAVOR:Marlin
;TIME:1695
;Filament used: 2.27842m
;Layer height: 0.4
;MINX:81.61
;MINY:75.086
;MINZ:0.2
;MAXX:138.39
;MAXY:132.007
;MAXZ:38.2
;Generated with Cura_SteamEngine 5.2.2
M82 ;absolute extrusion mode
; Ender 3 S1 Start G-code
G92 E0 ; Reset Extruder
G28 ; Home all axes
M420 S1 ;Use bed leveling data
G1 Z10.0 F3000 ; Move Z Axis up little to prevent scratching of Heat Bed
G1 X0 Y0

M104 S210.0
M190 S60
M109 S210.0

G1 X0.1 Y20 Z0.3 F5000.0 ; Move to start position
G1 X0.1 Y200.0 Z0.3 F1500.0 E15 ; Draw the first line
G1 X0.4 Y200.0 Z0.3 F5000.0 ; Move to side a little
G1 X0.4 Y20 Z0.3 F1500.0 E30 ; Draw the second line
G92 E0 ; Reset Extruder
G1 Z2.0 F3000 ; Move Z Axis up little to prevent scratching of Heat Bed
G1 X5 Y20 Z0.3 F5000.0 ; Move over to prevent blob squish
G92 E0
G92 E0
G1 F2400 E-0.8
;LAYER_COUNT:96
;LAYER:0
M107
M204 S2000
G1 F300 Z0.4
G0 F7500 X89.549 Y83.82 Z0.4
M204 S500
;TYPE:SKIRT
G1 F300 Z0.2
G1 F2400 E0
G1 F1500 X90.031 Y83.335 E0.02274
G1 X90.916 Y82.498 E0.06326
G1 X91.269 Y82.178 E0.0791
G1 X91.96 Y81.579 E0.10952
G1 X92.44 Y81.186 E0.13015
G1 X93.143 Y80.651 E0.15954
G1 X93.677 Y80.267 E0.18141
G1 X94.249 Y79.883 E0.20433
G1 X95.362 Y79.184 E0.24804
G1 X96.132 Y78.728 E0.2778
G1 X96.755 Y78.392 E0.30135
G1 X97.848 Y77.847 E0.34197
G1 X98.658 Y77.471 E0.37167
G1 X99.301 Y77.202 E0.39485
G1 X100.445 Y76.766 E0.43557
G1 X101.254 Y76.482 E0.46409
G1 X101.919 Y76.278 E0.48722
G1 X103.077 Y75.962 E0.52715
G1 X103.944 Y75.751 E0.55683
G1 X104.619 Y75.615 E0.57973
G1 X105.831 Y75.409 E0.62062
G1 X106.764 Y75.278 E0.65195
G1 X107.428 Y75.21 E0.67415
G1 X108.545 Y75.131 E0.7114
G1 X109.628 Y75.086 E0.74745
G1 X110.465 Y75.088 E0.77529
G1 X111.628 Y75.138 E0.81401
G1 X112.211 Y75.176 E0.83344
G1 X112.89 Y75.242 E0.85613
G1 X114.033 Y75.388 E0.89445
G1 X114.915 Y75.524 E0.92414
G1 X115.624 Y75.662 E0.94816
G1 X116.789 Y75.929 E0.98791
G1 X117.676 Y76.158 E1.01838
G1 X118.331 Y76.355 E1.04113
G1 X119.494 Y76.744 E1.08192
G1 X120.294 Y77.036 E1.11024
G1 X120.939 Y77.3 E1.13342
G1 X122.023 Y77.785 E1.17292
G1 X122.834 Y78.174 E1.20284
G1 X123.461 Y78.507 E1.22645
G1 X124.529 Y79.118 E1.26738
G1 X125.27 Y79.568 E1.29621
G1 X125.859 Y79.959 E1.31972
G1 X126.841 Y80.657 E1.3598
G1 X127.551 Y81.191 E1.38934
G1 X128.085 Y81.627 E1.41227
G1 X128.999 Y82.421 E1.45254
G1 X129.656 Y83.025 E1.48222
G1 X130.141 Y83.507 E1.50497
G1 X130.989 Y84.404 E1.54602
G1 X131.614 Y85.104 E1.57723
G1 X132.049 Y85.631 E1.59996
G1 X132.679 Y86.445 E1.6342
G1 X133.264 Y87.245 E1.66716
G1 X133.664 Y87.836 E1.6909
G1 X134.304 Y88.854 E1.73089
G1 X134.768 Y89.642 E1.76131
G1 X135.087 Y90.234 E1.78367
G1 X135.62 Y91.3 E1.82331
G1 X135.992 Y92.099 E1.85263
G1 X136.261 Y92.741 E1.87578
G1 X136.711 Y93.919 E1.91772
G1 X137.004 Y94.755 E1.94718
G1 X137.201 Y95.399 E1.96958
G1 X137.514 Y96.543 E2.00903
G1 X137.73 Y97.431 E2.03943
G1 X137.868 Y98.111 E2.06251
G1 X138.069 Y99.298 E2.10255
G1 X138.194 Y100.187 E2.13241
G1 X138.264 Y100.874 E2.15537
G1 X138.35 Y102.099 E2.19622
G1 X138.388 Y103.019 E2.22684
G1 X138.39 Y103.691 E2.24919
G1 X138.357 Y104.871 E2.28846
G1 X138.306 Y105.778 E2.31867
G1 X138.241 Y106.473 E2.34189
G1 X138.089 Y107.671 E2.38205
G1 X137.954 Y108.544 E2.41143
G1 X137.815 Y109.263 E2.43579
G1 X137.551 Y110.414 E2.47507
G1 X137.322 Y111.298 E2.50544
G1 X137.128 Y111.949 E2.52803
G1 X136.756 Y113.065 E2.56716
G1 X136.437 Y113.933 E2.59792
G1 X136.18 Y114.558 E2.62039
G1 X135.674 Y115.687 E2.66154
G1 X135.295 Y116.476 E2.69066
G1 X134.958 Y117.111 E2.71457
G1 X134.375 Y118.129 E2.75358
G1 X133.908 Y118.897 E2.78348
G1 X133.518 Y119.485 E2.80695
G1 X132.611 Y120.753 E2.8588
G1 X132.201 Y121.292 E2.88132
G1 X131.796 Y121.793 E2.90275
G1 X131.296 Y122.365 E2.92802
G1 X130.508 Y123.222 E2.96674
G1 X129.967 Y123.772 E2.9924
G1 X129.093 Y124.598 E3.0324
G1 X128.41 Y125.207 E3.06283
G1 X127.889 Y125.637 E3.0853
G1 X126.924 Y126.385 E3.12591
G1 X126.22 Y126.9 E3.15492
G1 X125.664 Y127.273 E3.17719
G1 X124.604 Y127.94 E3.21885
G1 X123.846 Y128.388 E3.24813
G1 X123.254 Y128.707 E3.2705
G1 X122.165 Y129.251 E3.31099
G1 X121.338 Y129.634 E3.3413
G1 X120.701 Y129.9 E3.36426
G1 X119.554 Y130.337 E3.40508
G1 X118.746 Y130.621 E3.43357
G1 X118.081 Y130.825 E3.45671
G1 X116.923 Y131.141 E3.49663
G1 X116.056 Y131.352 E3.52631
G1 X115.381 Y131.488 E3.54921
G1 X113.778 Y131.754 E3.60325
G1 X113.132 Y131.84 E3.62493
G1 X112.56 Y131.901 E3.64406
G1 X111.925 Y131.946 E3.66524
G1 X111.016 Y131.987 E3.6955
G1 X110.305 Y132.007 E3.71916
G1 X109.68 Y132.006 E3.73994
G1 X109.098 Y131.985 E3.75931
G1 X108.272 Y131.938 E3.78683
G1 X107.606 Y131.89 E3.80904
G1 X106.96 Y131.824 E3.83064
G1 X105.848 Y131.674 E3.86796
G1 X105.119 Y131.559 E3.8925
G1 X104.376 Y131.415 E3.91768
G1 X103.211 Y131.148 E3.95743
G1 X102.324 Y130.919 E3.9879
G1 X101.669 Y130.722 E4.01065
G1 X100.506 Y130.333 E4.05144
G1 X99.706 Y130.041 E4.07976
G1 X99.061 Y129.777 E4.10294
G1 X97.977 Y129.292 E4.14244
G1 X97.164 Y128.901 E4.17244
G1 X96.536 Y128.568 E4.19609
G1 X95.47 Y127.958 E4.23694
G1 X94.73 Y127.509 E4.26573
G1 X94.141 Y127.118 E4.28924
G1 X93.159 Y126.42 E4.32931
G1 X92.448 Y125.885 E4.35891
G1 X91.905 Y125.443 E4.38219
G1 X91.021 Y124.675 E4.42114
G1 X90.334 Y124.042 E4.45221
G1 X89.86 Y123.571 E4.47444
G1 X89.025 Y122.689 E4.51483
G1 X88.423 Y122.016 E4.54487
G1 X87.992 Y121.493 E4.56741
G1 X87.247 Y120.531 E4.60788
G1 X86.711 Y119.798 E4.63808
G1 X86.33 Y119.232 E4.66077
G1 X85.703 Y118.235 E4.69994
G1 X85.231 Y117.433 E4.73089
G1 X84.911 Y116.838 E4.75337
G1 X84.372 Y115.758 E4.79351
G1 X83.998 Y114.955 E4.82297
G1 X83.729 Y114.313 E4.84613
G1 X83.297 Y113.182 E4.88639
G1 X82.995 Y112.318 E4.91683
G1 X82.799 Y111.678 E4.9391
G1 X82.486 Y110.534 E4.97855
G1 X82.27 Y109.646 E5.00894
G1 X82.132 Y108.966 E5.03202
G1 X81.931 Y107.779 E5.07206
G1 X81.805 Y106.878 E5.10232
G1 X81.736 Y106.199 E5.12502
G1 X81.651 Y104.986 E5.16546
G1 X81.613 Y104.12 E5.19429
G1 X81.61 Y103.41 E5.21791
G1 X81.644 Y102.209 E5.25787
G1 X81.696 Y101.302 E5.28809
G1 X81.76 Y100.622 E5.3108
G1 X81.909 Y99.446 E5.35023
G1 X82.046 Y98.557 E5.38015
G1 X82.185 Y97.84 E5.40444
G1 X82.449 Y96.689 E5.44372
G1 X82.678 Y95.805 E5.47409
G1 X82.872 Y95.154 E5.49668
G1 X83.244 Y94.038 E5.53581
G1 X83.563 Y93.167 E5.56666
G1 X83.826 Y92.528 E5.58964
G1 X84.321 Y91.425 E5.62985
G1 X84.701 Y90.636 E5.65898
G1 X85.035 Y90.005 E5.68273
G1 X85.636 Y88.955 E5.72297
G1 X86.083 Y88.22 E5.75158
G1 X86.475 Y87.628 E5.77519
G1 X87.168 Y86.652 E5.81501
G1 X87.708 Y85.933 E5.84491
G1 X88.156 Y85.384 E5.86848
G1 X88.938 Y84.485 E5.90811
G1 X89.549 Y83.82 E5.93815
M204 S2000
G0 F7500 X89.841 Y84.093
M204 S500
G1 F1500 X90.305 Y83.626 E5.96004
G1 X91.19 Y82.789 E6.00056
G1 X91.531 Y82.48 E6.01586
G1 X92.222 Y81.881 E6.04628
G1 X92.685 Y81.502 E6.06618
G1 X93.376 Y80.976 E6.09506
G1 X93.91 Y80.592 E6.11694
G1 X94.461 Y80.221 E6.13903
G1 X95.574 Y79.522 E6.18275
G1 X96.333 Y79.074 E6.21206
G1 X96.934 Y78.75 E6.23477
G1 X98.027 Y78.205 E6.27539
G1 X98.824 Y77.835 E6.30462
G1 X99.443 Y77.576 E6.32694
G1 X100.587 Y77.14 E6.36766
G1 X101.383 Y76.861 E6.39571
G1 X102.024 Y76.664 E6.41801
G1 X103.182 Y76.348 E6.45794
G1 X104.035 Y76.141 E6.48713
G1 X104.686 Y76.009 E6.50922
G1 X105.898 Y75.803 E6.55011
G1 X106.816 Y75.674 E6.58095
G1 X107.456 Y75.609 E6.60234
G1 X108.573 Y75.53 E6.63959
G1 X109.643 Y75.486 E6.67521
G1 X110.448 Y75.488 E6.70198
G1 X111.602 Y75.537 E6.7404
G1 X112.185 Y75.575 E6.75983
G1 X112.839 Y75.638 E6.78168
G1 X113.982 Y75.784 E6.82001
G1 X114.852 Y75.919 E6.84929
G1 X115.535 Y76.052 E6.87243
G1 X116.7 Y76.319 E6.91218
G1 X117.573 Y76.545 E6.94218
G1 X118.204 Y76.734 E6.96409
G1 X119.367 Y77.123 E7.00487
G1 X120.154 Y77.41 E7.03274
G1 X120.776 Y77.665 E7.0551
G1 X121.86 Y78.15 E7.09459
G1 X122.658 Y78.534 E7.12405
G1 X123.263 Y78.854 E7.14681
G1 X124.331 Y79.465 E7.18774
G1 X125.059 Y79.909 E7.2161
G1 X125.627 Y80.285 E7.23875
G1 X126.609 Y80.983 E7.27882
G1 X127.308 Y81.509 E7.30792
G1 X127.823 Y81.929 E7.33002
G1 X128.737 Y82.723 E7.37029
G1 X129.383 Y83.317 E7.39948
G1 X129.851 Y83.782 E7.42142
G1 X130.699 Y84.679 E7.46248
G1 X131.314 Y85.368 E7.4932
G1 X131.733 Y85.876 E7.5151
G1 X132.363 Y86.69 E7.54933
G1 X132.94 Y87.479 E7.58185
G1 X133.325 Y88.049 E7.60472
G1 X133.965 Y89.067 E7.64472
G1 X134.422 Y89.843 E7.67467
G1 X134.729 Y90.413 E7.6962
G1 X135.262 Y91.479 E7.73584
G1 X135.628 Y92.265 E7.76468
G1 X135.887 Y92.883 E7.78697
G1 X136.337 Y94.061 E7.82891
G1 X136.625 Y94.884 E7.85791
G1 X136.815 Y95.505 E7.87951
G1 X137.128 Y96.649 E7.91896
G1 X137.341 Y97.522 E7.94885
G1 X137.473 Y98.178 E7.9711
G1 X137.674 Y99.365 E8.01114
G1 X137.798 Y100.24 E8.04054
G1 X137.865 Y100.902 E8.06267
G1 X137.951 Y102.127 E8.10351
G1 X137.988 Y103.033 E8.13367
G1 X137.99 Y103.679 E8.15516
G1 X137.957 Y104.859 E8.19442
G1 X137.907 Y105.753 E8.2242
G1 X137.844 Y106.422 E8.24655
G1 X137.692 Y107.62 E8.28671
G1 X137.559 Y108.481 E8.31569
G1 X137.425 Y109.174 E8.33917
G1 X137.161 Y110.325 E8.37844
G1 X136.936 Y111.195 E8.40833
G1 X136.748 Y111.822 E8.4301
G1 X136.376 Y112.938 E8.46923
G1 X136.063 Y113.792 E8.49948
G1 X135.815 Y114.394 E8.52114
G1 X135.309 Y115.523 E8.56229
G1 X134.935 Y116.301 E8.591
G1 X134.611 Y116.912 E8.614
G1 X134.028 Y117.93 E8.65302
G1 X133.568 Y118.687 E8.68248
G1 X133.192 Y119.254 E8.70511
G1 X132.499 Y120.23 E8.74492
G1 X131.883 Y121.049 E8.77901
G1 X131.492 Y121.533 E8.7997
G1 X131.002 Y122.095 E8.8245
G1 X130.214 Y122.952 E8.86322
G1 X129.692 Y123.481 E8.88794
G1 X128.818 Y124.307 E8.92794
G1 X128.146 Y124.906 E8.95788
G1 X127.644 Y125.321 E8.97954
G1 X126.679 Y126.069 E9.02015
G1 X125.986 Y126.575 E9.04869
G1 X125.451 Y126.935 E9.07014
G1 X124.391 Y127.602 E9.11179
G1 X123.645 Y128.042 E9.1406
G1 X123.075 Y128.349 E9.16213
G1 X121.986 Y128.893 E9.20262
G1 X121.173 Y129.27 E9.23243
G1 X120.559 Y129.526 E9.25455
G1 X119.412 Y129.963 E9.29538
G1 X118.617 Y130.242 E9.3234
G1 X117.976 Y130.439 E9.3457
G1 X116.818 Y130.755 E9.38563
G1 X115.965 Y130.962 E9.41482
G1 X115.314 Y131.094 E9.43691
G1 X114.102 Y131.3 E9.4778
G1 X113.079 Y131.443 E9.51216
G1 X112.528 Y131.502 E9.53059
G1 X111.906 Y131.546 E9.55133
G1 X111.005 Y131.587 E9.58133
G1 X110.294 Y131.607 E9.60499
G1 X109.691 Y131.607 E9.62504
G1 X109.12 Y131.586 E9.64405
G1 X108.301 Y131.539 E9.67133
G1 X107.635 Y131.491 E9.69354
G1 X107.013 Y131.427 E9.71434
G1 X105.91 Y131.279 E9.75135
G1 X105.181 Y131.164 E9.7759
G1 X104.465 Y131.025 E9.80016
G1 X103.3 Y130.758 E9.83991
G1 X102.427 Y130.532 E9.8699
G1 X101.796 Y130.343 E9.89181
G1 X100.633 Y129.954 E9.9326
G1 X99.846 Y129.667 E9.96046
G1 X99.224 Y129.412 E9.98282
G1 X98.14 Y128.927 E10.02232
G1 X97.34 Y128.542 E10.05185
G1 X96.734 Y128.221 E10.07466
G1 X95.668 Y127.611 E10.11551
G1 X94.941 Y127.168 E10.14382
G1 X94.373 Y126.792 E10.16648
G1 X93.391 Y126.094 E10.20655
G1 X92.691 Y125.567 E10.23569
G1 X92.167 Y125.141 E10.25815
G1 X91.283 Y124.373 E10.2971
G1 X90.607 Y123.75 E10.32768
G1 X90.15 Y123.296 E10.3491
G1 X89.315 Y122.414 E10.3895
G1 X88.724 Y121.752 E10.41901
G1 X88.308 Y121.248 E10.44075
G1 X87.563 Y120.286 E10.48122
G1 X87.036 Y119.564 E10.51095
G1 X86.669 Y119.019 E10.5328
G1 X86.042 Y118.022 E10.57198
G1 X85.577 Y117.233 E10.60244
G1 X85.269 Y116.659 E10.6241
G1 X84.73 Y115.579 E10.66425
G1 X84.362 Y114.789 E10.69324
G1 X84.103 Y114.17 E10.71555
G1 X83.671 Y113.039 E10.75582
G1 X83.374 Y112.189 E10.78577
G1 X83.185 Y111.572 E10.80723
G1 X82.872 Y110.428 E10.84668
G1 X82.659 Y109.555 E10.87657
G1 X82.527 Y108.899 E10.89882
G1 X82.326 Y107.712 E10.93886
G1 X82.201 Y106.826 E10.96862
G1 X82.135 Y106.171 E10.99052
G1 X82.05 Y104.958 E11.03096
G1 X82.013 Y104.105 E11.05936
G1 X82.01 Y103.421 E11.08211
G1 X82.044 Y102.22 E11.12207
G1 X82.095 Y101.327 E11.15182
G1 X82.157 Y100.673 E11.17367
G1 X82.306 Y99.497 E11.2131
G1 X82.441 Y98.62 E11.24261
G1 X82.575 Y97.929 E11.26602
G1 X82.839 Y96.778 E11.3053
G1 X83.064 Y95.908 E11.33519
G1 X83.252 Y95.281 E11.35696
G1 X83.624 Y94.165 E11.39609
G1 X83.938 Y93.308 E11.42644
G1 X84.191 Y92.692 E11.44859
G1 X84.686 Y91.589 E11.4888
G1 X85.06 Y90.812 E11.51748
G1 X85.382 Y90.203 E11.5404
G1 X85.983 Y89.153 E11.58063
G1 X86.423 Y88.43 E11.60878
G1 X86.801 Y87.859 E11.63156
G1 X87.494 Y86.883 E11.67137
G1 X88.026 Y86.175 E11.70083
G1 X88.457 Y85.646 E11.72352
G1 X89.239 Y84.747 E11.76315
G1 X89.841 Y84.093 E11.79272
M204 S2000
G0 F7500 X90.134 Y84.366
M204 S500
G1 F1500 X90.58 Y83.916 E11.81379
G1 X91.465 Y83.079 E11.85431
G1 X91.793 Y82.783 E11.869
G1 X92.484 Y82.184 E11.89942
G1 X92.929 Y81.819 E11.91856
G1 X93.329 Y81.51 E11.93537
G1 X94.144 Y80.917 E11.96889
G1 X94.674 Y80.56 E11.99015
G1 X95.787 Y79.861 E12.03386
G1 X96.534 Y79.42 E12.06271
G1 X97.112 Y79.108 E12.08456
G1 X98.205 Y78.563 E12.12518
G1 X98.99 Y78.199 E12.15396
G1 X99.585 Y77.95 E12.17541
G1 X100.729 Y77.514 E12.21613
G1 X101.513 Y77.239 E12.24377
G1 X102.13 Y77.05 E12.26523
G1 X103.288 Y76.734 E12.30515
G1 X104.127 Y76.53 E12.33387
G1 X104.753 Y76.403 E12.35512
G1 X105.965 Y76.197 E12.39601
G1 X106.868 Y76.071 E12.42633
G1 X107.484 Y76.008 E12.44693
G1 X108.601 Y75.929 E12.48417
G1 X109.657 Y75.885 E12.51932
G1 X110.432 Y75.887 E12.5451
G1 X111.324 Y75.923 E12.57479
G1 X112.159 Y75.975 E12.60262
G1 X112.788 Y76.035 E12.62363
G1 X113.931 Y76.181 E12.66196
G1 X114.788 Y76.314 E12.6908
G1 X115.446 Y76.442 E12.7131
G1 X116.611 Y76.709 E12.75285
G1 X117.47 Y76.931 E12.78236
G1 X118.078 Y77.114 E12.80348
G1 X119.241 Y77.503 E12.84427
G1 X120.014 Y77.785 E12.87163
G1 X120.613 Y78.03 E12.89316
G1 X121.697 Y78.515 E12.93266
G1 X122.482 Y78.893 E12.96164
G1 X123.064 Y79.201 E12.98354
G1 X124.132 Y79.812 E13.02446
G1 X124.849 Y80.249 E13.05239
G1 X125.395 Y80.611 E13.07418
G1 X126.377 Y81.309 E13.11425
G1 X127.065 Y81.827 E13.14289
G1 X127.56 Y82.231 E13.16414
G1 X128.474 Y83.025 E13.20441
G1 X129.11 Y83.609 E13.23313
G1 X129.56 Y84.057 E13.25425
G1 X130.408 Y84.954 E13.29531
G1 X131.013 Y85.632 E13.32553
G1 X131.416 Y86.121 E13.34661
G1 X132.046 Y86.935 E13.38084
G1 X132.616 Y87.714 E13.41295
G1 X132.986 Y88.262 E13.43494
G1 X133.626 Y89.28 E13.47493
G1 X134.076 Y90.043 E13.50439
G1 X134.371 Y90.591 E13.52509
G1 X134.904 Y91.657 E13.56473
G1 X135.264 Y92.431 E13.59313
G1 X135.513 Y93.026 E13.61458
G1 X135.963 Y94.204 E13.65652
G1 X136.246 Y95.013 E13.68503
G1 X136.429 Y95.61 E13.7058
G1 X136.742 Y96.754 E13.74524
G1 X136.951 Y97.614 E13.77468
G1 X137.079 Y98.245 E13.79609
G1 X137.28 Y99.432 E13.83614
G1 X137.401 Y100.293 E13.86505
G1 X137.466 Y100.93 E13.88635
G1 X137.552 Y102.155 E13.9272
G1 X137.588 Y103.046 E13.95685
G1 X137.59 Y103.668 E13.97754
G1 X137.557 Y104.848 E14.0168
G1 X137.508 Y105.728 E14.04612
G1 X137.447 Y106.372 E14.06763
G1 X137.295 Y107.57 E14.1078
G1 X137.165 Y108.418 E14.13633
G1 X137.035 Y109.084 E14.1589
G1 X136.771 Y110.235 E14.19818
G1 X136.549 Y111.092 E14.22762
G1 X136.369 Y111.696 E14.24859
G1 X135.997 Y112.812 E14.28771
G1 X135.688 Y113.652 E14.31748
G1 X135.45 Y114.231 E14.3383
G1 X134.944 Y115.36 E14.37945
G1 X134.576 Y116.125 E14.40769
G1 X134.264 Y116.713 E14.42983
G1 X133.681 Y117.731 E14.46884
G1 X133.227 Y118.477 E14.49789
G1 X132.866 Y119.022 E14.51963
G1 X132.173 Y119.998 E14.55945
G1 X131.564 Y120.807 E14.59312
G1 X131.189 Y121.272 E14.61299
G1 X130.707 Y121.824 E14.63737
G1 X129.919 Y122.681 E14.67609
G1 X129.417 Y123.19 E14.69987
G1 X128.543 Y124.016 E14.73986
G1 X127.882 Y124.606 E14.76933
G1 X127.399 Y125.005 E14.79017
G1 X126.434 Y125.753 E14.83078
G1 X125.753 Y126.25 E14.85882
G1 X125.238 Y126.596 E14.87946
G1 X124.178 Y127.263 E14.92111
G1 X123.445 Y127.695 E14.94941
G1 X122.896 Y127.991 E14.97015
G1 X121.807 Y128.535 E15.01064
G1 X121.007 Y128.906 E15.03997
G1 X120.416 Y129.153 E15.06128
G1 X119.269 Y129.59 E15.1021
G1 X118.487 Y129.864 E15.12966
G1 X117.87 Y130.053 E15.15112
G1 X116.712 Y130.369 E15.19105
G1 X115.873 Y130.573 E15.21976
G1 X115.247 Y130.7 E15.24101
G1 X114.035 Y130.906 E15.2819
G1 X113.026 Y131.047 E15.31578
G1 X112.496 Y131.103 E15.33351
G1 X111.887 Y131.147 E15.35382
G1 X111.188 Y131.18 E15.37709
