;FLAVOR:Marlin
;TIME:1475
;Filament used: 2.17485m
;Layer height: 0.4
;MINX:85.262
;MINY:85.262
;MINZ:0.2
;MAXX:134.738
;MAXY:134.738
;MAXZ:27.6
;Generated with Cura_SteamEngine 5.2.2
M82 ;absolute extrusion mode
; Ender 3 S1 Start G-code
G92 E0 ; Reset Extruder
G28 ; Home all axes
M420 S1 ;Use bed leveling data
G1 Z10.0 F3000 ; Move Z Axis up little to prevent scratching of Heat Bed
G1 X0 Y0

M104 S210.0
M190 S60
M109 S210.0

G1 X0.1 Y20 Z0.3 F5000.0 ; Move to start position
G1 X0.1 Y200.0 Z0.3 F1500.0 E15 ; Draw the first line
G1 X0.4 Y200.0 Z0.3 F5000.0 ; Move to side a little
G1 X0.4 Y20 Z0.3 F1500.0 E30 ; Draw the second line
G92 E0 ; Reset Extruder
G1 Z2.0 F3000 ; Move Z Axis up little to prevent scratching of Heat Bed
G1 X5 Y20 Z0.3 F5000.0 ; Move over to prevent blob squish
G92 E0
G92 E0
G1 F2400 E-0.8
;LAYER_COUNT:69
;LAYER:0
M107
M204 S2000
G1 F300 Z0.4
G0 F7500 X88.46 Y88.526 Z0.4
M204 S500
;TYPE:SKIRT
G1 F300 Z0.2
G1 F2400 E0
G1 F1500 X89.148 Y87.889 E0.03119
G1 X89.888 Y87.313 E0.06237
G1 X90.674 Y86.801 E0.09357
G1 X91.501 Y86.359 E0.12476
G1 X92.363 Y85.989 E0.15596
G1 X93.253 Y85.693 E0.18716
G1 X94.165 Y85.475 E0.21835
G1 X95.092 Y85.334 E0.24953
G1 X95.963 Y85.275 E0.27857
G1 X96.592 Y85.262 E0.29949
G1 X123.189 Y85.263 E1.18411
G1 X123.887 Y85.273 E1.20733
G1 X124.823 Y85.327 E1.23851
G1 X125.751 Y85.459 E1.26969
G1 X126.665 Y85.671 E1.3009
G1 X127.557 Y85.96 E1.33208
G1 X128.422 Y86.323 E1.36328
G1 X129.252 Y86.759 E1.39447
G1 X130.043 Y87.264 E1.42568
G1 X130.787 Y87.835 E1.45687
G1 X131.48 Y88.467 E1.48807
G1 X132.117 Y89.155 E1.51925
G1 X132.692 Y89.896 E1.55045
G1 X133.203 Y90.682 E1.58163
G1 X133.645 Y91.51 E1.61285
G1 X134.014 Y92.372 E1.64404
G1 X134.309 Y93.262 E1.67522
G1 X134.527 Y94.174 E1.70641
G1 X134.667 Y95.102 E1.73762
G1 X134.725 Y95.963 E1.76633
G1 X134.738 Y96.592 E1.78725
G1 X134.737 Y123.138 E2.67017
G1 X134.728 Y123.865 E2.69436
G1 X134.677 Y124.802 E2.72557
G1 X134.545 Y125.73 E2.75674
G1 X134.336 Y126.644 E2.78793
G1 X134.049 Y127.537 E2.81912
G1 X133.687 Y128.403 E2.85034
G1 X133.253 Y129.234 E2.88152
G1 X132.749 Y130.025 E2.91272
G1 X132.18 Y130.77 E2.9439
G1 X131.549 Y131.465 E2.97512
G1 X130.862 Y132.103 E3.0063
G1 X130.123 Y132.68 E3.03749
G1 X129.337 Y133.192 E3.06869
G1 X128.511 Y133.635 E3.09986
G1 X127.649 Y134.007 E3.13109
G1 X126.76 Y134.303 E3.16225
G1 X125.848 Y134.523 E3.19346
G1 X124.921 Y134.664 E3.22464
G1 X124.037 Y134.725 E3.25411
G1 X123.408 Y134.738 E3.27504
G1 X96.827 Y134.737 E4.15913
G1 X96.129 Y134.728 E4.18235
G1 X95.193 Y134.676 E4.21352
G1 X94.264 Y134.544 E4.24473
G1 X93.35 Y134.334 E4.27593
G1 X92.457 Y134.047 E4.30712
G1 X91.592 Y133.684 E4.33832
G1 X90.761 Y133.25 E4.36951
G1 X89.97 Y132.746 E4.4007
G1 X89.225 Y132.176 E4.4319
G1 X88.531 Y131.545 E4.4631
G1 X87.894 Y130.858 E4.49426
G1 X87.317 Y130.118 E4.52547
G1 X86.805 Y129.332 E4.55667
G1 X86.362 Y128.505 E4.58787
G1 X85.991 Y127.644 E4.61905
G1 X85.695 Y126.754 E4.65025
G1 X85.476 Y125.842 E4.68145
G1 X85.335 Y124.915 E4.71263
G1 X85.275 Y124.026 E4.74227
G1 X85.262 Y123.396 E4.76323
G1 X85.263 Y96.787 E5.64825
G1 X85.272 Y96.122 E5.67037
G1 X85.325 Y95.186 E5.70155
G1 X85.457 Y94.257 E5.73276
G1 X85.668 Y93.343 E5.76395
G1 X85.956 Y92.451 E5.79513
G1 X86.319 Y91.586 E5.82633
G1 X86.754 Y90.755 E5.85753
G1 X87.258 Y89.965 E5.8887
G1 X87.828 Y89.22 E5.9199
G1 X88.46 Y88.526 E5.95111
M204 S2000
G0 F7500 X88.851 Y88.701
M204 S500
G1 F1500 X89.536 Y88.085 E5.98176
G1 X90.272 Y87.532 E6.01237
G1 X91.053 Y87.044 E6.043
G1 X91.873 Y86.626 E6.07362
G1 X92.727 Y86.281 E6.10425
G1 X93.607 Y86.011 E6.13487
G1 X94.507 Y85.819 E6.16547
G1 X95.421 Y85.705 E6.19611
G1 X95.974 Y85.675 E6.21453
G1 X96.592 Y85.662 E6.23509
G1 X123.031 Y85.662 E7.11445
G1 X123.881 Y85.673 E7.14273
G1 X124.8 Y85.726 E7.17334
G1 X125.711 Y85.859 E7.20397
G1 X126.607 Y86.07 E7.23458
G1 X127.481 Y86.358 E7.26519
G1 X128.328 Y86.721 E7.29584
G1 X129.139 Y87.156 E7.32645
G1 X129.909 Y87.66 E7.35706
G1 X130.633 Y88.229 E7.38768
G1 X131.305 Y88.859 E7.41832
G1 X131.92 Y89.544 E7.44894
G1 X132.473 Y90.28 E7.47956
G1 X132.96 Y91.061 E7.51017
G1 X133.377 Y91.882 E7.5408
G1 X133.722 Y92.736 E7.57143
G1 X133.991 Y93.616 E7.60204
G1 X134.183 Y94.517 E7.63268
G1 X134.296 Y95.43 E7.66328
G1 X134.325 Y95.974 E7.6814
G1 X134.338 Y96.592 E7.70195
G1 X134.337 Y123.133 E8.58471
G1 X134.328 Y123.86 E8.60889
G1 X134.277 Y124.779 E8.63951
G1 X134.146 Y125.691 E8.67015
G1 X133.936 Y126.587 E8.70076
G1 X133.65 Y127.462 E8.73138
G1 X133.289 Y128.309 E8.762
G1 X132.855 Y129.121 E8.79262
G1 X132.353 Y129.893 E8.82325
G1 X131.785 Y130.618 E8.85388
G1 X131.157 Y131.291 E8.8845
G1 X130.473 Y131.907 E8.91512
G1 X129.738 Y132.461 E8.94573
G1 X128.958 Y132.95 E8.97635
G1 X128.138 Y133.369 E9.00698
G1 X127.285 Y133.715 E9.03759
G1 X126.405 Y133.986 E9.06822
G1 X125.505 Y134.179 E9.09883
G1 X124.591 Y134.294 E9.12947
G1 X124.026 Y134.325 E9.14829
G1 X123.408 Y134.338 E9.16885
G1 X96.832 Y134.337 E10.05277
G1 X96.134 Y134.328 E10.07599
G1 X95.215 Y134.276 E10.10661
G1 X94.304 Y134.145 E10.13722
G1 X93.408 Y133.935 E10.16783
G1 X92.533 Y133.648 E10.19845
G1 X91.686 Y133.286 E10.22909
G1 X90.874 Y132.852 E10.25971
G1 X90.103 Y132.35 E10.29031
G1 X89.378 Y131.782 E10.32095
G1 X88.705 Y131.153 E10.35158
G1 X88.09 Y130.469 E10.38218
G1 X87.536 Y129.734 E10.41279
G1 X87.048 Y128.953 E10.44342
G1 X86.629 Y128.133 E10.47405
G1 X86.283 Y127.28 E10.50466
G1 X86.013 Y126.4 E10.53528
G1 X85.82 Y125.499 E10.56593
G1 X85.706 Y124.586 E10.59653
G1 X85.675 Y124.015 E10.61555
G1 X85.662 Y123.396 E10.63614
G1 X85.663 Y96.793 E11.52096
G1 X85.672 Y96.128 E11.54308
G1 X85.724 Y95.208 E11.57373
G1 X85.856 Y94.297 E11.60435
G1 X86.067 Y93.401 E11.63496
G1 X86.354 Y92.526 E11.66559
G1 X86.717 Y91.68 E11.69621
G1 X87.151 Y90.868 E11.72683
G1 X87.654 Y90.097 E11.75745
G1 X88.223 Y89.373 E11.78808
G1 X88.851 Y88.701 E11.81867
M204 S2000
G0 F7500 X89.243 Y88.879
M204 S500
G1 F1500 X89.924 Y88.286 E11.8487
G1 X90.656 Y87.756 E11.87876
G1 X91.431 Y87.293 E11.90879
G1 X92.244 Y86.9 E11.93882
G1 X93.089 Y86.58 E11.96887
G1 X93.958 Y86.337 E11.99888
G1 X94.846 Y86.171 E12.02893
G1 X95.985 Y86.075 E12.06695
G1 X96.592 Y86.062 E12.08714
G1 X123.031 Y86.062 E12.96651
G1 X123.875 Y86.073 E12.99458
G1 X124.777 Y86.126 E13.02463
G1 X125.67 Y86.258 E13.05466
G1 X126.548 Y86.469 E13.08469
G1 X127.404 Y86.757 E13.11473
G1 X128.231 Y87.119 E13.14476
G1 X129.023 Y87.554 E13.17481
G1 X129.774 Y88.056 E13.20486
G1 X130.477 Y88.623 E13.23489
G1 X131.127 Y89.25 E13.26493
G1 X131.719 Y89.932 E13.29497
G1 X132.249 Y90.663 E13.325
G1 X132.711 Y91.439 E13.35504
G1 X133.104 Y92.252 E13.38507
G1 X133.422 Y93.097 E13.4151
G1 X133.665 Y93.967 E13.44515
G1 X133.83 Y94.855 E13.47519
G1 X133.925 Y95.985 E13.5129
G1 X133.938 Y96.592 E13.5331
G1 X133.937 Y123.128 E14.41569
G1 X133.928 Y123.855 E14.43987
G1 X133.877 Y124.757 E14.46992
G1 X133.746 Y125.651 E14.49997
G1 X133.537 Y126.529 E14.52999
G1 X133.251 Y127.386 E14.56004
G1 X132.89 Y128.214 E14.59008
G1 X132.458 Y129.006 E14.62009
G1 X131.957 Y129.758 E14.65014
G1 X131.391 Y130.462 E14.68018
G1 X130.766 Y131.113 E14.7102
G1 X130.085 Y131.707 E14.74026
G1 X129.354 Y132.238 E14.77031
G1 X128.58 Y132.702 E14.80032
G1 X127.767 Y133.096 E14.83037
G1 X126.923 Y133.416 E14.86039
G1 X126.053 Y133.661 E14.89045
G1 X125.166 Y133.827 E14.92047
G1 X124.015 Y133.925 E14.95889
G1 X123.408 Y133.938 E14.97908
G1 X96.837 Y133.937 E15.86284
G1 X96.139 Y133.928 E15.88605
G1 X95.238 Y133.877 E15.91607
G1 X94.344 Y133.745 E15.94613
G1 X93.466 Y133.536 E15.97614
G1 X92.609 Y133.249 E16.0062
G1 X91.782 Y132.888 E16.03622
G1 X90.989 Y132.455 E16.06627
G1 X90.238 Y131.954 E16.09629
G1 X89.534 Y131.388 E16.12634
G1 X88.883 Y130.762 E16.15638
G1 X88.29 Y130.081 E16.18641
G1 X87.76 Y129.35 E16.21644
G1 X87.296 Y128.575 E16.24649
G1 X86.902 Y127.762 E16.27653
G1 X86.582 Y126.918 E16.30656
G1 X86.338 Y126.048 E16.33661
G1 X86.172 Y125.16 E16.36666
G1 X86.075 Y124.005 E16.40521
G1 X86.062 Y123.396 E16.42547
G1 X86.063 Y96.798 E17.31012
G1 X86.072 Y96.133 E17.33224
G1 X86.124 Y95.231 E17.36229
G1 X86.256 Y94.338 E17.39231
G1 X86.466 Y93.46 E17.42234
G1 X86.753 Y92.603 E17.4524
G1 X87.115 Y91.776 E17.48243
G1 X87.548 Y90.984 E17.51245
G1 X88.05 Y90.233 E17.54249
G1 X88.617 Y89.529 E17.57256
G1 X89.243 Y88.879 E17.60257
M204 S2000
G1 F2400 E16.80257
G1 F300 Z0.4
;MESH:S-IC joining cube.stl
G0 F7500 X96.862 Y123.138 Z0.4
M204 S500
;TYPE:WALL-INNER
G1 F300 Z0.2
G1 F2400 E17.60257
G1 F1500 X123.138 Y123.138 E18.47652
G1 X123.138 Y96.862 E19.35046
G1 X96.862 Y96.862 E20.2244
G1 X96.862 Y123.138 E21.09835
M204 S2000
G0 F7500 X96.462 Y123.538
M204 S500
;TYPE:WALL-OUTER
G1 F1500 X123.538 Y123.538 E21.9989
G1 X123.538 Y96.462 E22.89945
G1 X96.462 Y96.462 E23.8
G1 X96.462 Y123.538 E24.70055
M204 S2000
G0 F7500 X97.222 Y122.778
M204 S500
;TYPE:SKIN
G1 F1500 X122.778 Y122.778 E25.55055
G1 X122.778 Y110 E25.97555
G1 X122.778 Y97.222 E26.40054
G1 X97.222 Y97.222 E27.25054
G1 X97.222 Y122.778 E28.10054
M204 S2000
G0 F7500 X97.686 Y122.576
M204 S500
G1 F1500 X97.421 Y122.311 E28.113
M204 S2000
G0 F7500 X97.421 Y121.746
M204 S500
G1 F1500 X98.252 Y122.576 E28.15206
M204 S2000
G0 F7500 X98.818 Y122.576
M204 S500
G1 F1500 X97.421 Y121.18 E28.21775
M204 S2000
G0 F7500 X97.421 Y120.614
M204 S500
G1 F1500 X99.383 Y122.576 E28.31004
M204 S2000
G0 F7500 X99.949 Y122.576
M204 S500
G1 F1500 X97.421 Y120.049 E28.42892
M204 S2000
G0 F7500 X97.421 Y119.483
M204 S500
G1 F1500 X100.515 Y122.576 E28.57443
M204 S2000
G0 F7500 X101.08 Y122.576
M204 S500
G1 F1500 X97.421 Y118.917 E28.74654
M204 S2000
G0 F7500 X97.421 Y118.351
M204 S500
G1 F1500 X101.646 Y122.576 E28.94527
M204 S2000
G0 F7500 X102.212 Y122.576
M204 S500
G1 F1500 X97.421 Y117.786 E29.1706
M204 S2000
G0 F7500 X97.421 Y117.22
M204 S500
G1 F1500 X102.777 Y122.576 E29.42253
M204 S2000
G0 F7500 X103.343 Y122.576
M204 S500
G1 F1500 X97.421 Y116.654 E29.70108
M204 S2000
G0 F7500 X97.421 Y116.089
M204 S500
G1 F1500 X103.909 Y122.576 E30.00624
M204 S2000
G0 F7500 X104.475 Y122.576
M204 S500
G1 F1500 X97.421 Y115.523 E30.33801
M204 S2000
G0 F7500 X97.421 Y114.957
M204 S500
G1 F1500 X105.04 Y122.576 E30.69639
M204 S2000
G0 F7500 X105.606 Y122.576
M204 S500
G1 F1500 X97.421 Y114.392 E31.08136
M204 S2000
G0 F7500 X97.421 Y113.826
M204 S500
G1 F1500 X106.172 Y122.576 E31.49296
M204 S2000
G0 F7500 X106.737 Y122.576
M204 S500
G1 F1500 X97.421 Y113.26 E31.93115
M204 S2000
G0 F7500 X97.421 Y112.695
M204 S500
G1 F1500 X107.303 Y122.576 E32.39595
M204 S2000
G0 F7500 X107.869 Y122.576
M204 S500
G1 F1500 X97.421 Y112.129 E32.88737
M204 S2000
G0 F7500 X97.421 Y111.563
M204 S500
G1 F1500 X108.434 Y122.576 E33.40538
M204 S2000
G0 F7500 X109 Y122.576
M204 S500
G1 F1500 X97.421 Y110.998 E33.95
M204 S2000
G0 F7500 X97.421 Y110.432
M204 S500
G1 F1500 X109.566 Y122.576 E34.52124
M204 S2000
G0 F7500 X110.131 Y122.576
M204 S500
G1 F1500 X97.421 Y109.866 E35.11908
M204 S2000
G0 F7500 X97.421 Y109.301
M204 S500
G1 F1500 X110.697 Y122.576 E35.74352
M204 S2000
G0 F7500 X111.263 Y122.576
M204 S500
G1 F1500 X97.421 Y108.735 E36.39458
M204 S2000
G0 F7500 X97.421 Y108.169
M204 S500
G1 F1500 X111.828 Y122.576 E37.07224
M204 S2000
G0 F7500 X112.394 Y122.576
M204 S500
G1 F1500 X97.421 Y107.603 E37.77653
M204 S2000
G0 F7500 X97.421 Y107.038
M204 S500
G1 F1500 X112.96 Y122.576 E38.50741
M204 S2000
G0 F7500 X113.525 Y122.576
M204 S500
G1 F1500 X97.421 Y106.472 E39.26489
M204 S2000
G0 F7500 X97.421 Y105.906
M204 S500
G1 F1500 X114.091 Y122.576 E40.049
M204 S2000
G0 F7500 X114.657 Y122.576
M204 S500
G1 F1500 X97.421 Y105.341 E40.8597
M204 S2000
G0 F7500 X97.421 Y104.775
M204 S500
G1 F1500 X115.223 Y122.576 E41.69703
M204 S2000
G0 F7500 X115.788 Y122.576
M204 S500
G1 F1500 X97.421 Y104.209 E42.56096
M204 S2000
G0 F7500 X97.421 Y103.644
M204 S500
G1 F1500 X116.354 Y122.576 E43.45149
M204 S2000
G0 F7500 X116.92 Y122.576
M204 S500
G1 F1500 X97.421 Y103.078 E44.36864
M204 S2000
G0 F7500 X97.421 Y102.512
M204 S500
G1 F1500 X117.485 Y122.576 E45.31238
M204 S2000
G0 F7500 X118.051 Y122.576
M204 S500
G1 F1500 X97.421 Y101.947 E46.28273
M204 S2000
G0 F7500 X97.421 Y101.381
M204 S500
G1 F1500 X118.617 Y122.576 E47.2797
M204 S2000
G0 F7500 X119.182 Y122.576
M204 S500
G1 F1500 X97.421 Y100.815 E48.30328
M204 S2000
G0 F7500 X97.421 Y100.25
M204 S500
G1 F1500 X119.748 Y122.576 E49.35345
M204 S2000
G0 F7500 X120.314 Y122.576
M204 S500
G1 F1500 X97.421 Y99.684 E50.43024
M204 S2000
G0 F7500 X97.421 Y99.118
M204 S500
G1 F1500 X120.879 Y122.576 E51.53363
M204 S2000
G0 F7500 X121.445 Y122.576
M204 S500
G1 F1500 X97.421 Y98.553 E52.66362
M204 S2000
G0 F7500 X97.421 Y97.987
M204 S500
G1 F1500 X122.011 Y122.576 E53.82024
M204 S2000
G0 F7500 X122.577 Y122.577
M204 S500
G1 F1500 X97.421 Y97.421 E55.0035
M204 S2000
G0 F7500 X97.988 Y97.422
M204 S500
G1 F1500 X122.577 Y122.011 E56.16009
M204 S2000
G0 F7500 X122.577 Y121.446
M204 S500
G1 F1500 X98.553 Y97.422 E57.2901
M204 S2000
G0 F7500 X99.119 Y97.422
M204 S500
G1 F1500 X122.577 Y120.88 E58.3935
M204 S2000
G0 F7500 X122.577 Y120.314
M204 S500
G1 F1500 X99.685 Y97.422 E59.47027
M204 S2000
G0 F7500 X100.25 Y97.422
M204 S500
G1 F1500 X122.577 Y119.749 E60.52046
M204 S2000
G0 F7500 X122.577 Y119.183
M204 S500
G1 F1500 X100.816 Y97.422 E61.54403
M204 S2000
G0 F7500 X101.382 Y97.422
M204 S500
G1 F1500 X122.577 Y118.617 E62.54098
M204 S2000
G0 F7500 X122.577 Y118.052
M204 S500
G1 F1500 X101.947 Y97.422 E63.51135
M204 S2000
G0 F7500 X102.513 Y97.422
M204 S500
G1 F1500 X122.577 Y117.486 E64.4551
M204 S2000
G0 F7500 X122.577 Y116.92
M204 S500
G1 F1500 X103.079 Y97.422 E65.37223
M204 S2000
G0 F7500 X103.644 Y97.422
M204 S500
G1 F1500 X122.577 Y116.355 E66.26278
M204 S2000
G0 F7500 X122.577 Y115.789
M204 S500
G1 F1500 X104.21 Y97.422 E67.1267
M204 S2000
G0 F7500 X104.776 Y97.422
M204 S500
G1 F1500 X122.577 Y115.223 E67.96401
M204 S2000
G0 F7500 X122.577 Y114.658
M204 S500
G1 F1500 X105.341 Y97.422 E68.77474
M204 S2000
G0 F7500 X105.907 Y97.422
M204 S500
G1 F1500 X122.577 Y114.092 E69.55884
M204 S2000
G0 F7500 X122.577 Y113.526
M204 S500
G1 F1500 X106.473 Y97.422 E70.31632
M204 S2000
G0 F7500 X107.038 Y97.422
M204 S500
G1 F1500 X122.577 Y112.961 E71.04723
M204 S2000
G0 F7500 X122.577 Y112.395
M204 S500
G1 F1500 X107.604 Y97.422 E71.75152
M204 S2000
G0 F7500 X108.17 Y97.422
M204 S500
G1 F1500 X122.577 Y111.829 E72.42918
M204 S2000
G0 F7500 X122.577 Y111.263
M204 S500
G1 F1500 X108.736 Y97.422 E73.08022
M204 S2000
G0 F7500 X109.301 Y97.422
M204 S500
G1 F1500 X122.577 Y110.698 E73.70468
M204 S2000
G0 F7500 X122.577 Y110.132
M204 S500
G1 F1500 X109.867 Y97.422 E74.30252
M204 S2000
G0 F7500 X110.433 Y97.422
M204 S500
G1 F1500 X122.577 Y109.566 E74.87373
M204 S2000
G0 F7500 X122.577 Y109.001
M204 S500
G1 F1500 X110.998 Y97.422 E75.41837
M204 S2000
G0 F7500 X111.564 Y97.422
M204 S500
G1 F1500 X122.577 Y108.435 E75.93639
M204 S2000
G0 F7500 X122.577 Y107.869
M204 S500
G1 F1500 X112.13 Y97.422 E76.42779
M204 S2000
G0 F7500 X112.695 Y97.422
M204 S500
G1 F1500 X122.577 Y107.304 E76.89261
M204 S2000
G0 F7500 X122.577 Y106.738
M204 S500
G1 F1500 X113.261 Y97.422 E77.3308
M204 S2000
G0 F7500 X113.827 Y97.422
M204 S500
G1 F1500 X122.577 Y106.172 E77.74238
M204 S2000
G0 F7500 X122.577 Y105.607
M204 S500
G1 F1500 X114.392 Y97.422 E78.12737
M204 S2000
G0 F7500 X114.958 Y97.422
M204 S500
G1 F1500 X122.577 Y105.041 E78.48575
M204 S2000
G0 F7500 X122.577 Y104.475
M204 S500
G1 F1500 X115.524 Y97.422 E78.8175
M204 S2000
G0 F7500 X116.089 Y97.422
M204 S500
G1 F1500 X122.577 Y103.91 E79.12267
M204 S2000
G0 F7500 X122.577 Y103.344
M204 S500
G1 F1500 X116.655 Y97.422 E79.40123
M204 S2000
G0 F7500 X117.221 Y97.422
M204 S500
G1 F1500 X122.577 Y102.778 E79.65316
M204 S2000
G0 F7500 X122.577 Y102.212
M204 S500
G1 F1500 X117.787 Y97.422 E79.87846
M204 S2000
G0 F7500 X118.352 Y97.422
M204 S500
G1 F1500 X122.577 Y101.647 E80.07719
M204 S2000
G0 F7500 X122.577 Y101.081
M204 S500
G1 F1500 X118.918 Y97.422 E80.2493
M204 S2000
G0 F7500 X119.484 Y97.422
M204 S500
G1 F1500 X122.577 Y100.515 E80.39479
M204 S2000
