;FLAVOR:Marlin
;TIME:4544
;Filament used: 5.76013m
;Layer height: 0.4
;MINX:79.901
;MINY:50.108
;MINZ:0.2
;MAXX:140.099
;MAXY:181.128
;MAXZ:17.8
;Generated with Cura_SteamEngine 5.2.2
M82 ;absolute extrusion mode
; Ender 3 S1 Start G-code
G92 E0 ; Reset Extruder
G28 ; Home all axes
M420 S1 ;Use bed leveling data
G1 Z10.0 F3000 ; Move Z Axis up little to prevent scratching of Heat Bed
G1 X0 Y0

M104 S210
M190 S60
M109 S210

G1 X0.1 Y20 Z0.3 F5000.0 ; Move to start position
G1 X0.1 Y200.0 Z0.3 F1500.0 E15 ; Draw the first line
G1 X0.4 Y200.0 Z0.3 F5000.0 ; Move to side a little
G1 X0.4 Y20 Z0.3 F1500.0 E30 ; Draw the second line
G92 E0 ; Reset Extruder
G1 Z2.0 F3000 ; Move Z Axis up little to prevent scratching of Heat Bed
G1 X5 Y20 Z0.3 F5000.0 ; Move over to prevent blob squish
G92 E0
G92 E0
G1 F2400 E-0.8
;LAYER_COUNT:46
;LAYER:0
M107
M204 S2000
G1 F300 Z0.4
G0 F7500 X87.091 Y55.221 Z0.4
M204 S500
;TYPE:SKIRT
G1 F300 Z0.2
G1 F2400 E0
G1 F1500 X87.626 Y54.45 E0.03121
G1 X88.224 Y53.728 E0.06239
G1 X88.881 Y53.059 E0.09358
G1 X89.593 Y52.448 E0.12479
G1 X90.354 Y51.9 E0.15598
G1 X91.159 Y51.42 E0.18715
G1 X92.003 Y51.009 E0.21837
G1 X92.878 Y50.672 E0.24956
G1 X93.779 Y50.411 E0.28076
G1 X94.698 Y50.227 E0.31193
G1 X95.63 Y50.122 E0.34313
G1 X96.909 Y50.108 E0.38567
G1 X98.487 Y50.182 E0.43821
G1 X101.009 Y50.257 E0.52213
G1 X102.127 Y50.253 E0.55931
G1 X102.452 Y50.265 E0.57013
G1 X106.801 Y50.274 E0.71478
G1 X108.201 Y50.292 E0.76135
G1 X110.15 Y50.297 E0.82617
G1 X112.095 Y50.276 E0.89087
G1 X116.068 Y50.275 E1.02301
G1 X117.331 Y50.282 E1.06502
G1 X118.584 Y50.277 E1.10669
G1 X121.187 Y50.25 E1.19327
G1 X123.169 Y50.179 E1.25924
G1 X124.106 Y50.186 E1.2904
G1 X125.04 Y50.272 E1.3216
G1 X125.963 Y50.438 E1.35279
G1 X126.869 Y50.682 E1.384
G1 X127.751 Y51.002 E1.4152
G1 X128.602 Y51.395 E1.44638
G1 X129.416 Y51.86 E1.47756
G1 X130.188 Y52.393 E1.50876
G1 X130.912 Y52.99 E1.53997
G1 X131.582 Y53.646 E1.57116
G1 X132.194 Y54.356 E1.60234
G1 X132.743 Y55.117 E1.63355
G1 X133.226 Y55.921 E1.66474
G1 X133.638 Y56.763 E1.69592
G1 X134.008 Y57.73 E1.73036
G1 X134.178 Y58.246 E1.74843
G1 X134.671 Y59.818 E1.80322
G1 X135.496 Y62.211 E1.88741
G1 X136.403 Y64.621 E1.97306
G1 X137.114 Y66.378 E2.0361
G1 X137.54 Y67.402 E2.07299
G1 X137.864 Y68.283 E2.10421
G1 X138.111 Y69.187 E2.13538
G1 X138.28 Y70.11 E2.16659
G1 X138.383 Y71.408 E2.2099
G1 X138.397 Y72.11 E2.23325
G1 X138.488 Y74.761 E2.32147
G1 X138.593 Y76.573 E2.38184
G1 X138.61 Y77.004 E2.39619
G1 X138.621 Y77.687 E2.41891
G1 X138.621 Y92.115 E2.89878
G1 X138.611 Y92.813 E2.922
G1 X138.568 Y93.899 E2.95815
G1 X138.489 Y95.285 E3.00432
G1 X138.406 Y99.248 E3.13616
G1 X138.407 Y113.861 E3.62219
G1 X138.444 Y116.47 E3.70898
G1 X138.551 Y118.992 E3.79294
G1 X138.726 Y121.466 E3.87543
G1 X138.979 Y124.003 E3.96023
G1 X139.294 Y126.469 E4.04291
G1 X139.7 Y129.052 E4.12988
G1 X139.916 Y130.294 E4.17181
G1 X140.037 Y131.224 E4.203
G1 X140.076 Y131.961 E4.22755
G1 X140.099 Y133.248 E4.27036
G1 X140.098 Y139.894 E4.49141
G1 X140.088 Y140.597 E4.51479
G1 X140.035 Y141.534 E4.54601
G1 X139.902 Y142.462 E4.57719
G1 X139.69 Y143.376 E4.60839
G1 X139.402 Y144.268 E4.63957
G1 X139.038 Y145.133 E4.67078
G1 X138.694 Y145.803 E4.69583
G1 X137.295 Y148.309 E4.79129
G1 X136.167 Y150.47 E4.87237
G1 X135.781 Y151.226 E4.9006
G1 X135.334 Y152.052 E4.93184
G1 X134.831 Y152.952 E4.96613
G1 X133.662 Y155.193 E5.0502
G1 X132.559 Y157.46 E5.13405
G1 X131.521 Y159.757 E5.21789
G1 X130.562 Y162.051 E5.30058
G1 X129.644 Y164.434 E5.38552
G1 X128.81 Y166.796 E5.46884
G1 X128.035 Y169.204 E5.55297
G1 X127.359 Y171.523 E5.63331
G1 X127.038 Y172.683 E5.67334
G1 X126.749 Y173.575 E5.70453
G1 X126.221 Y174.774 E5.7481
G1 X126.032 Y175.142 E5.76186
G1 X125.568 Y175.958 E5.79309
G1 X125.037 Y176.73 E5.82425
G1 X124.442 Y177.455 E5.85544
G1 X123.787 Y178.127 E5.88666
G1 X123.077 Y178.74 E5.91785
G1 X122.318 Y179.29 E5.94903
G1 X121.514 Y179.774 E5.98024
G1 X120.672 Y180.188 E6.01145
G1 X119.799 Y180.528 E6.04261
G1 X118.899 Y180.793 E6.07381
G1 X117.98 Y180.98 E6.10501
G1 X117.048 Y181.088 E6.13621
G1 X116.281 Y181.117 E6.16174
G1 X112.681 Y181.128 E6.28148
G1 X111.671 Y181.117 E6.31507
G1 X105.407 Y181.123 E6.52342
G1 X104.821 Y181.114 E6.54291
G1 X103.885 Y181.056 E6.5741
G1 X102.957 Y180.919 E6.6053
G1 X102.045 Y180.703 E6.63647
G1 X101.154 Y180.41 E6.66767
G1 X100.291 Y180.042 E6.69887
G1 X99.463 Y179.602 E6.73006
G1 X98.675 Y179.093 E6.76126
G1 X97.933 Y178.519 E6.79246
G1 X97.243 Y177.884 E6.82365
G1 X96.61 Y177.192 E6.85484
G1 X96.038 Y176.449 E6.88603
G1 X95.531 Y175.66 E6.91722
G1 X95.134 Y174.916 E6.94527
G1 X94.957 Y174.551 E6.95876
G1 X94.584 Y173.69 E6.98997
G1 X94.336 Y172.967 E7.01539
G1 X93.47 Y170.134 E7.11392
G1 X92.667 Y167.762 E7.19721
G1 X91.797 Y165.412 E7.28056
G1 X90.859 Y163.083 E7.36407
G1 X89.843 Y160.756 E7.44852
G1 X88.774 Y158.481 E7.53213
G1 X87.63 Y156.218 E7.61646
G1 X86.434 Y154.008 E7.70004
G1 X85.191 Y151.857 E7.78267
G1 X83.878 Y149.73 E7.86581
G1 X81.752 Y146.533 E7.99351
G1 X81.266 Y145.731 E8.0247
G1 X80.851 Y144.89 E8.05589
G1 X80.508 Y144.017 E8.08709
G1 X80.242 Y143.118 E8.11827
G1 X80.052 Y142.199 E8.14948
G1 X79.942 Y141.268 E8.18066
G1 X79.912 Y140.617 E8.20234
G1 X79.902 Y139.993 E8.22309
G1 X79.901 Y132.783 E8.4629
G1 X79.912 Y132.065 E8.48678
G1 X79.967 Y131.129 E8.51797
G1 X80.069 Y130.378 E8.54318
G1 X80.515 Y127.771 E8.63114
G1 X80.876 Y125.234 E8.71638
G1 X81.157 Y122.757 E8.79929
G1 X81.37 Y120.245 E8.88314
G1 X81.509 Y117.772 E8.96552
G1 X81.592 Y113.847 E9.0961
G1 X81.593 Y99.275 E9.58076
G1 X81.556 Y96.667 E9.66751
G1 X81.46 Y94.324 E9.74551
G1 X81.404 Y93.162 E9.7842
G1 X81.377 Y91.663 E9.83407
G1 X81.378 Y77.739 E10.29718
G1 X81.388 Y77.026 E10.3209
G1 X81.403 Y76.581 E10.33571
G1 X81.527 Y74.304 E10.41155
G1 X81.608 Y71.35 E10.50984
G1 X81.674 Y70.415 E10.54101
G1 X81.819 Y69.488 E10.57222
G1 X82.042 Y68.577 E10.60342
G1 X82.395 Y67.555 E10.63938
G1 X82.726 Y66.73 E10.66894
G1 X83.098 Y65.839 E10.70106
G1 X83.992 Y63.522 E10.78366
G1 X84.835 Y61.142 E10.86764
G1 X85.907 Y57.766 E10.98545
G1 X86.229 Y56.885 E11.01665
G1 X86.625 Y56.034 E11.04787
G1 X87.091 Y55.221 E11.07903
M204 S2000
G0 F7500 X87.457 Y55.392
M204 S500
G1 F1500 X87.985 Y54.638 E11.10965
G1 X88.577 Y53.933 E11.14027
G1 X89.228 Y53.282 E11.17089
G1 X89.933 Y52.69 E11.20151
G1 X90.687 Y52.161 E11.23214
G1 X91.484 Y51.7 E11.26277
G1 X92.318 Y51.31 E11.29339
G1 X93.182 Y50.993 E11.324
G1 X94.071 Y50.753 E11.35462
G1 X94.977 Y50.591 E11.38524
G1 X95.894 Y50.508 E11.41586
G1 X96.89 Y50.508 E11.44899
G1 X98.456 Y50.582 E11.50113
G1 X100.998 Y50.657 E11.58571
G1 X102.128 Y50.653 E11.6233
G1 X102.437 Y50.665 E11.63358
G1 X106.796 Y50.674 E11.77857
G1 X108.196 Y50.692 E11.82513
G1 X110.154 Y50.697 E11.89026
G1 X112.095 Y50.676 E11.95482
G1 X116.066 Y50.675 E12.08689
G1 X117.331 Y50.682 E12.12897
G1 X118.586 Y50.677 E12.17071
G1 X121.205 Y50.649 E12.25782
G1 X123.183 Y50.579 E12.32365
G1 X124.103 Y50.586 E12.35425
G1 X125.02 Y50.673 E12.38489
G1 X125.925 Y50.839 E12.41549
G1 X126.813 Y51.084 E12.44613
G1 X127.676 Y51.404 E12.47675
G1 X128.508 Y51.798 E12.50736
G1 X129.303 Y52.263 E12.538
G1 X130.054 Y52.795 E12.56861
G1 X130.757 Y53.39 E12.59924
G1 X131.405 Y54.044 E12.62986
G1 X131.994 Y54.751 E12.66047
G1 X132.519 Y55.507 E12.69108
G1 X132.977 Y56.306 E12.72171
G1 X133.364 Y57.141 E12.75232
G1 X133.628 Y57.855 E12.77764
G1 X133.846 Y58.52 E12.80092
G1 X134.307 Y59.993 E12.85225
G1 X135.118 Y62.345 E12.935
G1 X136.023 Y64.749 E13.02044
G1 X136.731 Y66.499 E13.08322
G1 X137.171 Y67.556 E13.1213
G1 X137.488 Y68.42 E13.15191
G1 X137.728 Y69.309 E13.18254
G1 X137.89 Y70.215 E13.21315
G1 X137.983 Y71.416 E13.25322
G1 X137.997 Y72.132 E13.27704
G1 X138.088 Y74.776 E13.36503
G1 X138.194 Y76.596 E13.42566
G1 X138.21 Y77.012 E13.43951
G1 X138.221 Y77.687 E13.46196
G1 X138.221 Y92.109 E13.94164
G1 X138.203 Y93.099 E13.97457
G1 X138.177 Y93.719 E13.99521
G1 X138.089 Y95.281 E14.04725
G1 X138.006 Y99.24 E14.17895
G1 X138.007 Y113.867 E14.66545
G1 X138.044 Y116.492 E14.75277
G1 X138.151 Y119.001 E14.83629
G1 X138.328 Y121.501 E14.91965
G1 X138.582 Y124.053 E15.00495
G1 X138.901 Y126.549 E15.08864
G1 X139.297 Y129.067 E15.17342
G1 X139.522 Y130.363 E15.21717
G1 X139.64 Y131.276 E15.24779
G1 X139.676 Y131.968 E15.27084
G1 X139.699 Y133.248 E15.31342
G1 X139.698 Y139.889 E15.5343
G1 X139.688 Y140.592 E15.55768
G1 X139.635 Y141.511 E15.5883
G1 X139.502 Y142.422 E15.61892
G1 X139.291 Y143.318 E15.64954
G1 X139.003 Y144.192 E15.68014
G1 X138.64 Y145.039 E15.71079
G1 X138.344 Y145.608 E15.73213
G1 X136.964 Y148.081 E15.82632
G1 X135.774 Y150.359 E15.9118
G1 X135.43 Y151.036 E15.93706
G1 X134.985 Y151.857 E15.96812
G1 X134.47 Y152.779 E16.00324
G1 X133.305 Y155.011 E16.08698
G1 X132.193 Y157.299 E16.17159
G1 X131.158 Y159.587 E16.25512
G1 X130.183 Y161.919 E16.33918
G1 X129.268 Y164.294 E16.42384
G1 X128.434 Y166.656 E16.50715
G1 X127.656 Y169.074 E16.59163
G1 X126.956 Y171.478 E16.67491
G1 X126.652 Y172.576 E16.71281
G1 X126.368 Y173.452 E16.74343
G1 X125.865 Y174.592 E16.78488
G1 X125.676 Y174.96 E16.79864
G1 X125.22 Y175.76 E16.82926
G1 X124.697 Y176.517 E16.85987
G1 X124.11 Y177.226 E16.89048
G1 X123.463 Y177.881 E16.9211
G1 X122.762 Y178.478 E16.95173
G1 X122.012 Y179.012 E16.98235
G1 X121.219 Y179.479 E17.01296
G1 X120.387 Y179.875 E17.04361
G1 X119.525 Y180.197 E17.07421
G1 X118.638 Y180.444 E17.10484
G1 X117.733 Y180.612 E17.13545
G1 X116.817 Y180.702 E17.16606
G1 X116.279 Y180.717 E17.18396
G1 X112.679 Y180.728 E17.3037
G1 X111.675 Y180.717 E17.3371
G1 X105.407 Y180.723 E17.54557
G1 X104.829 Y180.714 E17.5648
G1 X103.91 Y180.656 E17.59543
G1 X103 Y180.519 E17.62603
G1 X102.104 Y180.304 E17.65668
G1 X101.232 Y180.011 E17.68728
G1 X100.387 Y179.644 E17.71792
G1 X99.578 Y179.205 E17.74853
G1 X98.81 Y178.698 E17.77914
G1 X98.089 Y178.125 E17.80977
G1 X97.42 Y177.493 E17.84038
G1 X96.808 Y176.804 E17.87103
G1 X96.259 Y176.066 E17.90162
G1 X95.776 Y175.282 E17.93225
G1 X95.494 Y174.741 E17.95254
G1 X95.317 Y174.376 E17.96604
G1 X94.952 Y173.531 E17.99665
G1 X94.718 Y172.85 E18.0206
G1 X93.855 Y170.026 E18.11881
G1 X93.034 Y167.6 E18.204
G1 X92.168 Y165.26 E18.28699
G1 X91.225 Y162.922 E18.37084
G1 X90.214 Y160.605 E18.45492
G1 X89.129 Y158.295 E18.5398
G1 X87.995 Y156.052 E18.62339
G1 X86.789 Y153.824 E18.70766
G1 X85.534 Y151.653 E18.79106
G1 X84.214 Y149.513 E18.87469
G1 X82.085 Y146.312 E19.00255
G1 X81.609 Y145.524 E19.03317
G1 X81.203 Y144.697 E19.06382
G1 X80.87 Y143.839 E19.09443
G1 X80.613 Y142.955 E19.12505
G1 X80.434 Y142.052 E19.15566
G1 X80.334 Y141.137 E19.18628
G1 X80.312 Y140.611 E19.20379
G1 X80.302 Y139.987 E19.22455
G1 X80.301 Y132.79 E19.46392
G1 X80.312 Y132.072 E19.4878
G1 X80.366 Y131.153 E19.51842
G1 X80.463 Y130.446 E19.54216
G1 X80.911 Y127.829 E19.63046
G1 X81.274 Y125.274 E19.7163
G1 X81.555 Y122.8 E19.79911
G1 X81.77 Y120.267 E19.88366
G1 X81.909 Y117.802 E19.96578
G1 X81.992 Y113.855 E20.09709
G1 X81.993 Y99.269 E20.58222
G1 X81.956 Y96.645 E20.6695
G1 X81.859 Y94.284 E20.7481
G1 X81.804 Y93.154 E20.78572
G1 X81.777 Y91.663 E20.83532
G1 X81.778 Y77.744 E21.29827
G1 X81.788 Y77.031 E21.32199
G1 X81.803 Y76.602 E21.33626
G1 X81.927 Y74.335 E21.41178
G1 X82.008 Y71.361 E21.51073
G1 X82.073 Y70.443 E21.54134
G1 X82.218 Y69.534 E21.57196
G1 X82.44 Y68.641 E21.60256
G1 X82.766 Y67.704 E21.63556
G1 X83.097 Y66.879 E21.66512
G1 X83.464 Y66.002 E21.69674
G1 X84.367 Y63.662 E21.78017
G1 X85.215 Y61.265 E21.86473
G1 X86.288 Y57.887 E21.98262
G1 X86.605 Y57.022 E22.01326
G1 X86.995 Y56.189 E22.04385
G1 X87.457 Y55.392 E22.07449
M204 S2000
G0 F7500 X87.822 Y55.564
M204 S500
G1 F1500 X88.345 Y54.827 E22.10455
G1 X88.931 Y54.14 E22.13458
G1 X89.575 Y53.508 E22.16459
G1 X90.273 Y52.934 E22.19465
G1 X91.019 Y52.425 E22.22469
G1 X91.807 Y51.984 E22.25472
G1 X92.631 Y51.614 E22.28476
G1 X93.484 Y51.319 E22.31478
G1 X94.361 Y51.1 E22.34485
G1 X95.253 Y50.96 E22.37488
G1 X96.154 Y50.899 E22.40492
G1 X96.871 Y50.907 E22.42876
G1 X98.425 Y50.98 E22.48051
G1 X101.017 Y51.057 E22.56676
G1 X102.13 Y51.053 E22.60377
G1 X102.433 Y51.065 E22.61386
G1 X106.791 Y51.074 E22.75881
G1 X108.19 Y51.092 E22.80534
G1 X110.157 Y51.097 E22.87077
G1 X112.095 Y51.076 E22.93523
G1 X116.064 Y51.075 E23.06724
G1 X117.33 Y51.082 E23.10935
G1 X118.587 Y51.077 E23.15115
G1 X121.183 Y51.05 E23.2375
G1 X123.197 Y50.978 E23.30453
G1 X124.1 Y50.986 E23.33457
G1 X124.999 Y51.074 E23.36461
G1 X125.886 Y51.241 E23.39463
G1 X126.756 Y51.486 E23.42469
G1 X127.6 Y51.806 E23.45471
G1 X128.413 Y52.2 E23.48476
G1 X129.187 Y52.665 E23.51479
G1 X129.918 Y53.196 E23.54484
G1 X130.598 Y53.789 E23.57485
G1 X131.224 Y54.441 E23.60492
G1 X131.789 Y55.145 E23.63494
G1 X132.29 Y55.897 E23.66499
G1 X132.722 Y56.689 E23.695
G1 X133.083 Y57.517 E23.72504
G1 X133.248 Y57.98 E23.74139
G1 X133.418 Y58.496 E23.75946
G1 X133.92 Y60.096 E23.81523
G1 X134.742 Y62.48 E23.89911
G1 X135.658 Y64.913 E23.98557
G1 X136.335 Y66.587 E24.04563
G1 X136.802 Y67.709 E24.08605
G1 X137.112 Y68.558 E24.11611
G1 X137.345 Y69.43 E24.14614
G1 X137.501 Y70.32 E24.17619
G1 X137.583 Y71.424 E24.21301
G1 X137.598 Y72.152 E24.23723
G1 X137.687 Y74.761 E24.32405
G1 X137.795 Y76.619 E24.38595
G1 X137.81 Y77.019 E24.39927
G1 X137.821 Y77.687 E24.42149
G1 X137.821 Y92.103 E24.90097
G1 X137.803 Y93.082 E24.93353
G1 X137.77 Y93.853 E24.9592
G1 X137.689 Y95.278 E25.00667
G1 X137.606 Y99.231 E25.13818
G1 X137.607 Y113.873 E25.62517
G1 X137.644 Y116.479 E25.71186
G1 X137.753 Y119.045 E25.79728
G1 X137.929 Y121.536 E25.88034
G1 X138.182 Y124.072 E25.96511
G1 X138.508 Y126.625 E26.05071
G1 X138.902 Y129.131 E26.13508
G1 X139.128 Y130.431 E26.17897
G1 X139.243 Y131.327 E26.20901
G1 X139.276 Y131.976 E26.23063
G1 X139.299 Y133.248 E26.27294
G1 X139.298 Y139.883 E26.49362
G1 X139.288 Y140.586 E26.51701
G1 X139.235 Y141.488 E26.54706
G1 X139.103 Y142.381 E26.57708
G1 X138.892 Y143.259 E26.60712
G1 X138.604 Y144.115 E26.63716
G1 X138.242 Y144.942 E26.66718
G1 X137.995 Y145.413 E26.68487
G1 X136.603 Y147.907 E26.77987
G1 X135.446 Y150.123 E26.86301
G1 X135.078 Y150.846 E26.89
G1 X134.701 Y151.543 E26.91635
G1 X134.124 Y152.578 E26.95576
G1 X132.948 Y154.83 E27.04026
G1 X131.84 Y157.109 E27.12455
G1 X130.789 Y159.434 E27.20941
G1 X129.817 Y161.758 E27.2932
G1 X128.89 Y164.166 E27.37902
G1 X128.052 Y166.538 E27.46269
G1 X127.274 Y168.955 E27.54714
G1 X126.588 Y171.309 E27.62869
G1 X126.267 Y172.469 E27.66872
G1 X125.987 Y173.328 E27.69877
G1 X125.509 Y174.409 E27.73808
G1 X125.32 Y174.777 E27.75184
G1 X124.873 Y175.561 E27.78186
G1 X124.357 Y176.303 E27.81192
G1 X123.778 Y176.996 E27.84196
G1 X123.14 Y177.635 E27.87199
G1 X122.448 Y178.215 E27.90202
G1 X121.708 Y178.732 E27.93204
G1 X120.924 Y179.181 E27.96209
G1 X120.104 Y179.56 E27.99214
G1 X119.254 Y179.864 E28.02216
G1 X118.38 Y180.092 E28.05221
G1 X117.489 Y180.241 E28.08225
G1 X116.278 Y180.317 E28.12261
G1 X112.678 Y180.328 E28.24235
G1 X111.679 Y180.317 E28.27558
G1 X105.407 Y180.323 E28.48418
G1 X104.836 Y180.314 E28.50318
G1 X103.935 Y180.257 E28.53321
G1 X103.042 Y180.12 E28.56325
G1 X102.165 Y179.905 E28.59329
G1 X101.311 Y179.613 E28.62331
G1 X100.485 Y179.247 E28.65335
G1 X99.695 Y178.809 E28.6834
G1 X98.948 Y178.303 E28.71341
G1 X98.247 Y177.732 E28.74348
G1 X97.6 Y177.102 E28.77351
G1 X97.011 Y176.417 E28.80356
G1 X96.485 Y175.683 E28.8336
G1 X95.854 Y174.567 E28.87624
G1 X95.677 Y174.202 E28.88973
G1 X95.319 Y173.372 E28.91979
G1 X95.101 Y172.733 E28.94225
G1 X94.24 Y169.917 E29.04019
G1 X93.416 Y167.482 E29.12569
G1 X92.538 Y165.109 E29.20985
G1 X91.599 Y162.779 E29.2934
G1 X90.571 Y160.424 E29.37886
G1 X89.49 Y158.123 E29.46342
G1 X88.338 Y155.845 E29.54832
G1 X87.153 Y153.654 E29.63117
G1 X85.863 Y151.423 E29.71689
G1 X84.556 Y149.304 E29.79969
G1 X82.418 Y146.09 E29.92808
G1 X81.952 Y145.317 E29.9581
G1 X81.556 Y144.505 E29.98815
G1 X81.233 Y143.662 E30.01818
G1 X80.986 Y142.793 E30.04822
G1 X80.817 Y141.906 E30.07826
G1 X80.712 Y140.604 E30.1217
G1 X80.702 Y139.98 E30.14246
G1 X80.701 Y132.796 E30.3814
