;FLAVOR:Marlin
;TIME:4818
;Filament used: 6.14787m
;Layer height: 0.4
;MINX:79.856
;MINY:47.902
;MINZ:0.2
;MAXX:140.142
;MAXY:178.939
;MAXZ:19.8
;Generated with Cura_SteamEngine 5.2.2
M82 ;absolute extrusion mode
; Ender 3 S1 Start G-code
G92 E0 ; Reset Extruder
G28 ; Home all axes
M420 S1 ;Use bed leveling data
G1 Z10.0 F3000 ; Move Z Axis up little to prevent scratching of Heat Bed
G1 X0 Y0

M104 S210
M190 S60
M109 S210

G1 X0.1 Y20 Z0.3 F5000.0 ; Move to start position
G1 X0.1 Y200.0 Z0.3 F1500.0 E15 ; Draw the first line
G1 X0.4 Y200.0 Z0.3 F5000.0 ; Move to side a little
G1 X0.4 Y20 Z0.3 F1500.0 E30 ; Draw the second line
G92 E0 ; Reset Extruder
G1 Z2.0 F3000 ; Move Z Axis up little to prevent scratching of Heat Bed
G1 X5 Y20 Z0.3 F5000.0 ; Move over to prevent blob squish
G92 E0
G92 E0
G1 F2400 E-0.8
;LAYER_COUNT:51
;LAYER:0
M107
M204 S2000
G1 F300 Z0.4
G0 F7500 X87.169 Y53.032 Z0.4
M204 S500
;TYPE:SKIRT
G1 F300 Z0.2
G1 F2400 E0
G1 F1500 X87.708 Y52.265 E0.03118
G1 X88.311 Y51.547 E0.06237
G1 X88.973 Y50.882 E0.09357
G1 X89.689 Y50.277 E0.12475
G1 X90.454 Y49.734 E0.15595
G1 X91.263 Y49.259 E0.18716
G1 X92.109 Y48.854 E0.21835
G1 X92.986 Y48.523 E0.24953
G1 X93.889 Y48.268 E0.28074
G1 X94.81 Y48.091 E0.31193
G1 X95.742 Y47.992 E0.3431
G1 X96.771 Y47.976 E0.37733
G1 X99.42 Y48.059 E0.46548
G1 X103.728 Y48.074 E0.60877
G1 X104.289 Y48.067 E0.62743
G1 X107.113 Y48.064 E0.72136
G1 X108.123 Y48.078 E0.75495
G1 X110.799 Y48.083 E0.84396
G1 X112.087 Y48.066 E0.8868
G1 X114.594 Y48.055 E0.97018
G1 X116.876 Y48.058 E1.04608
G1 X117.704 Y48.067 E1.07362
G1 X120.227 Y48.032 E1.15755
G1 X122.523 Y47.927 E1.23399
G1 X123.237 Y47.902 E1.25775
G1 X124.174 Y47.909 E1.28892
G1 X125.108 Y47.996 E1.32012
G1 X126.031 Y48.162 E1.35131
G1 X126.937 Y48.406 E1.38252
G1 X127.818 Y48.727 E1.4137
G1 X128.669 Y49.121 E1.4449
G1 X129.483 Y49.587 E1.47609
G1 X130.255 Y50.12 E1.50729
G1 X130.978 Y50.717 E1.53848
G1 X131.648 Y51.373 E1.56967
G1 X132.26 Y52.084 E1.60087
G1 X132.809 Y52.845 E1.63208
G1 X133.291 Y53.649 E1.66326
G1 X133.702 Y54.492 E1.69445
G1 X134.128 Y55.636 E1.73505
G1 X134.619 Y57.217 E1.79011
G1 X135.432 Y59.679 E1.87635
G1 X136.273 Y61.999 E1.95843
G1 X137.412 Y64.862 E2.06091
G1 X137.551 Y65.196 E2.07294
G1 X137.875 Y66.076 E2.10413
G1 X138.122 Y66.981 E2.13533
G1 X138.291 Y67.903 E2.16651
G1 X138.395 Y69.204 E2.20992
G1 X138.411 Y70.013 E2.23683
G1 X138.499 Y72.533 E2.3207
G1 X138.538 Y73.151 E2.34129
G1 X138.606 Y74.623 E2.3903
G1 X138.626 Y75.838 E2.43072
G1 X138.625 Y89.933 E2.89952
G1 X138.615 Y90.632 E2.92277
G1 X138.575 Y91.674 E2.95746
G1 X138.501 Y92.989 E3.00126
G1 X138.428 Y95.58 E3.08747
G1 X138.419 Y96.877 E3.13061
G1 X138.419 Y111.674 E3.62276
G1 X138.456 Y114.282 E3.70952
G1 X138.563 Y116.804 E3.79347
G1 X138.74 Y119.298 E3.87663
G1 X138.988 Y121.796 E3.96012
G1 X139.306 Y124.285 E4.04358
G1 X139.703 Y126.809 E4.12856
G1 X139.832 Y127.515 E4.15243
G1 X139.968 Y128.324 E4.17972
G1 X140.084 Y129.255 E4.21092
G1 X140.118 Y129.923 E4.23317
G1 X140.14 Y130.997 E4.2689
G1 X140.142 Y137.716 E4.49237
G1 X140.132 Y138.425 E4.51596
G1 X140.079 Y139.361 E4.54714
G1 X139.946 Y140.29 E4.57835
G1 X139.735 Y141.204 E4.60955
G1 X139.446 Y142.096 E4.64074
G1 X139.083 Y142.961 E4.67194
G1 X138.647 Y143.791 E4.70312
G1 X138.254 Y144.419 E4.72776
G1 X136.794 Y146.584 E4.81461
G1 X135.421 Y148.748 E4.89985
G1 X134.152 Y150.88 E4.98237
G1 X132.923 Y153.082 E5.06625
G1 X131.758 Y155.316 E5.15005
G1 X130.666 Y157.562 E5.23311
G1 X129.613 Y159.899 E5.31837
G1 X128.656 Y162.187 E5.40085
G1 X127.734 Y164.582 E5.48621
G1 X126.914 Y166.908 E5.56824
G1 X126.135 Y169.333 E5.65296
G1 X125.867 Y170.244 E5.68454
G1 X125.707 Y170.76 E5.70251
G1 X125.391 Y171.643 E5.7337
G1 X125.114 Y172.267 E5.75641
G1 X124.916 Y172.679 E5.77161
G1 X124.475 Y173.506 E5.80278
G1 X123.964 Y174.293 E5.83399
G1 X123.388 Y175.033 E5.86518
G1 X122.751 Y175.721 E5.89637
G1 X122.058 Y176.353 E5.92756
G1 X121.313 Y176.923 E5.95876
G1 X120.523 Y177.428 E5.98995
G1 X119.692 Y177.864 E6.02116
G1 X118.828 Y178.227 E6.05233
G1 X117.935 Y178.516 E6.08355
G1 X117.022 Y178.727 E6.11471
G1 X116.093 Y178.86 E6.14593
G1 X115.157 Y178.913 E6.17711
G1 X113.841 Y178.93 E6.22088
G1 X113.081 Y178.928 E6.24616
G1 X111.729 Y178.939 E6.29113
G1 X109.079 Y178.918 E6.37927
G1 X106.986 Y178.928 E6.44889
G1 X105.195 Y178.922 E6.50846
G1 X104.519 Y178.927 E6.53094
G1 X103.515 Y178.912 E6.56434
G1 X102.579 Y178.856 E6.59552
G1 X101.651 Y178.719 E6.62672
G1 X100.738 Y178.505 E6.65791
G1 X99.846 Y178.213 E6.68913
G1 X98.983 Y177.847 E6.72031
G1 X98.154 Y177.408 E6.75151
G1 X97.366 Y176.9 E6.78269
G1 X96.623 Y176.327 E6.8139
G1 X95.932 Y175.693 E6.84509
G1 X95.298 Y175.002 E6.87628
G1 X94.725 Y174.26 E6.90746
G1 X94.217 Y173.471 E6.93867
G1 X93.915 Y172.919 E6.9596
G1 X93.729 Y172.555 E6.9732
G1 X93.338 Y171.703 E7.00438
G1 X92.927 Y170.502 E7.0466
G1 X92.149 Y167.709 E7.14303
G1 X91.413 Y165.338 E7.2256
G1 X90.594 Y162.943 E7.30979
G1 X89.716 Y160.594 E7.39319
G1 X88.774 Y158.276 E7.47641
G1 X87.747 Y155.941 E7.56126
G1 X86.684 Y153.696 E7.64387
G1 X85.528 Y151.424 E7.72866
G1 X84.233 Y149.049 E7.81863
G1 X83.652 Y147.942 E7.86021
G1 X82.412 Y145.652 E7.94683
G1 X81.312 Y143.724 E8.02066
G1 X80.882 Y142.89 E8.05187
G1 X80.525 Y142.023 E8.08305
G1 X80.243 Y141.129 E8.11423
G1 X80.039 Y140.213 E8.14544
G1 X79.913 Y139.284 E8.17663
G1 X79.868 Y138.465 E8.20391
G1 X79.856 Y137.703 E8.22925
G1 X79.857 Y130.75 E8.46051
G1 X79.868 Y130.044 E8.484
G1 X79.923 Y129.107 E8.51521
G1 X80.026 Y128.349 E8.54066
G1 X80.502 Y125.583 E8.63401
G1 X80.864 Y123.047 E8.71921
G1 X81.143 Y120.592 E8.80139
G1 X81.356 Y118.092 E8.88484
G1 X81.501 Y115.559 E8.96923
G1 X81.573 Y113.053 E9.05261
G1 X81.582 Y111.691 E9.09791
G1 X81.581 Y96.838 E9.59192
G1 X81.544 Y94.251 E9.67798
G1 X81.388 Y90.781 E9.79351
G1 X81.377 Y90.288 E9.80991
G1 X81.375 Y75.518 E10.30116
G1 X81.394 Y74.491 E10.33532
G1 X81.426 Y73.775 E10.35916
G1 X81.515 Y72.195 E10.4118
G1 X81.596 Y69.157 E10.51288
G1 X81.661 Y68.222 E10.54405
G1 X81.806 Y67.295 E10.57526
G1 X82.029 Y66.384 E10.60645
G1 X82.433 Y65.233 E10.64702
G1 X83.341 Y63.046 E10.72578
G1 X84.251 Y60.682 E10.81004
G1 X85.077 Y58.341 E10.8926
G1 X85.527 Y56.922 E10.94211
G1 X85.967 Y55.569 E10.98943
G1 X86.295 Y54.69 E11.02064
G1 X86.697 Y53.843 E11.05182
G1 X87.169 Y53.032 E11.08303
M204 S2000
G0 F7500 X87.533 Y53.206
M204 S500
G1 F1500 X88.067 Y52.456 E11.11365
G1 X88.664 Y51.755 E11.14428
G1 X89.319 Y51.108 E11.1749
G1 X90.028 Y50.521 E11.20552
G1 X90.785 Y49.998 E11.23612
G1 X91.585 Y49.542 E11.26675
G1 X92.422 Y49.157 E11.29739
G1 X93.289 Y48.847 E11.32801
G1 X94.179 Y48.612 E11.35863
G1 X95.086 Y48.456 E11.38924
G1 X96.004 Y48.379 E11.41988
G1 X96.758 Y48.376 E11.44496
G1 X99.405 Y48.459 E11.53304
G1 X103.732 Y48.474 E11.67696
G1 X104.29 Y48.467 E11.69552
G1 X107.107 Y48.464 E11.78921
G1 X108.116 Y48.478 E11.82277
G1 X110.804 Y48.483 E11.91218
G1 X112.087 Y48.466 E11.95485
G1 X114.594 Y48.455 E12.03824
G1 X116.871 Y48.458 E12.11397
G1 X117.705 Y48.467 E12.14171
G1 X120.251 Y48.431 E12.2264
G1 X123.251 Y48.302 E12.32627
G1 X124.171 Y48.309 E12.35687
G1 X125.088 Y48.397 E12.38751
G1 X125.993 Y48.564 E12.41812
G1 X126.881 Y48.808 E12.44875
G1 X127.744 Y49.129 E12.47938
G1 X128.575 Y49.524 E12.50998
G1 X129.37 Y49.989 E12.54061
G1 X130.121 Y50.521 E12.57122
G1 X130.823 Y51.117 E12.60185
G1 X131.471 Y51.771 E12.63247
G1 X132.06 Y52.479 E12.6631
G1 X132.584 Y53.235 E12.6937
G1 X133.042 Y54.034 E12.72433
G1 X133.428 Y54.87 E12.75496
G1 X133.746 Y55.754 E12.7862
G1 X134.246 Y57.367 E12.84237
G1 X135.048 Y59.793 E12.92735
G1 X135.901 Y62.145 E13.01057
G1 X137.038 Y65.004 E13.1129
G1 X137.182 Y65.35 E13.12537
G1 X137.499 Y66.214 E13.15598
G1 X137.739 Y67.103 E13.1866
G1 X137.902 Y68.009 E13.21722
G1 X137.995 Y69.212 E13.25735
G1 X138.01 Y69.967 E13.28247
G1 X138.101 Y72.574 E13.36923
G1 X138.195 Y74.291 E13.42642
G1 X138.226 Y75.838 E13.47789
G1 X138.225 Y89.928 E13.94652
G1 X138.207 Y90.922 E13.97959
G1 X138.176 Y91.657 E14.00406
G1 X138.101 Y92.992 E14.04853
G1 X138.028 Y95.566 E14.13417
G1 X138.019 Y96.875 E14.17771
G1 X138.019 Y111.68 E14.67013
G1 X138.056 Y114.304 E14.75741
G1 X138.163 Y116.813 E14.84094
G1 X138.341 Y119.329 E14.92483
G1 X138.591 Y121.853 E15.00919
G1 X138.912 Y124.361 E15.09329
G1 X139.301 Y126.835 E15.17658
G1 X139.408 Y127.414 E15.19617
G1 X139.573 Y128.391 E15.22912
G1 X139.686 Y129.304 E15.25972
G1 X139.718 Y129.931 E15.2806
G1 X139.74 Y131.005 E15.31633
G1 X139.742 Y137.71 E15.53934
G1 X139.732 Y138.419 E15.56292
G1 X139.679 Y139.339 E15.59357
G1 X139.546 Y140.25 E15.62419
G1 X139.335 Y141.146 E15.65481
G1 X139.047 Y142.02 E15.68542
G1 X138.685 Y142.866 E15.71602
G1 X138.25 Y143.678 E15.74666
G1 X137.922 Y144.196 E15.76705
G1 X136.446 Y146.385 E15.85486
G1 X135.108 Y148.494 E15.93794
G1 X133.793 Y150.702 E16.02341
G1 X132.577 Y152.881 E16.10641
G1 X131.387 Y155.163 E16.19201
G1 X130.299 Y157.401 E16.27477
G1 X129.25 Y159.728 E16.35967
G1 X128.29 Y162.025 E16.44247
G1 X127.359 Y164.442 E16.52862
G1 X126.532 Y166.79 E16.61142
G1 X125.753 Y169.213 E16.69607
G1 X125.531 Y169.971 E16.72234
G1 X125.324 Y170.641 E16.74566
G1 X125.014 Y171.508 E16.77629
G1 X124.754 Y172.093 E16.79758
G1 X124.556 Y172.505 E16.81278
G1 X124.122 Y173.317 E16.84341
G1 X123.618 Y174.088 E16.87404
G1 X123.05 Y174.812 E16.90465
G1 X122.421 Y175.485 E16.93529
G1 X121.736 Y176.1 E16.96591
G1 X121 Y176.653 E16.99652
G1 X120.219 Y177.141 E17.02716
G1 X119.399 Y177.559 E17.05777
G1 X118.546 Y177.904 E17.08837
G1 X117.665 Y178.174 E17.11902
G1 X116.765 Y178.366 E17.14963
G1 X115.852 Y178.48 E17.18023
G1 X115.151 Y178.513 E17.20357
G1 X113.842 Y178.53 E17.24711
G1 X113.079 Y178.528 E17.27249
G1 X111.726 Y178.539 E17.31749
G1 X109.085 Y178.518 E17.40533
G1 X106.987 Y178.528 E17.47511
G1 X105.194 Y178.522 E17.53475
G1 X104.517 Y178.527 E17.55727
G1 X103.522 Y178.512 E17.59037
G1 X102.603 Y178.456 E17.62099
G1 X101.692 Y178.32 E17.65162
G1 X100.797 Y178.106 E17.68223
G1 X99.924 Y177.815 E17.71284
G1 X99.079 Y177.449 E17.74347
G1 X98.269 Y177.011 E17.77409
G1 X97.5 Y176.504 E17.80473
G1 X96.778 Y175.933 E17.83534
G1 X96.108 Y175.301 E17.86598
G1 X95.496 Y174.614 E17.89658
G1 X94.946 Y173.876 E17.92719
G1 X94.271 Y172.737 E17.97123
G1 X94.085 Y172.373 E17.98482
G1 X93.702 Y171.536 E18.01544
G1 X93.313 Y170.394 E18.05557
G1 X92.54 Y167.619 E18.15138
G1 X91.797 Y165.227 E18.23468
G1 X90.975 Y162.82 E18.31928
G1 X90.077 Y160.421 E18.40448
G1 X89.147 Y158.131 E18.48669
G1 X88.111 Y155.774 E18.57232
G1 X87.031 Y153.493 E18.65626
G1 X85.892 Y151.257 E18.73972
G1 X84.499 Y148.699 E18.8366
G1 X84.014 Y147.773 E18.87137
G1 X82.734 Y145.409 E18.96078
G1 X81.66 Y143.526 E19.03288
G1 X81.238 Y142.707 E19.06352
G1 X80.89 Y141.855 E19.09413
G1 X80.617 Y140.976 E19.12475
G1 X80.421 Y140.076 E19.15538
G1 X80.304 Y139.163 E19.186
G1 X80.268 Y138.458 E19.20948
G1 X80.256 Y137.703 E19.23459
G1 X80.257 Y130.756 E19.46565
G1 X80.268 Y130.05 E19.48913
G1 X80.323 Y129.131 E19.51975
G1 X80.421 Y128.417 E19.54372
G1 X80.893 Y125.676 E19.63623
G1 X81.257 Y123.129 E19.72181
G1 X81.54 Y120.638 E19.80519
G1 X81.756 Y118.109 E19.88961
G1 X81.899 Y115.594 E19.9734
G1 X81.973 Y113.021 E20.05901
G1 X81.982 Y111.694 E20.10315
G1 X81.981 Y96.8 E20.59852
G1 X81.944 Y94.227 E20.68411
G1 X81.788 Y90.763 E20.79944
G1 X81.777 Y90.288 E20.81524
G1 X81.774 Y75.676 E21.30124
G1 X81.785 Y74.817 E21.32981
G1 X81.826 Y73.797 E21.36376
G1 X81.914 Y72.227 E21.41607
G1 X81.996 Y69.168 E21.51784
G1 X82.06 Y68.249 E21.54848
G1 X82.205 Y67.34 E21.5791
G1 X82.427 Y66.447 E21.60971
G1 X82.803 Y65.386 E21.64715
G1 X83.705 Y63.214 E21.72537
G1 X84.625 Y60.822 E21.81061
G1 X85.456 Y58.469 E21.89361
G1 X86.348 Y55.693 E21.99059
G1 X86.67 Y54.831 E22.02119
G1 X87.066 Y53.999 E22.05184
G1 X87.533 Y53.206 E22.08245
M204 S2000
G0 F7500 X87.897 Y53.38
M204 S500
G1 F1500 X88.425 Y52.647 E22.11249
G1 X89.015 Y51.964 E22.14251
G1 X89.664 Y51.336 E22.17255
G1 X90.366 Y50.768 E22.20258
G1 X91.115 Y50.264 E22.23261
G1 X91.906 Y49.828 E22.26265
G1 X92.733 Y49.464 E22.2927
G1 X93.588 Y49.174 E22.32273
G1 X94.466 Y48.961 E22.35278
G1 X95.359 Y48.827 E22.38282
G1 X96.261 Y48.772 E22.41287
G1 X96.746 Y48.776 E22.429
G1 X99.392 Y48.858 E22.51705
G1 X103.736 Y48.874 E22.66153
G1 X104.291 Y48.867 E22.68
G1 X107.102 Y48.864 E22.77349
G1 X108.11 Y48.878 E22.80702
G1 X110.809 Y48.883 E22.89679
G1 X112.088 Y48.866 E22.93933
G1 X114.593 Y48.855 E23.02265
G1 X116.867 Y48.858 E23.09828
G1 X117.707 Y48.867 E23.12622
G1 X120.274 Y48.831 E23.21161
G1 X122.666 Y48.722 E23.29125
G1 X123.265 Y48.701 E23.31119
G1 X124.168 Y48.71 E23.34122
G1 X125.066 Y48.798 E23.37123
G1 X125.954 Y48.965 E23.40129
G1 X126.823 Y49.21 E23.43132
G1 X127.667 Y49.531 E23.46135
G1 X128.48 Y49.926 E23.49141
G1 X129.254 Y50.391 E23.52144
G1 X129.984 Y50.922 E23.55147
G1 X130.664 Y51.516 E23.5815
G1 X131.289 Y52.168 E23.61154
G1 X131.854 Y52.873 E23.64159
G1 X132.355 Y53.624 E23.67161
G1 X132.787 Y54.418 E23.70168
G1 X133.147 Y55.246 E23.73171
G1 X133.364 Y55.873 E23.75378
G1 X133.864 Y57.485 E23.80991
G1 X134.668 Y59.918 E23.89514
G1 X135.533 Y62.303 E23.97952
G1 X136.647 Y65.104 E24.07978
G1 X136.813 Y65.503 E24.09415
G1 X137.123 Y66.352 E24.12421
G1 X137.357 Y67.224 E24.15424
G1 X137.512 Y68.114 E24.18429
G1 X137.595 Y69.22 E24.22118
G1 X137.61 Y69.987 E24.24669
G1 X137.701 Y72.613 E24.33409
G1 X137.747 Y73.345 E24.35848
G1 X137.806 Y74.637 E24.4015
G1 X137.826 Y75.838 E24.44145
G1 X137.825 Y89.922 E24.90988
G1 X137.807 Y90.905 E24.94258
G1 X137.769 Y91.786 E24.97191
G1 X137.701 Y92.992 E25.01209
G1 X137.628 Y95.553 E25.0973
G1 X137.619 Y96.872 E25.14117
G1 X137.619 Y111.686 E25.63389
G1 X137.656 Y114.291 E25.72054
G1 X137.765 Y116.857 E25.80596
G1 X137.943 Y119.364 E25.88956
G1 X138.191 Y121.873 E25.97341
G1 X138.519 Y124.436 E26.05935
G1 X138.911 Y126.928 E26.14326
G1 X139.043 Y127.648 E26.1676
G1 X139.179 Y128.457 E26.19489
G1 X139.289 Y129.353 E26.22491
G1 X139.318 Y129.939 E26.24443
G1 X139.342 Y131.22 E26.28704
G1 X139.342 Y137.705 E26.50273
G1 X139.332 Y138.414 E26.52632
G1 X139.279 Y139.315 E26.55634
G1 X139.147 Y140.209 E26.58639
G1 X138.936 Y141.087 E26.61643
G1 X138.649 Y141.943 E26.64646
G1 X138.287 Y142.77 E26.67648
G1 X137.853 Y143.562 E26.70652
G1 X137.59 Y143.972 E26.72272
G1 X136.12 Y146.152 E26.81017
G1 X134.759 Y148.296 E26.89464
G1 X133.458 Y150.481 E26.97922
G1 X132.216 Y152.707 E27.064
G1 X131.03 Y154.982 E27.14933
G1 X129.939 Y157.227 E27.23235
G1 X128.888 Y159.559 E27.31742
G1 X127.911 Y161.894 E27.40161
G1 X126.992 Y164.283 E27.48675
G1 X126.146 Y166.682 E27.57135
G1 X125.372 Y169.092 E27.65554
G1 X124.942 Y170.523 E27.70524
G1 X124.637 Y171.373 E27.73528
G1 X124.393 Y171.92 E27.7552
G1 X124.195 Y172.332 E27.7704
G1 X123.769 Y173.128 E27.80043
G1 X123.273 Y173.883 E27.83047
G1 X122.713 Y174.591 E27.8605
G1 X122.092 Y175.247 E27.89054
G1 X121.415 Y175.846 E27.92061
G1 X120.689 Y176.382 E27.95062
G1 X119.917 Y176.852 E27.98068
G1 X119.108 Y177.251 E28.01069
G1 X118.266 Y177.578 E28.04073
G1 X117.398 Y177.829 E28.07078
G1 X116.512 Y178.002 E28.10081
G1 X115.613 Y178.096 E28.13087
G1 X115.146 Y178.113 E28.14641
G1 X113.843 Y178.13 E28.18976
G1 X113.076 Y178.128 E28.21527
G1 X111.722 Y178.139 E28.2603
G1 X109.091 Y178.118 E28.34781
G1 X106.988 Y178.128 E28.41776
G1 X105.192 Y178.122 E28.47749
G1 X104.514 Y178.127 E28.50004
G1 X103.529 Y178.112 E28.53281
G1 X102.628 Y178.056 E28.56284
G1 X101.735 Y177.921 E28.59287
G1 X100.857 Y177.707 E28.62293
G1 X100.002 Y177.416 E28.65297
G1 X99.176 Y177.051 E28.68301
G1 X98.386 Y176.614 E28.71303
G1 X97.637 Y176.109 E28.74308
G1 X96.936 Y175.54 E28.77311
G1 X96.288 Y174.911 E28.80314
G1 X95.698 Y174.227 E28.83319
G1 X95.171 Y173.493 E28.86324
G1 X94.627 Y172.555 E28.89931
G1 X94.441 Y172.191 E28.9129
G1 X94.066 Y171.37 E28.94292
G1 X93.698 Y170.287 E28.98097
G1 X92.922 Y167.499 E29.07722
G1 X92.172 Y165.084 E29.16133
G1 X91.349 Y162.676 E29.24597
G1 X90.463 Y160.309 E29.33003
G1 X89.495 Y157.926 E29.41558
G1 X88.487 Y155.634 E29.49886
