;FLAVOR:Marlin
;TIME:796
;Filament used: 0.92515m
;Layer height: 0.4
;MINX:85.226
;MINY:92.943
;MINZ:0.2
;MAXX:130.012
;MAXY:137.766
;MAXZ:17.8
;Generated with Cura_SteamEngine 5.2.2
M82 ;absolute extrusion mode
; Ender 3 S1 Start G-code
G92 E0 ; Reset Extruder
G28 ; Home all axes
M420 S1 ;Use bed leveling data
G1 Z10.0 F3000 ; Move Z Axis up little to prevent scratching of Heat Bed
G1 X0 Y0

M104 S210.0
M190 S60
M109 S210.0

G1 X0.1 Y20 Z0.3 F5000.0 ; Move to start position
G1 X0.1 Y200.0 Z0.3 F1500.0 E15 ; Draw the first line
G1 X0.4 Y200.0 Z0.3 F5000.0 ; Move to side a little
G1 X0.4 Y20 Z0.3 F1500.0 E30 ; Draw the second line
G92 E0 ; Reset Extruder
G1 Z2.0 F3000 ; Move Z Axis up little to prevent scratching of Heat Bed
G1 X5 Y20 Z0.3 F5000.0 ; Move over to prevent blob squish
G92 E0
G92 E0
G1 F2400 E-0.8
;LAYER_COUNT:45
;LAYER:0
M107
M204 S2000
G1 F300 Z0.4
G0 F7500 X92.692 Y98.632 Z0.4
M204 S500
;TYPE:SKIRT
G1 F300 Z0.2
G1 F2400 E0
G1 F1500 X93.216 Y98.17 E0.02324
G1 X93.79 Y97.696 E0.04799
G1 X94.807 Y96.95 E0.08994
G1 X95.473 Y96.52 E0.11631
G1 X96.399 Y95.942 E0.15262
G1 X97.068 Y95.554 E0.17834
G1 X97.783 Y95.188 E0.20506
G1 X98.67 Y94.799 E0.23727
G1 X99.706 Y94.399 E0.27421
G1 X100.415 Y94.136 E0.29936
G1 X101.027 Y93.929 E0.32085
G1 X101.683 Y93.729 E0.34366
G1 X102.591 Y93.494 E0.37485
G1 X103.197 Y93.382 E0.39535
G1 X104.66 Y93.154 E0.4446
G1 X105.211 Y93.083 E0.46307
G1 X105.996 Y93.001 E0.48932
G1 X106.932 Y92.943 E0.52052
G1 X107.668 Y92.954 E0.545
G1 X109.516 Y93.043 E0.60653
G1 X109.934 Y93.071 E0.62047
G1 X111.154 Y93.176 E0.6612
G1 X111.351 Y93.182 E0.66775
G1 X112.564 Y93.289 E0.70825
G1 X113.567 Y93.387 E0.74177
G1 X114.495 Y93.518 E0.77294
G1 X115.41 Y93.728 E0.80417
G1 X116.303 Y94.014 E0.83535
G1 X117.32 Y94.449 E0.87214
G1 X117.566 Y94.569 E0.88125
G1 X118.39 Y95.015 E0.91241
G1 X119.174 Y95.531 E0.94363
G1 X119.911 Y96.111 E0.97482
G1 X120.347 Y96.507 E0.99441
G1 X123.086 Y99.144 E1.12087
G1 X123.747 Y99.81 E1.15208
G1 X124.09 Y100.205 E1.16948
G1 X125.515 Y101.926 E1.24379
G1 X126.074 Y102.653 E1.27429
G1 X126.525 Y103.331 E1.30138
G1 X126.721 Y103.646 E1.31372
G1 X127.192 Y104.483 E1.34566
G1 X127.646 Y105.379 E1.37907
G1 X128.092 Y106.284 E1.41263
G1 X128.535 Y107.314 E1.44992
G1 X128.651 Y107.626 E1.46099
G1 X128.948 Y108.545 E1.49311
G1 X129.292 Y109.797 E1.5363
G1 X129.459 Y110.44 E1.55839
G1 X129.598 Y111.048 E1.57914
G1 X129.715 Y111.637 E1.59911
G1 X129.859 Y112.564 E1.63031
G1 X129.91 Y113.18 E1.65087
G1 X129.995 Y114.737 E1.70273
G1 X130.011 Y115.324 E1.72227
G1 X130.012 Y116.153 E1.74984
G1 X129.973 Y117.09 E1.78103
G1 X129.88 Y117.867 E1.80706
G1 X129.687 Y119.1 E1.84857
G1 X129.5 Y120.15 E1.88404
G1 X129.38 Y120.737 E1.90397
G1 X129.145 Y121.645 E1.93516
G1 X128.877 Y122.421 E1.96247
G1 X128.171 Y124.24 E2.02736
G1 X127.942 Y124.795 E2.04733
G1 X127.543 Y125.644 E2.07853
G1 X127.037 Y126.513 E2.11198
G1 X126.174 Y127.849 E2.16488
G1 X125.567 Y128.76 E2.20129
G1 X125.013 Y129.517 E2.23249
G1 X124.217 Y130.41 E2.27228
G1 X123.269 Y131.358 E2.31687
G1 X122.301 Y132.282 E2.36138
G1 X121.596 Y132.9 E2.39256
G1 X120.724 Y133.533 E2.4284
G1 X119.838 Y134.112 E2.4636
G1 X118.43 Y134.981 E2.51863
G1 X117.611 Y135.437 E2.54981
G1 X116.642 Y135.867 E2.58507
G1 X115.649 Y136.251 E2.62048
G1 X114.457 Y136.68 E2.66262
G1 X113.718 Y136.925 E2.68851
G1 X112.815 Y137.178 E2.7197
G1 X111.962 Y137.342 E2.74859
G1 X111.429 Y137.423 E2.76652
G1 X110.044 Y137.613 E2.81302
G1 X109.413 Y137.691 E2.83417
G1 X108.479 Y137.766 E2.86533
G1 X107.481 Y137.759 E2.89853
G1 X106.257 Y137.694 E2.9393
G1 X104.854 Y137.588 E2.98609
G1 X104.027 Y137.493 E3.01378
G1 X103.189 Y137.363 E3.04199
G1 X101.237 Y137.037 E3.10781
G1 X100.48 Y136.923 E3.13327
G1 X99.559 Y136.744 E3.16448
G1 X98.657 Y136.487 E3.19567
G1 X97.78 Y136.155 E3.22686
G1 X96.935 Y135.748 E3.25805
G1 X96.087 Y135.245 E3.29085
G1 X95.817 Y135.068 E3.30159
G1 X95.056 Y134.521 E3.33276
G1 X94.343 Y133.911 E3.36397
G1 X93.873 Y133.445 E3.38598
G1 X93.328 Y132.87 E3.41233
G1 X92.336 Y131.795 E3.46098
G1 X91.381 Y130.804 E3.50676
G1 X90.79 Y130.139 E3.53635
G1 X90.104 Y129.301 E3.57237
G1 X89.404 Y128.396 E3.61042
G1 X88.867 Y127.628 E3.64159
G1 X88.447 Y126.912 E3.6692
G1 X87.72 Y125.556 E3.72037
G1 X87.343 Y124.836 E3.7474
G1 X86.907 Y123.898 E3.78181
G1 X86.664 Y123.304 E3.80315
G1 X86.247 Y122.085 E3.846
G1 X86.088 Y121.495 E3.86633
G1 X85.765 Y120.175 E3.91153
G1 X85.552 Y119.209 E3.94443
G1 X85.393 Y118.284 E3.97564
G1 X85.318 Y117.452 E4.00343
G1 X85.245 Y116.048 E4.05019
G1 X85.23 Y115.525 E4.06759
G1 X85.226 Y114.608 E4.09809
G1 X85.262 Y113.671 E4.12928
G1 X85.34 Y112.983 E4.15231
G1 X85.428 Y112.382 E4.17251
G1 X85.661 Y110.93 E4.22142
G1 X85.819 Y110.134 E4.24841
G1 X85.912 Y109.742 E4.26181
G1 X86.322 Y108.401 E4.30845
G1 X86.826 Y107.064 E4.35598
G1 X87.284 Y105.94 E4.39635
G1 X87.677 Y105.089 E4.42752
G1 X88.151 Y104.261 E4.45925
G1 X88.868 Y103.124 E4.50396
G1 X89.261 Y102.517 E4.52801
G1 X89.759 Y101.8 E4.55705
G1 X90.336 Y101.06 E4.58826
G1 X90.754 Y100.595 E4.60906
G1 X91.223 Y100.104 E4.63164
G1 X92.196 Y99.11 E4.6779
G1 X92.692 Y98.632 E4.70081
M204 S2000
G0 F7500 X92.965 Y98.923
M204 S500
G1 F1500 X93.471 Y98.479 E4.7232
G1 X94.045 Y98.005 E4.74796
G1 X95.025 Y97.286 E4.78839
G1 X95.685 Y96.859 E4.81453
G1 X96.611 Y96.281 E4.85084
G1 X97.263 Y95.904 E4.87589
G1 X97.959 Y95.547 E4.90191
G1 X98.814 Y95.172 E4.93296
G1 X99.85 Y94.772 E4.9699
G1 X100.553 Y94.511 E4.99484
G1 X101.144 Y94.312 E5.01558
G1 X101.8 Y94.112 E5.03839
G1 X102.691 Y93.882 E5.069
G1 X103.259 Y93.777 E5.08821
G1 X104.722 Y93.549 E5.13745
G1 X105.253 Y93.48 E5.15526
G1 X106.038 Y93.398 E5.18152
G1 X106.957 Y93.343 E5.21214
G1 X107.649 Y93.353 E5.23515
G1 X109.497 Y93.442 E5.29669
G1 X109.899 Y93.469 E5.31009
G1 X111.078 Y93.571 E5.34945
G1 X111.316 Y93.581 E5.35737
G1 X112.525 Y93.687 E5.39774
G1 X113.528 Y93.785 E5.43126
G1 X114.439 Y93.914 E5.46186
G1 X115.336 Y94.122 E5.49249
G1 X116.212 Y94.407 E5.52313
G1 X117.144 Y94.808 E5.55687
G1 X117.39 Y94.928 E5.56598
G1 X118.199 Y95.367 E5.59659
G1 X118.967 Y95.875 E5.62722
G1 X119.688 Y96.447 E5.65783
G1 X120.071 Y96.796 E5.67506
G1 X122.814 Y99.438 E5.80173
G1 X123.462 Y100.092 E5.83235
G1 X123.781 Y100.46 E5.84855
G1 X125.206 Y102.181 E5.92286
G1 X125.747 Y102.885 E5.9524
G1 X126.185 Y103.542 E5.97866
G1 X126.381 Y103.857 E5.991
G1 X126.835 Y104.664 E6.02179
G1 X127.287 Y105.556 E6.05505
G1 X127.733 Y106.461 E6.08861
G1 X128.161 Y107.453 E6.12455
G1 X128.277 Y107.765 E6.13562
G1 X128.562 Y108.651 E6.16657
G1 X128.948 Y110.06 E6.21516
G1 X129.072 Y110.54 E6.23165
G1 X129.206 Y111.126 E6.25164
G1 X129.323 Y111.715 E6.27162
G1 X129.463 Y112.625 E6.30224
G1 X129.51 Y113.202 E6.3215
G1 X129.595 Y114.759 E6.37336
G1 X129.611 Y115.324 E6.39216
G1 X129.612 Y116.153 E6.41973
G1 X129.573 Y117.073 E6.45036
G1 X129.484 Y117.805 E6.47488
G1 X129.249 Y119.289 E6.52486
G1 X129.106 Y120.078 E6.55153
G1 X128.989 Y120.654 E6.57107
G1 X128.757 Y121.545 E6.6017
G1 X128.504 Y122.276 E6.62743
G1 X127.798 Y124.095 E6.69232
G1 X127.573 Y124.64 E6.71193
G1 X127.181 Y125.473 E6.74255
G1 X126.701 Y126.296 E6.77424
G1 X125.838 Y127.632 E6.82714
G1 X125.234 Y128.538 E6.86336
G1 X124.69 Y129.281 E6.89399
G1 X123.933 Y130.128 E6.93177
G1 X122.993 Y131.069 E6.97601
G1 X122.025 Y131.993 E7.02052
G1 X121.332 Y132.599 E7.05114
G1 X120.505 Y133.198 E7.0851
G1 X119.619 Y133.777 E7.1203
G1 X118.221 Y134.64 E7.17495
G1 X117.416 Y135.087 E7.20557
G1 X116.498 Y135.494 E7.23897
G1 X115.505 Y135.878 E7.27438
G1 X114.322 Y136.303 E7.31619
G1 X113.594 Y136.545 E7.34171
G1 X112.707 Y136.792 E7.37233
G1 X111.902 Y136.947 E7.3996
G1 X111.369 Y137.028 E7.41753
G1 X109.995 Y137.216 E7.46365
G1 X109.364 Y137.294 E7.4848
G1 X108.447 Y137.367 E7.5154
G1 X107.502 Y137.359 E7.54683
G1 X106.278 Y137.294 E7.5876
G1 X104.885 Y137.189 E7.63406
G1 X104.088 Y137.097 E7.66074
G1 X103.255 Y136.968 E7.68878
G1 X101.368 Y136.653 E7.75241
G1 X100.539 Y136.528 E7.78029
G1 X99.636 Y136.351 E7.8109
G1 X98.751 Y136.097 E7.84152
G1 X97.891 Y135.767 E7.87216
G1 X97.064 Y135.363 E7.90277
G1 X96.307 Y134.911 E7.9321
G1 X96.037 Y134.734 E7.94283
G1 X95.289 Y134.196 E7.97348
G1 X94.591 Y133.596 E8.00409
G1 X94.163 Y133.169 E8.0242
G1 X93.622 Y132.599 E8.05034
G1 X92.613 Y131.506 E8.09982
G1 X91.669 Y130.526 E8.14507
G1 X91.1 Y129.885 E8.17358
G1 X90.198 Y128.775 E8.22115
G1 X89.722 Y128.153 E8.2472
G1 X89.195 Y127.398 E8.27783
G1 X88.8 Y126.723 E8.30384
G1 X88.074 Y125.37 E8.35491
G1 X87.697 Y124.65 E8.38194
G1 X87.277 Y123.747 E8.41506
G1 X87.034 Y123.153 E8.43641
G1 X86.632 Y121.978 E8.47771
G1 X86.477 Y121.399 E8.49765
G1 X86.09 Y119.803 E8.55227
G1 X85.943 Y119.124 E8.57538
G1 X85.787 Y118.216 E8.60602
G1 X85.717 Y117.431 E8.63223
G1 X85.644 Y116.027 E8.67899
G1 X85.63 Y115.523 E8.69576
G1 X85.626 Y114.606 E8.72626
G1 X85.662 Y113.686 E8.75689
G1 X85.735 Y113.041 E8.77848
G1 X85.798 Y112.606 E8.79309
G1 X86.056 Y110.994 E8.84739
G1 X86.208 Y110.226 E8.87343
G1 X86.301 Y109.834 E8.88683
G1 X86.696 Y108.542 E8.93177
G1 X87.2 Y107.205 E8.97929
G1 X87.653 Y106.092 E9.01926
G1 X88.041 Y105.257 E9.04988
G1 X88.489 Y104.474 E9.07989
G1 X89.204 Y103.341 E9.12445
G1 X89.597 Y102.734 E9.1485
G1 X90.085 Y102.032 E9.17693
G1 X90.651 Y101.306 E9.20755
G1 X91.044 Y100.871 E9.22705
G1 X91.509 Y100.384 E9.24944
G1 X92.482 Y99.39 E9.29571
G1 X92.965 Y98.923 E9.31805
M204 S2000
G0 F7500 X93.239 Y99.215
M204 S500
G1 F1500 X93.725 Y98.787 E9.33959
G1 X94.299 Y98.313 E9.36435
G1 X95.242 Y97.621 E9.40326
G1 X95.897 Y97.198 E9.42919
G1 X96.823 Y96.62 E9.4655
G1 X97.457 Y96.253 E9.48986
G1 X98.135 Y95.906 E9.51519
G1 X98.958 Y95.546 E9.54507
G1 X100.125 Y95.096 E9.58667
G1 X100.692 Y94.886 E9.60678
G1 X101.26 Y94.694 E9.62672
G1 X101.916 Y94.494 E9.64953
G1 X102.791 Y94.27 E9.67957
G1 X103.32 Y94.173 E9.69746
G1 X104.783 Y93.945 E9.74671
G1 X105.294 Y93.878 E9.76385
G1 X106.079 Y93.796 E9.7901
G1 X106.981 Y93.742 E9.82016
G1 X107.63 Y93.753 E9.84174
G1 X109.478 Y93.842 E9.90328
G1 X109.865 Y93.868 E9.91618
G1 X110.897 Y93.957 E9.95063
G1 X111.281 Y93.979 E9.96343
G1 X112.486 Y94.085 E10.00366
G1 X113.489 Y94.183 E10.03718
G1 X114.383 Y94.311 E10.06722
G1 X115.262 Y94.517 E10.09724
G1 X116.12 Y94.8 E10.12729
G1 X116.969 Y95.168 E10.15807
G1 X117.215 Y95.288 E10.16717
G1 X118.008 Y95.719 E10.19719
G1 X118.76 Y96.219 E10.22723
G1 X119.794 Y97.085 E10.27209
G1 X122.543 Y99.732 E10.39902
G1 X123.473 Y100.715 E10.44402
G1 X124.898 Y102.436 E10.51834
G1 X125.421 Y103.117 E10.5469
G1 X125.845 Y103.753 E10.57232
G1 X126.041 Y104.068 E10.58466
G1 X126.479 Y104.845 E10.61433
G1 X126.928 Y105.733 E10.64742
G1 X127.374 Y106.638 E10.68098
G1 X127.786 Y107.592 E10.71554
G1 X127.902 Y107.904 E10.72661
G1 X128.176 Y108.757 E10.75641
G1 X128.561 Y110.16 E10.8048
G1 X128.685 Y110.64 E10.82129
G1 X128.814 Y111.204 E10.84053
G1 X128.931 Y111.793 E10.86051
G1 X129.067 Y112.685 E10.89052
G1 X129.111 Y113.224 E10.90851
G1 X129.196 Y114.781 E10.96037
G1 X129.211 Y115.325 E10.97847
G1 X129.212 Y116.154 E11.00604
G1 X129.173 Y117.056 E11.03607
G1 X129.089 Y117.743 E11.05909
G1 X128.896 Y118.976 E11.1006
G1 X128.712 Y120.007 E11.13543
G1 X128.597 Y120.57 E11.15454
G1 X128.37 Y121.444 E11.18458
G1 X128.131 Y122.132 E11.2088
G1 X127.425 Y123.951 E11.2737
G1 X127.205 Y124.486 E11.29294
G1 X126.819 Y125.303 E11.32299
G1 X126.365 Y126.079 E11.3529
G1 X125.418 Y127.543 E11.41089
G1 X124.902 Y128.316 E11.4418
G1 X124.367 Y129.044 E11.47185
G1 X123.65 Y129.846 E11.50763
G1 X122.717 Y130.779 E11.55151
G1 X121.749 Y131.703 E11.59602
G1 X121.069 Y132.297 E11.62605
G1 X120.286 Y132.863 E11.65819
G1 X119.157 Y133.596 E11.70296
G1 X118.012 Y134.299 E11.74765
G1 X117.222 Y134.737 E11.77769
G1 X116.354 Y135.12 E11.80925
G1 X115.11 Y135.598 E11.85357
G1 X114.188 Y135.927 E11.88613
G1 X113.47 Y136.165 E11.91129
G1 X112.6 Y136.406 E11.94132
G1 X111.841 Y136.551 E11.96702
G1 X111.16 Y136.654 E11.98992
G1 X110.079 Y136.802 E12.02621
G1 X109.315 Y136.897 E12.05182
G1 X108.415 Y136.968 E12.08185
G1 X107.523 Y136.96 E12.11152
G1 X106.299 Y136.895 E12.15228
G1 X104.916 Y136.791 E12.19841
G1 X104.149 Y136.702 E12.22409
G1 X103.321 Y136.574 E12.25196
G1 X101.367 Y136.248 E12.31785
G1 X100.599 Y136.132 E12.34368
G1 X99.713 Y135.958 E12.37371
G1 X98.845 Y135.707 E12.40377
G1 X98.004 Y135.379 E12.43379
G1 X97.194 Y134.979 E12.46384
G1 X96.526 Y134.576 E12.48979
G1 X96.256 Y134.399 E12.50052
G1 X95.523 Y133.871 E12.53057
G1 X94.84 Y133.281 E12.56059
G1 X94.453 Y132.894 E12.57879
G1 X93.916 Y132.327 E12.60477
G1 X92.934 Y131.263 E12.65292
G1 X91.957 Y130.249 E12.69976
G1 X91.409 Y129.632 E12.7272
G1 X90.723 Y128.794 E12.76322
G1 X90.04 Y127.91 E12.80038
G1 X89.523 Y127.169 E12.83043
G1 X89.152 Y126.534 E12.85489
G1 X88.477 Y125.276 E12.90237
G1 X88.052 Y124.464 E12.93286
G1 X87.647 Y123.595 E12.96475
G1 X87.404 Y123.001 E12.98609
G1 X87.018 Y121.871 E13.02581
G1 X86.865 Y121.304 E13.04534
G1 X86.542 Y119.984 E13.09054
G1 X86.334 Y119.039 E13.12272
G1 X86.182 Y118.149 E13.15275
G1 X86.117 Y117.411 E13.17739
G1 X86.044 Y116.007 E13.22415
G1 X86.03 Y115.521 E13.24033
G1 X86.026 Y114.604 E13.27082
G1 X86.062 Y113.702 E13.30085
G1 X86.131 Y113.098 E13.32107
G1 X86.194 Y112.663 E13.33569
G1 X86.451 Y111.057 E13.38978
G1 X86.597 Y110.318 E13.41484
G1 X86.69 Y109.926 E13.42824
G1 X87.071 Y108.683 E13.47148
G1 X87.687 Y107.06 E13.52922
G1 X88.023 Y106.244 E13.55857
G1 X88.404 Y105.425 E13.58861
G1 X88.827 Y104.687 E13.6169
G1 X89.54 Y103.558 E13.66132
G1 X89.933 Y102.951 E13.68537
G1 X90.41 Y102.264 E13.71318
G1 X90.967 Y101.553 E13.74322
G1 X91.333 Y101.147 E13.76141
G1 X91.795 Y100.664 E13.78364
G1 X92.768 Y99.67 E13.8299
G1 X93.239 Y99.215 E13.85168
M204 S2000
G1 F2400 E13.05168
G1 F300 Z0.4
;MESH:ServiceModuleTop.stl
G0 F7500 X112.419 Y104.798 Z0.4
M204 S500
;TYPE:WALL-OUTER
G1 F300 Z0.2
G1 F2400 E13.85168
G1 F2135.2 X112.561 Y104.513 E13.85912
M204 S2000
G1 F2400 E13.05912
G1 F300 Z0.4
G0 F7500 X106.882 Y126.106 Z0.4
M204 S500
;TYPE:WALL-INNER
G1 F300 Z0.2
G1 F2400 E13.85912
G1 F1500 X108.008 Y126.185 E13.89666
G1 X110.189 Y125.885 E13.96989
G1 X110.696 Y125.712 E13.9877
G1 X112.37 Y125.102 E14.04696
G1 X114.294 Y123.899 E14.12244
G1 X115.935 Y122.311 E14.19839
G1 X116.297 Y121.774 E14.21993
G1 X116.608 Y121.27 E14.23962
G1 X117.25 Y120.322 E14.2777
G1 X117.53 Y119.626 E14.30266
G1 X117.621 Y119.348 E14.31239
G1 X118.054 Y118.272 E14.35096
G1 X118.146 Y117.8 E14.36696
G1 X118.232 Y117.189 E14.38748
G1 X118.423 Y116.099 E14.42429
G1 X118.428 Y115.801 E14.4342
G1 X118.431 Y115.619 E14.44025
G1 X118.388 Y115.091 E14.45787
G1 X118.347 Y113.908 E14.49724
G1 X118.258 Y113.428 E14.51348
G1 X118.111 Y112.903 E14.53161
G1 X117.825 Y111.768 E14.57054
G1 X117.647 Y111.314 E14.58676
G1 X117.396 Y110.827 E14.60498
G1 X116.887 Y109.781 E14.64367
G1 X116.612 Y109.354 E14.66057
G1 X116.298 Y108.96 E14.67732
G1 X115.899 Y108.542 E14.69654
G1 X115.189 Y107.633 E14.73491
G1 X114.835 Y107.33 E14.75041
G1 X114.403 Y107.035 E14.7678
G1 X113.479 Y106.262 E14.80787
G1 X113.067 Y106.031 E14.82358
G1 X112.581 Y105.823 E14.84117
G1 X111.52 Y105.259 E14.88113
G1 X111.067 Y105.113 E14.89696
G1 X110.564 Y105.004 E14.91408
G1 X109.398 Y104.674 E14.95438
G1 X108.921 Y104.618 E14.97036
G1 X108.364 Y104.608 E14.98889
G1 X107.207 Y104.527 E15.02746
G1 X106.728 Y104.567 E15.04345
G1 X106.184 Y104.666 E15.06184
G1 X105.026 Y104.827 E15.10073
G1 X104.563 Y104.96 E15.11675
G1 X104.056 Y105.159 E15.13486
G1 X102.955 Y105.561 E15.17385
G1 X102.544 Y105.77 E15.18918
G1 X101.127 Y106.668 E15.24498
G1 X100.739 Y106.975 E15.26144
G1 X100.38 Y107.322 E15.27804
G1 X100.016 Y107.752 E15.29678
G1 X99.171 Y108.567 E15.33583
G1 X98.905 Y108.948 E15.35128
G1 X98.623 Y109.456 E15.37061
G1 X97.975 Y110.413 E15.40905
G1 X97.788 Y110.843 E15.42464
G1 X97.631 Y111.33 E15.44166
G1 X97.181 Y112.455 E15.48196
G1 X97.079 Y112.923 E15.49789
G1 X97.013 Y113.494 E15.51701
G1 X96.815 Y114.628 E15.5553
G1 X96.807 Y115.106 E15.5712
G1 X96.851 Y115.632 E15.58876
G1 X96.891 Y116.804 E15.62776
