;FLAVOR:Marlin
;TIME:997
;Filament used: 1.0502m
;Layer height: 0.4
;MINX:87.629
;MINY:83.302
;MINZ:0.2
;MAXX:132.456
;MAXY:128.078
;MAXZ:31
;Generated with Cura_SteamEngine 5.2.2
M82 ;absolute extrusion mode
; Ender 3 S1 Start G-code
G92 E0 ; Reset Extruder
G28 ; Home all axes
M420 S1 ;Use bed leveling data
G1 Z10.0 F3000 ; Move Z Axis up little to prevent scratching of Heat Bed
G1 X0 Y0

M104 S210.0
M190 S60
M109 S210.0

G1 X0.1 Y20 Z0.3 F5000.0 ; Move to start position
G1 X0.1 Y200.0 Z0.3 F1500.0 E15 ; Draw the first line
G1 X0.4 Y200.0 Z0.3 F5000.0 ; Move to side a little
G1 X0.4 Y20 Z0.3 F1500.0 E30 ; Draw the second line
G92 E0 ; Reset Extruder
G1 Z2.0 F3000 ; Move Z Axis up little to prevent scratching of Heat Bed
G1 X5 Y20 Z0.3 F5000.0 ; Move over to prevent blob squish
G92 E0
G92 E0
G1 F2400 E-0.8
;LAYER_COUNT:78
;LAYER:0
M107
M204 S2000
G1 F300 Z0.4
G0 F7500 X94.403 Y89.636 Z0.4
M204 S500
;TYPE:SKIRT
G1 F300 Z0.2
G1 F2400 E0
G1 F1500 X94.97 Y89.122 E0.02545
G1 X95.64 Y88.558 E0.05458
G1 X96.854 Y87.585 E0.10633
G1 X97.61 Y87.03 E0.13752
G1 X98.24 Y86.638 E0.1622
G1 X98.672 Y86.389 E0.17879
G1 X99.271 Y86.063 E0.20147
G1 X100.723 Y85.326 E0.25563
G1 X101.575 Y84.935 E0.28681
G1 X102.336 Y84.657 E0.31375
G1 X103.213 Y84.376 E0.34438
G1 X104.152 Y84.099 E0.37694
G1 X105.14 Y83.829 E0.41101
G1 X106.055 Y83.623 E0.4422
G1 X106.543 Y83.546 E0.45864
G1 X107.048 Y83.478 E0.47558
G1 X107.979 Y83.393 E0.50668
G1 X109.093 Y83.341 E0.54377
G1 X110.51 Y83.302 E0.59092
G1 X111.448 Y83.316 E0.62212
G1 X112.07 Y83.37 E0.64289
G1 X112.821 Y83.463 E0.66805
G1 X114.205 Y83.672 E0.71461
G1 X115.202 Y83.871 E0.74842
G1 X116.037 Y84.079 E0.77704
G1 X116.493 Y84.201 E0.79274
G1 X118.998 Y84.802 E0.87842
G1 X119.896 Y85.072 E0.90961
G1 X121.065 Y85.554 E0.95167
G1 X121.316 Y85.675 E0.96094
G1 X122.142 Y86.118 E0.99211
G1 X122.928 Y86.63 E1.02331
G1 X123.668 Y87.207 E1.05452
G1 X124.356 Y87.844 E1.08571
G1 X125.048 Y88.613 E1.12011
G1 X126.163 Y89.985 E1.17892
G1 X127.317 Y91.364 E1.23872
G1 X127.996 Y92.266 E1.27627
G1 X128.881 Y93.576 E1.32886
G1 X129.356 Y94.303 E1.35774
G1 X129.834 Y95.111 E1.38896
G1 X130.248 Y95.972 E1.42074
G1 X130.677 Y96.977 E1.45708
G1 X130.951 Y97.648 E1.48119
G1 X131.271 Y98.463 E1.51031
G1 X131.576 Y99.35 E1.54151
G1 X131.792 Y100.199 E1.57065
G1 X131.942 Y100.932 E1.59553
G1 X132.185 Y102.277 E1.64099
G1 X132.318 Y103.097 E1.66862
G1 X132.427 Y104.028 E1.6998
G1 X132.456 Y105.004 E1.73227
G1 X132.433 Y106.286 E1.77492
G1 X132.376 Y107.671 E1.82102
G1 X132.297 Y108.606 E1.85223
G1 X132.108 Y109.672 E1.88824
G1 X131.798 Y111.01 E1.93392
G1 X131.466 Y112.3 E1.97823
G1 X131.194 Y113.197 E2.0094
G1 X130.783 Y114.206 E2.04564
G1 X130.371 Y115.077 E2.07769
G1 X129.52 Y116.763 E2.1405
G1 X129.062 Y117.581 E2.17168
G1 X128.504 Y118.401 E2.20467
G1 X127.854 Y119.257 E2.24042
G1 X126.77 Y120.605 E2.29795
G1 X126.152 Y121.31 E2.32913
G1 X125.26 Y122.146 E2.3698
G1 X124.466 Y122.809 E2.4042
G1 X123.325 Y123.735 E2.45308
G1 X122.572 Y124.295 E2.48429
G1 X121.851 Y124.745 E2.51256
G1 X121.326 Y125.045 E2.53267
G1 X120.864 Y125.294 E2.55012
G1 X119.428 Y126.026 E2.60373
G1 X118.229 Y126.55 E2.64725
G1 X117.707 Y126.742 E2.66575
G1 X116.987 Y126.979 E2.69096
G1 X116.407 Y127.148 E2.71106
G1 X116.176 Y127.205 E2.71897
G1 X115.055 Y127.515 E2.75765
G1 X114.141 Y127.726 E2.78885
G1 X113.588 Y127.815 E2.80748
G1 X113.09 Y127.882 E2.82419
G1 X112.456 Y127.948 E2.8454
G1 X111.689 Y128.005 E2.87098
G1 X110.518 Y128.071 E2.90999
G1 X109.428 Y128.078 E2.94624
G1 X108.752 Y128.049 E2.96874
G1 X107.455 Y127.916 E3.01211
G1 X106.221 Y127.715 E3.05369
G1 X105.071 Y127.509 E3.09255
G1 X103.79 Y127.198 E3.1364
G1 X102.592 Y126.829 E3.17809
G1 X100.154 Y126.117 E3.26256
G1 X99.266 Y125.816 E3.29375
G1 X98.406 Y125.441 E3.32495
G1 X97.43 Y124.9 E3.36207
G1 X97.147 Y124.724 E3.37315
G1 X96.372 Y124.195 E3.40436
G1 X95.645 Y123.602 E3.43557
G1 X94.972 Y122.95 E3.46673
G1 X94.356 Y122.242 E3.49795
G1 X93.959 Y121.711 E3.52
G1 X92.8 Y120.064 E3.58698
G1 X91.933 Y118.854 E3.63649
G1 X91.642 Y118.426 E3.6537
G1 X90.769 Y117.078 E3.70712
G1 X90.139 Y115.97 E3.74951
G1 X89.855 Y115.395 E3.77084
G1 X89.467 Y114.514 E3.80286
G1 X88.829 Y112.875 E3.86136
G1 X88.412 Y111.565 E3.90708
G1 X88.309 Y111.155 E3.92114
G1 X88.149 Y110.41 E3.94649
G1 X87.907 Y109.052 E3.99237
G1 X87.813 Y108.475 E4.01181
G1 X87.696 Y107.46 E4.04579
G1 X87.653 Y106.834 E4.06666
G1 X87.629 Y105.881 E4.09837
G1 X87.643 Y105.318 E4.1171
G1 X87.707 Y103.867 E4.16541
G1 X87.806 Y102.804 E4.20092
G1 X87.866 Y102.382 E4.21509
G1 X88.038 Y101.457 E4.24639
G1 X88.182 Y100.833 E4.26769
G1 X88.303 Y100.356 E4.28405
G1 X88.667 Y99.053 E4.32905
G1 X88.851 Y98.432 E4.35059
G1 X89.156 Y97.545 E4.38179
G1 X89.456 Y96.851 E4.40694
G1 X89.886 Y95.961 E4.43981
G1 X90.721 Y94.361 E4.49984
G1 X91.19 Y93.549 E4.53103
G1 X91.748 Y92.751 E4.56342
G1 X92.227 Y92.133 E4.58942
G1 X92.983 Y91.199 E4.62939
G1 X93.464 Y90.625 E4.6543
G1 X94.403 Y89.636 E4.69966
M204 S2000
G0 F7500 X94.675 Y89.929
M204 S500
G1 F1500 X95.229 Y89.427 E4.72452
G1 X95.89 Y88.87 E4.75327
G1 X97.104 Y87.897 E4.80502
G1 X97.846 Y87.353 E4.83562
G1 X98.44 Y86.984 E4.85888
G1 X98.872 Y86.735 E4.87546
G1 X99.458 Y86.416 E4.89765
G1 X100.905 Y85.682 E4.95162
G1 X101.742 Y85.299 E4.98223
G1 X102.459 Y85.037 E5.00762
G1 X103.326 Y84.76 E5.03789
G1 X104.265 Y84.483 E5.07046
G1 X105.244 Y84.216 E5.10421
G1 X106.596 Y83.943 E5.15008
G1 X107.101 Y83.875 E5.16703
G1 X107.999 Y83.793 E5.19702
G1 X109.104 Y83.741 E5.23381
G1 X110.521 Y83.702 E5.28096
G1 X111.442 Y83.717 E5.3116
G1 X112.025 Y83.767 E5.33106
G1 X112.761 Y83.859 E5.35573
G1 X114.145 Y84.068 E5.40228
G1 X115.106 Y84.259 E5.43487
G1 X115.934 Y84.465 E5.46325
G1 X116.403 Y84.59 E5.4794
G1 X118.375 Y85.058 E5.54681
G1 X118.899 Y85.19 E5.56478
G1 X119.781 Y85.455 E5.59541
G1 X120.891 Y85.915 E5.63537
G1 X121.142 Y86.036 E5.64464
G1 X121.953 Y86.471 E5.67525
G1 X122.724 Y86.975 E5.70589
G1 X123.447 Y87.544 E5.73649
G1 X124.119 Y88.174 E5.76712
G1 X124.739 Y88.867 E5.79805
G1 X125.864 Y90.251 E5.85737
G1 X127.01 Y91.621 E5.91678
G1 X127.664 Y92.49 E5.95295
G1 X128.65 Y93.952 E6.01161
G1 X129.021 Y94.522 E6.03423
G1 X129.489 Y95.314 E6.06482
G1 X129.881 Y96.13 E6.09493
G1 X130.237 Y96.961 E6.125
G1 X130.636 Y97.938 E6.1601
G1 X130.899 Y98.609 E6.18407
G1 X131.197 Y99.48 E6.21469
G1 X131.4 Y100.282 E6.24221
G1 X131.548 Y101.003 E6.26669
G1 X131.791 Y102.348 E6.31215
G1 X131.923 Y103.16 E6.33951
G1 X132.029 Y104.074 E6.37011
G1 X132.056 Y104.998 E6.40086
G1 X132.041 Y105.994 E6.43399
G1 X131.976 Y107.655 E6.48927
G1 X131.898 Y108.572 E6.51988
G1 X131.718 Y109.583 E6.55404
G1 X131.478 Y110.632 E6.58983
G1 X131.078 Y112.2 E6.64365
G1 X130.811 Y113.081 E6.67427
G1 X130.42 Y114.037 E6.70862
G1 X130.014 Y114.896 E6.74023
G1 X129.163 Y116.582 E6.80304
G1 X128.713 Y117.385 E6.83366
G1 X128.184 Y118.161 E6.86489
G1 X127.542 Y119.007 E6.90022
G1 X126.458 Y120.355 E6.95775
G1 X125.851 Y121.046 E6.98834
G1 X125.003 Y121.839 E7.02695
G1 X124.214 Y122.499 E7.06117
G1 X123.073 Y123.425 E7.11004
G1 X122.333 Y123.973 E7.14067
G1 X121.652 Y124.397 E7.16735
G1 X121.127 Y124.697 E7.18746
G1 X120.682 Y124.938 E7.20429
G1 X119.246 Y125.67 E7.2579
G1 X118.091 Y126.174 E7.29982
G1 X117.569 Y126.366 E7.31832
G1 X116.875 Y126.595 E7.34262
G1 X116.295 Y126.764 E7.36272
G1 X116.051 Y126.824 E7.37107
G1 X114.948 Y127.129 E7.40914
G1 X114.051 Y127.336 E7.43975
G1 X113.534 Y127.418 E7.45716
G1 X113.036 Y127.485 E7.47388
G1 X112.426 Y127.55 E7.49428
G1 X111.873 Y127.592 E7.51273
G1 X110.495 Y127.671 E7.55863
G1 X109.445 Y127.678 E7.59356
G1 X108.769 Y127.649 E7.61606
G1 X107.519 Y127.521 E7.65785
G1 X106.285 Y127.32 E7.69944
G1 X105.142 Y127.115 E7.73806
G1 X103.908 Y126.815 E7.7803
G1 X102.823 Y126.481 E7.81806
G1 X100.266 Y125.734 E7.90666
G1 X99.394 Y125.437 E7.9373
G1 X98.552 Y125.066 E7.9679
G1 X97.641 Y124.56 E8.00256
G1 X97.358 Y124.384 E8.01365
G1 X96.598 Y123.865 E8.04426
G1 X95.886 Y123.281 E8.07488
G1 X95.227 Y122.638 E8.10551
G1 X94.627 Y121.94 E8.13612
G1 X94.286 Y121.481 E8.15514
G1 X93.072 Y119.755 E8.22532
G1 X92.259 Y118.621 E8.27173
G1 X91.978 Y118.209 E8.28832
G1 X91.105 Y116.861 E8.34174
G1 X90.498 Y115.793 E8.38259
G1 X90.214 Y115.218 E8.40392
G1 X89.84 Y114.369 E8.43478
G1 X89.202 Y112.73 E8.49328
G1 X88.799 Y111.468 E8.53734
G1 X88.696 Y111.058 E8.5514
G1 X88.542 Y110.34 E8.57582
G1 X88.329 Y109.148 E8.6161
G1 X88.208 Y108.41 E8.64097
G1 X88.095 Y107.432 E8.67372
G1 X88.052 Y106.806 E8.69459
G1 X88.029 Y105.889 E8.7251
G1 X88.042 Y105.336 E8.74349
G1 X88.106 Y103.885 E8.7918
G1 X88.202 Y102.86 E8.82604
G1 X88.262 Y102.438 E8.84022
G1 X88.427 Y101.546 E8.87039
G1 X88.571 Y100.922 E8.89169
G1 X88.688 Y100.463 E8.90745
G1 X89.002 Y99.335 E8.94639
G1 X89.235 Y98.546 E8.97375
G1 X89.534 Y97.675 E9.00438
G1 X89.817 Y97.022 E9.02805
G1 X90.241 Y96.146 E9.06042
G1 X91.076 Y94.546 E9.12045
G1 X91.537 Y93.749 E9.15107
G1 X92.065 Y92.995 E9.18169
G1 X92.538 Y92.384 E9.20739
G1 X93.289 Y91.456 E9.24709
G1 X93.77 Y90.882 E9.272
G1 X94.675 Y89.929 E9.31571
M204 S2000
G0 F7500 X94.948 Y90.222
M204 S500
G1 F1500 X95.489 Y89.731 E9.34001
G1 X96.14 Y89.182 E9.36834
G1 X97.354 Y88.209 E9.42008
G1 X98.083 Y87.676 E9.45012
G1 X98.639 Y87.331 E9.47188
G1 X99.071 Y87.082 E9.48847
G1 X99.646 Y86.77 E9.51023
G1 X101.087 Y86.038 E9.56398
G1 X101.909 Y85.663 E9.59403
G1 X102.583 Y85.418 E9.61789
G1 X103.439 Y85.144 E9.64778
G1 X104.601 Y84.804 E9.68805
G1 X105.348 Y84.602 E9.71379
G1 X106.65 Y84.339 E9.75796
G1 X107.155 Y84.271 E9.77491
G1 X108.018 Y84.192 E9.80374
G1 X108.898 Y84.149 E9.83304
G1 X110.532 Y84.102 E9.88741
G1 X111.435 Y84.117 E9.91745
G1 X111.979 Y84.165 E9.93561
G1 X112.701 Y84.254 E9.95981
G1 X114.085 Y84.463 E10.00636
G1 X115.01 Y84.647 E10.03773
G1 X115.641 Y84.803 E10.05935
G1 X116.271 Y84.97 E10.08103
G1 X118.801 Y85.577 E10.16756
G1 X119.665 Y85.838 E10.19758
G1 X120.717 Y86.275 E10.23547
G1 X120.968 Y86.396 E10.24474
G1 X121.764 Y86.824 E10.2748
G1 X122.518 Y87.32 E10.30481
G1 X123.226 Y87.881 E10.33486
G1 X123.881 Y88.503 E10.3649
G1 X124.43 Y89.12 E10.39237
G1 X125.2 Y90.06 E10.43279
G1 X125.564 Y90.517 E10.45222
G1 X126.703 Y91.878 E10.51125
G1 X127.333 Y92.714 E10.54606
G1 X128.315 Y94.17 E10.60447
G1 X128.686 Y94.74 E10.62709
G1 X129.144 Y95.518 E10.65712
G1 X129.513 Y96.287 E10.68549
G1 X129.869 Y97.118 E10.71556
G1 X130.264 Y98.084 E10.75027
G1 X130.527 Y98.755 E10.77424
G1 X130.819 Y99.609 E10.80426
G1 X131.009 Y100.365 E10.83019
G1 X131.154 Y101.075 E10.85429
G1 X131.431 Y102.618 E10.90643
G1 X131.528 Y103.223 E10.92681
G1 X131.632 Y104.12 E10.95684
G1 X131.656 Y104.992 E10.98586
G1 X131.641 Y105.988 E11.01899
G1 X131.576 Y107.638 E11.07391
G1 X131.499 Y108.538 E11.10395
G1 X131.328 Y109.494 E11.13626
G1 X131.088 Y110.543 E11.17205
G1 X130.691 Y112.1 E11.22549
G1 X130.428 Y112.964 E11.25553
G1 X130.058 Y113.868 E11.28802
G1 X129.657 Y114.716 E11.31922
G1 X128.806 Y116.402 E11.38203
G1 X128.364 Y117.19 E11.41208
G1 X127.864 Y117.921 E11.44154
G1 X127.231 Y118.756 E11.47639
G1 X126.147 Y120.104 E11.53392
G1 X125.55 Y120.782 E11.56397
G1 X124.746 Y121.532 E11.60054
G1 X123.962 Y122.188 E11.63454
G1 X122.821 Y123.114 E11.68341
G1 X122.095 Y123.651 E11.71345
G1 X121.454 Y124.05 E11.73856
G1 X120.929 Y124.35 E11.75867
G1 X120.5 Y124.581 E11.77488
G1 X119.064 Y125.313 E11.82849
G1 X117.953 Y125.799 E11.86882
G1 X117.431 Y125.991 E11.88732
G1 X116.763 Y126.211 E11.91071
G1 X116.183 Y126.38 E11.9308
G1 X115.958 Y126.435 E11.93851
G1 X114.841 Y126.744 E11.97705
G1 X113.961 Y126.946 E12.00708
G1 X113.481 Y127.022 E12.02325
G1 X112.983 Y127.089 E12.03996
G1 X112.395 Y127.151 E12.05962
G1 X111.644 Y127.206 E12.08467
G1 X110.473 Y127.272 E12.12368
G1 X109.462 Y127.279 E12.15731
G1 X108.786 Y127.25 E12.17981
G1 X107.583 Y127.126 E12.22003
G1 X106.177 Y126.896 E12.26742
G1 X105.213 Y126.722 E12.3
G1 X104.025 Y126.433 E12.34067
G1 X102.905 Y126.088 E12.37964
G1 X100.378 Y125.35 E12.4672
G1 X99.523 Y125.058 E12.49725
G1 X98.698 Y124.692 E12.52727
G1 X97.852 Y124.221 E12.55948
G1 X97.569 Y124.045 E12.57056
G1 X96.824 Y123.534 E12.60061
G1 X96.127 Y122.96 E12.63064
G1 X95.484 Y122.326 E12.66068
G1 X94.899 Y121.638 E12.69071
G1 X94.613 Y121.251 E12.70672
G1 X93.399 Y119.525 E12.7769
G1 X92.584 Y118.388 E12.82343
G1 X92.314 Y117.992 E12.83937
G1 X91.441 Y116.644 E12.89279
G1 X90.857 Y115.616 E12.93211
G1 X90.573 Y115.041 E12.95344
G1 X90.213 Y114.224 E12.98314
G1 X89.575 Y112.585 E13.04163
G1 X89.187 Y111.37 E13.08406
G1 X89.084 Y110.96 E13.09812
G1 X88.936 Y110.269 E13.12162
G1 X88.723 Y109.077 E13.16189
G1 X88.603 Y108.346 E13.18653
G1 X88.494 Y107.405 E13.21804
G1 X88.451 Y106.779 E13.23891
G1 X88.429 Y105.896 E13.26829
G1 X88.442 Y105.354 E13.28632
G1 X88.506 Y103.903 E13.33463
G1 X88.598 Y102.916 E13.3676
G1 X88.658 Y102.494 E13.38177
G1 X88.817 Y101.636 E13.4108
G1 X88.961 Y101.012 E13.4321
G1 X89.074 Y100.571 E13.44724
G1 X89.434 Y99.28 E13.49181
G1 X89.618 Y98.659 E13.51336
G1 X89.913 Y97.806 E13.54338
G1 X90.179 Y97.193 E13.5656
G1 X90.595 Y96.331 E13.59744
G1 X91.43 Y94.731 E13.65746
G1 X91.883 Y93.95 E13.68749
G1 X92.382 Y93.239 E13.71638
G1 X92.849 Y92.636 E13.74175
G1 X93.596 Y91.713 E13.78124
G1 X94.077 Y91.139 E13.80615
G1 X94.948 Y90.222 E13.84822
M204 S2000
G1 F2400 E13.04822
G1 F300 Z0.4
;MESH:ServiceModuleBottom.stl
G0 F7500 X116.226 Y95.913 Z0.4
M204 S500
;TYPE:WALL-OUTER
G1 F300 Z0.2
G1 F2400 E13.84822
G1 F2135.2 X116.355 Y95.642 E13.85523
M204 S2000
G1 F2400 E13.05523
G1 F300 Z0.4
G0 F7500 X109.355 Y116.475 Z0.4
M204 S500
;TYPE:WALL-INNER
G1 F300 Z0.2
G1 F2400 E13.85523
G1 F1500 X109.853 Y116.498 E13.87181
G1 X111.012 Y116.417 E13.91045
G1 X111.561 Y116.392 E13.92873
G1 X112.052 Y116.319 E13.94524
G1 X113.179 Y115.997 E13.98423
G1 X113.686 Y115.869 E14.00162
G1 X114.163 Y115.7 E14.01845
G1 X115.2 Y115.149 E14.05751
G1 X115.685 Y114.919 E14.07536
G1 X116.103 Y114.67 E14.09154
G1 X117.003 Y113.918 E14.13055
G1 X117.432 Y113.586 E14.14859
G1 X117.797 Y113.265 E14.16476
G1 X118.503 Y112.363 E14.20286
G1 X118.701 Y112.142 E14.21273
G1 X119.173 Y111.539 E14.2382
G1 X119.679 Y110.505 E14.27648
G1 X119.939 Y110.024 E14.29467
G1 X120.241 Y109.407 E14.31752
G1 X120.794 Y107.196 E14.39332
G1 X120.834 Y106.03 E14.43213
G1 X120.872 Y104.927 E14.46883
G1 X120.554 Y103.119 E14.52989
G1 X120.461 Y102.646 E14.54592
G1 X119.628 Y100.605 E14.61924
G1 X118.992 Y99.659 E14.65716
G1 X118.702 Y99.206 E14.67505
G1 X118.411 Y98.789 E14.69196
G1 X117.575 Y97.98 E14.73065
G1 X117.089 Y97.462 E14.75428
G1 X116.059 Y96.815 E14.79473
G1 X115.41 Y96.3 E14.82229
G1 X114.985 Y96.049 E14.83871
G1 X114.533 Y95.833 E14.85537
G1 X113.448 Y95.436 E14.8938
G1 X112.426 Y95.126 E14.92932
G1 X110.796 Y94.892 E14.98409
G1 X109.667 Y94.971 E15.02173
G1 X108.55 Y94.971 E15.05888
G1 X108.076 Y95.042 E15.07482
G1 X106.836 Y95.399 E15.11774
G1 X105.948 Y95.672 E15.14864
G1 X104.951 Y96.202 E15.18619
G1 X104.442 Y96.443 E15.20493
G1 X104.024 Y96.693 E15.22112
G1 X103.138 Y97.434 E15.25954
G1 X102.691 Y97.765 E15.27804
G1 X102.327 Y98.095 E15.29438
G1 X101.595 Y99.027 E15.3338
G1 X101.235 Y99.424 E15.35162
G1 X100.954 Y99.808 E15.36745
G1 X100.444 Y100.853 E15.40612
G1 X100.158 Y101.333 E15.42471
G1 X99.955 Y101.761 E15.44046
G1 X99.672 Y102.891 E15.47921
G1 X99.479 Y103.434 E15.49838
G1 X99.36 Y103.912 E15.51476
G1 X99.285 Y104.409 E15.53148
G1 X99.244 Y105.577 E15.57035
G1 X99.218 Y106.08 E15.5871
G1 X99.242 Y106.538 E15.60235
G1 X99.449 Y107.709 E15.64191
G1 X99.526 Y108.225 E15.65926
G1 X99.642 Y108.691 E15.67523
G1 X100.083 Y109.791 E15.71465
G1 X100.265 Y110.297 E15.73253
G1 X100.475 Y110.742 E15.7489
G1 X101.109 Y111.683 E15.78664
G1 X101.406 Y112.175 E15.80575
G1 X101.691 Y112.563 E15.82176
G1 X102.526 Y113.371 E15.86041
G1 X102.901 Y113.784 E15.87896
G1 X103.263 Y114.111 E15.89519
G1 X104.237 Y114.718 E15.93336
G1 X104.699 Y115.059 E15.95246
G1 X105.104 Y115.304 E15.9682
G1 X106.214 Y115.71 E16.00751
G1 X106.709 Y115.943 E16.02571
G1 X107.158 Y116.103 E16.04156
G1 X108.304 Y116.263 E16.08005
