;FLAVOR:Marlin
;TIME:3018
;Filament used: 1.64287m
;Layer height: 0.2
;MINX:83.995
;MINY:84.65
;MINZ:0.2
;MAXX:136.009
;MAXY:126.672
;MAXZ:30.6
;Generated with Cura_SteamEngine 5.2.2
M82 ;absolute extrusion mode
; Ender 3 S1 Start G-code
G92 E0 ; Reset Extruder
G28 ; Home all axes
G1 Z10.0 F3000 ; Move Z Axis up little to prevent scratching of Heat Bed
G1 X0 Y0

M104 S205.0
M190 S0
M109 S205.0

G1 X0.1 Y20 Z0.3 F5000.0 ; Move to start position
G1 X0.1 Y200.0 Z0.3 F1500.0 E15 ; Draw the first line
G1 X0.4 Y200.0 Z0.3 F5000.0 ; Move to side a little
G1 X0.4 Y20 Z0.3 F1500.0 E30 ; Draw the second line
G92 E0 ; Reset Extruder
G1 Z2.0 F3000 ; Move Z Axis up little to prevent scratching of Heat Bed
G1 X5 Y20 Z0.3 F5000.0 ; Move over to prevent blob squish

G92 E0
G92 E0
G1 F2400 E-1
;LAYER_COUNT:154
;LAYER:0
M107
M204 S2000
G1 F300 Z0.4
G0 F7500 X87.184 Y87.946 Z0.4
M204 S500
;TYPE:SKIRT
G1 F300 Z0.2
G1 F2400 E0
G1 F1500 X87.871 Y87.308 E0.02806
G1 X88.611 Y86.731 E0.05615
G1 X89.396 Y86.219 E0.08421
G1 X90.223 Y85.776 E0.11229
G1 X91.084 Y85.405 E0.14036
G1 X91.974 Y85.108 E0.16844
G1 X92.886 Y84.889 E0.19652
G1 X93.813 Y84.748 E0.22459
G1 X94.685 Y84.688 E0.25075
G1 X95.34 Y84.673 E0.27036
G1 X124.273 Y84.65 E1.13645
G1 X125.125 Y84.66 E1.16195
G1 X126.061 Y84.712 E1.19001
G1 X126.99 Y84.843 E1.2181
G1 X127.904 Y85.054 E1.24618
G1 X128.797 Y85.341 E1.27425
G1 X129.662 Y85.703 E1.30232
G1 X130.493 Y86.138 E1.3304
G1 X131.284 Y86.642 E1.35848
G1 X132.029 Y87.211 E1.38654
G1 X132.723 Y87.842 E1.41462
G1 X133.361 Y88.53 E1.4427
G1 X133.938 Y89.269 E1.47077
G1 X134.45 Y90.055 E1.49885
G1 X134.893 Y90.882 E1.52693
G1 X135.263 Y91.743 E1.55498
G1 X135.56 Y92.633 E1.58307
G1 X135.779 Y93.545 E1.61115
G1 X135.92 Y94.472 E1.63921
G1 X135.979 Y95.334 E1.66508
G1 X135.994 Y95.988 E1.68466
G1 X136.009 Y114.928 E2.25161
G1 X136 Y115.764 E2.27664
G1 X135.95 Y116.701 E2.30473
G1 X135.819 Y117.63 E2.33281
G1 X135.61 Y118.544 E2.36088
G1 X135.324 Y119.437 E2.38894
G1 X134.963 Y120.303 E2.41703
G1 X134.53 Y121.134 E2.44508
G1 X134.027 Y121.926 E2.47316
G1 X133.459 Y122.672 E2.50123
G1 X132.829 Y123.367 E2.52931
G1 X132.142 Y124.006 E2.5574
G1 X131.404 Y124.584 E2.58546
G1 X130.618 Y125.097 E2.61355
G1 X129.792 Y125.541 E2.64162
G1 X128.931 Y125.913 E2.6697
G1 X128.042 Y126.21 E2.69776
G1 X127.13 Y126.431 E2.72585
G1 X126.203 Y126.573 E2.75392
G1 X125.329 Y126.634 E2.78015
G1 X124.675 Y126.649 E2.79973
G1 X95.731 Y126.672 E3.66614
G1 X94.879 Y126.662 E3.69165
G1 X93.943 Y126.61 E3.71971
G1 X93.014 Y126.479 E3.74779
G1 X92.1 Y126.268 E3.77587
G1 X91.207 Y125.981 E3.80395
G1 X90.342 Y125.619 E3.83202
G1 X89.511 Y125.184 E3.8601
G1 X88.72 Y124.68 E3.88817
G1 X87.975 Y124.111 E3.91623
G1 X87.281 Y123.48 E3.94431
G1 X86.643 Y122.792 E3.9724
G1 X86.066 Y122.053 E4.00046
G1 X85.554 Y121.267 E4.02854
G1 X85.111 Y120.44 E4.05663
G1 X84.741 Y119.579 E4.08468
G1 X84.444 Y118.689 E4.11276
G1 X84.225 Y117.777 E4.14084
G1 X84.084 Y116.85 E4.16891
G1 X84.025 Y115.98 E4.19501
G1 X84.01 Y115.325 E4.21462
G1 X83.995 Y96.331 E4.78319
G1 X84.004 Y95.545 E4.80672
G1 X84.056 Y94.609 E4.83478
G1 X84.187 Y93.68 E4.86287
G1 X84.397 Y92.766 E4.89094
G1 X84.684 Y91.873 E4.91902
G1 X85.046 Y91.008 E4.94709
G1 X85.48 Y90.177 E4.97515
G1 X85.984 Y89.386 E5.00323
G1 X86.553 Y88.64 E5.03131
G1 X87.184 Y87.946 E5.05939
M204 S2000
G0 F7500 X87.576 Y88.12
M204 S500
G1 F1500 X88.26 Y87.504 E5.08694
G1 X88.995 Y86.95 E5.11449
G1 X89.776 Y86.462 E5.14206
G1 X90.596 Y86.043 E5.16963
G1 X91.449 Y85.697 E5.19718
G1 X92.329 Y85.426 E5.22474
G1 X93.229 Y85.233 E5.2523
G1 X94.142 Y85.118 E5.27984
G1 X94.697 Y85.087 E5.29648
G1 X95.341 Y85.073 E5.31576
G1 X124.274 Y85.05 E6.18185
G1 X125.12 Y85.06 E6.20717
G1 X126.039 Y85.112 E6.23473
G1 X126.95 Y85.243 E6.26228
G1 X127.847 Y85.453 E6.28985
G1 X128.722 Y85.74 E6.31742
G1 X129.568 Y86.102 E6.34497
G1 X130.38 Y86.535 E6.37251
G1 X131.151 Y87.038 E6.40007
G1 X131.876 Y87.606 E6.42764
G1 X132.549 Y88.234 E6.45519
G1 X133.165 Y88.919 E6.48277
G1 X133.719 Y89.654 E6.51032
G1 X134.207 Y90.434 E6.53786
G1 X134.626 Y91.254 E6.56543
G1 X134.971 Y92.108 E6.593
G1 X135.242 Y92.988 E6.62056
G1 X135.435 Y93.888 E6.64811
G1 X135.549 Y94.801 E6.67566
G1 X135.579 Y95.346 E6.69199
G1 X135.594 Y95.989 E6.71125
G1 X135.609 Y114.929 E7.2782
G1 X135.6 Y115.76 E7.30308
G1 X135.55 Y116.679 E7.33063
G1 X135.42 Y117.59 E7.35817
G1 X135.211 Y118.487 E7.38574
G1 X134.926 Y119.362 E7.41329
G1 X134.565 Y120.21 E7.44088
G1 X134.132 Y121.022 E7.46842
G1 X133.631 Y121.794 E7.49597
G1 X133.064 Y122.52 E7.52355
G1 X132.437 Y123.194 E7.5511
G1 X131.753 Y123.81 E7.57866
G1 X131.019 Y124.365 E7.6062
G1 X130.239 Y124.855 E7.63378
G1 X129.419 Y125.274 E7.66134
G1 X128.567 Y125.621 E7.68888
G1 X127.687 Y125.893 E7.71645
G1 X126.787 Y126.087 E7.74401
G1 X125.874 Y126.203 E7.77156
G1 X125.317 Y126.234 E7.78826
G1 X124.674 Y126.249 E7.80751
G1 X95.73 Y126.272 E8.67393
G1 X94.884 Y126.262 E8.69925
G1 X93.965 Y126.21 E8.72681
G1 X93.054 Y126.079 E8.75436
G1 X92.157 Y125.869 E8.78193
G1 X91.282 Y125.582 E8.8095
G1 X90.436 Y125.22 E8.83704
G1 X89.624 Y124.787 E8.86459
G1 X88.853 Y124.284 E8.89215
G1 X88.128 Y123.716 E8.91972
G1 X87.455 Y123.088 E8.94727
G1 X86.839 Y122.403 E8.97485
G1 X86.285 Y121.668 E9.0024
G1 X85.797 Y120.888 E9.02994
G1 X85.378 Y120.068 E9.0575
G1 X85.033 Y119.214 E9.08508
G1 X84.762 Y118.334 E9.11264
G1 X84.569 Y117.434 E9.14019
G1 X84.455 Y116.521 E9.16773
G1 X84.424 Y115.968 E9.18431
G1 X84.41 Y115.324 E9.2036
G1 X84.395 Y96.33 E9.77216
G1 X84.404 Y95.55 E9.79551
G1 X84.455 Y94.631 E9.82307
G1 X84.586 Y93.72 E9.85062
G1 X84.796 Y92.823 E9.87819
G1 X85.083 Y91.948 E9.90576
G1 X85.444 Y91.102 E9.93329
G1 X85.878 Y90.29 E9.96085
G1 X86.38 Y89.518 E9.98842
G1 X86.948 Y88.793 E10.01599
G1 X87.576 Y88.12 E10.04354
M204 S2000
G0 F7500 X87.967 Y88.298
M204 S500
G1 F1500 X88.648 Y87.704 E10.07059
G1 X89.379 Y87.174 E10.09762
G1 X90.154 Y86.71 E10.12466
G1 X90.966 Y86.316 E10.15168
G1 X91.811 Y85.995 E10.17873
G1 X92.68 Y85.751 E10.20575
G1 X93.568 Y85.584 E10.2328
G1 X94.708 Y85.487 E10.26705
G1 X95.341 Y85.473 E10.286
G1 X124.274 Y85.45 E11.15209
G1 X125.115 Y85.46 E11.17726
G1 X126.016 Y85.511 E11.20428
G1 X126.91 Y85.642 E11.23132
G1 X127.788 Y85.852 E11.25835
G1 X128.645 Y86.139 E11.2854
G1 X129.473 Y86.5 E11.31244
G1 X130.265 Y86.933 E11.33946
G1 X131.016 Y87.434 E11.36648
G1 X131.72 Y88 E11.39352
G1 X132.371 Y88.626 E11.42056
G1 X132.964 Y89.307 E11.44759
G1 X133.495 Y90.037 E11.47461
G1 X133.959 Y90.812 E11.50165
G1 X134.352 Y91.625 E11.52868
G1 X134.673 Y92.47 E11.55574
G1 X134.917 Y93.339 E11.58275
G1 X135.083 Y94.227 E11.6098
G1 X135.18 Y95.357 E11.64375
G1 X135.194 Y95.989 E11.66267
G1 X135.209 Y114.929 E12.22962
G1 X135.2 Y115.755 E12.25435
G1 X135.15 Y116.657 E12.28139
G1 X135.02 Y117.551 E12.30843
G1 X134.812 Y118.429 E12.33544
G1 X134.527 Y119.286 E12.36248
G1 X134.167 Y120.115 E12.38953
G1 X133.735 Y120.908 E12.41656
G1 X133.235 Y121.66 E12.4436
G1 X132.67 Y122.364 E12.47062
G1 X132.045 Y123.016 E12.49765
G1 X131.365 Y123.61 E12.52468
G1 X130.635 Y124.142 E12.55172
G1 X129.86 Y124.607 E12.57877
G1 X129.048 Y125.002 E12.6058
G1 X128.204 Y125.323 E12.63283
G1 X127.335 Y125.568 E12.65986
G1 X126.448 Y125.736 E12.68688
G1 X125.305 Y125.834 E12.72122
G1 X124.674 Y125.849 E12.74012
G1 X95.73 Y125.872 E13.60653
G1 X94.889 Y125.862 E13.63171
G1 X93.988 Y125.811 E13.65872
G1 X93.094 Y125.68 E13.68577
G1 X92.216 Y125.47 E13.71279
G1 X91.359 Y125.183 E13.73985
G1 X90.531 Y124.822 E13.76688
G1 X89.739 Y124.389 E13.7939
G1 X88.988 Y123.888 E13.82093
G1 X88.284 Y123.322 E13.84797
G1 X87.633 Y122.696 E13.875
G1 X87.04 Y122.015 E13.90203
G1 X86.509 Y121.285 E13.92906
G1 X86.045 Y120.51 E13.95609
G1 X85.652 Y119.697 E13.98312
G1 X85.331 Y118.852 E14.01018
G1 X85.087 Y117.983 E14.0372
G1 X84.921 Y117.095 E14.06424
G1 X84.824 Y115.957 E14.09843
G1 X84.81 Y115.324 E14.11738
G1 X84.795 Y96.33 E14.68595
G1 X84.804 Y95.555 E14.70915
G1 X84.855 Y94.654 E14.73617
G1 X84.986 Y93.76 E14.76321
G1 X85.195 Y92.882 E14.79023
G1 X85.481 Y92.025 E14.81728
G1 X85.842 Y91.197 E14.84431
G1 X86.275 Y90.404 E14.87136
G1 X86.776 Y89.653 E14.89838
G1 X87.342 Y88.949 E14.92542
G1 X87.967 Y88.298 E14.95244
M204 S2000
G1 F2400 E13.95244
G1 F300 Z0.4
;MESH:BaseOfTurret.stl
G0 F7500 X95.61 Y115.072 Z0.4
M204 S500
;TYPE:WALL-INNER
G1 F300 Z0.2
G1 F2400 E14.95244
G1 F1500 X124.409 Y115.049 E15.81451
G1 X124.398 Y100.482 E16.25056
G1 X124.394 Y96.25 E16.37724
G1 X95.595 Y96.273 E17.23932
G1 X95.61 Y115.072 E17.80205
M204 S2000
G0 F7500 X95.21 Y115.472
M204 S500
;TYPE:WALL-OUTER
G1 F1500 X124.809 Y115.449 E18.68807
G1 X124.798 Y100.482 E19.13609
G1 X124.794 Y95.85 E19.27475
G1 X95.195 Y95.873 E20.16077
G1 X95.21 Y115.472 E20.74745
M204 S2000
G1 F2400 E19.74745
G1 F300 Z0.4
G0 F7500 X108.913 Y112.754 Z0.4
M204 S500
;TYPE:WALL-INNER
G1 F300 Z0.2
G1 F2400 E20.74745
G1 F1500 X108.308 Y112.635 E20.7659
G1 X107.76 Y112.48 E20.78295
G1 X107.237 Y112.284 E20.79967
G1 X106.726 Y112.046 E20.81654
G1 X106.275 Y111.792 E20.83204
G1 X105.77 Y111.455 E20.85021
G1 X105.331 Y111.106 E20.867
G1 X104.95 Y110.757 E20.88247
G1 X104.563 Y110.344 E20.89941
G1 X104.186 Y109.865 E20.91765
G1 X103.897 Y109.436 E20.93314
G1 X103.625 Y108.953 E20.94973
G1 X103.383 Y108.432 E20.96693
G1 X103.171 Y107.865 E20.98505
G1 X103.021 Y107.32 E21.00197
G1 X102.916 Y106.798 E21.01791
G1 X102.846 Y106.213 E21.03554
G1 X102.82 Y105.637 E21.0528
G1 X102.849 Y105.083 E21.06941
G1 X102.908 Y104.569 E21.0849
G1 X103.017 Y104.013 E21.10186
G1 X103.184 Y103.417 E21.12038
G1 X103.362 Y102.938 E21.13568
G1 X103.604 Y102.411 E21.15304
G1 X103.869 Y101.936 E21.16932
G1 X104.179 Y101.468 E21.18613
G1 X104.557 Y100.987 E21.20444
G1 X104.908 Y100.607 E21.21992
G1 X105.317 Y100.223 E21.23672
G1 X105.8 Y99.844 E21.25509
G1 X106.268 Y99.532 E21.27193
G1 X106.682 Y99.299 E21.28615
G1 X107.19 Y99.06 E21.30296
G1 X107.797 Y98.83 E21.32239
G1 X108.345 Y98.678 E21.33941
G1 X108.866 Y98.574 E21.35531
G1 X109.418 Y98.509 E21.37195
G1 X109.931 Y98.486 E21.38732
G1 X110.543 Y98.506 E21.40565
G1 X111.14 Y98.576 E21.42365
G1 X111.649 Y98.675 E21.43917
G1 X112.244 Y98.843 E21.45768
G1 X112.768 Y99.039 E21.47442
G1 X113.275 Y99.275 E21.49116
G1 X113.728 Y99.529 E21.50671
G1 X114.196 Y99.839 E21.52351
G1 X114.639 Y100.186 E21.54036
G1 X115.086 Y100.597 E21.55853
G1 X115.446 Y100.984 E21.57436
G1 X115.819 Y101.458 E21.59241
G1 X116.134 Y101.929 E21.60937
G1 X116.395 Y102.399 E21.62547
G1 X116.621 Y102.891 E21.64167
G1 X116.832 Y103.458 E21.65978
G1 X116.973 Y103.961 E21.67542
G1 X117.085 Y104.51 E21.69219
G1 X117.154 Y105.071 E21.70911
G1 X117.18 Y105.615 E21.72541
G1 X117.159 Y106.202 E21.743
G1 X117.091 Y106.788 E21.76066
G1 X116.986 Y107.311 E21.77662
G1 X116.818 Y107.904 E21.79507
G1 X116.623 Y108.424 E21.8117
G1 X116.4 Y108.911 E21.82773
G1 X116.113 Y109.425 E21.84535
G1 X115.828 Y109.855 E21.8608
G1 X115.478 Y110.301 E21.87777
G1 X115.065 Y110.747 E21.89596
G1 X114.686 Y111.099 E21.91145
G1 X114.205 Y111.476 E21.92974
G1 X113.736 Y111.79 E21.94663
G1 X113.283 Y112.043 E21.96217
G1 X112.773 Y112.28 E21.979
G1 X112.208 Y112.493 E21.99708
G1 X111.704 Y112.635 E22.01275
G1 X111.139 Y112.748 E22.03
G1 X110.63 Y112.809 E22.04534
G1 X110.074 Y112.835 E22.062
G1 X109.464 Y112.815 E22.08027
G1 X108.913 Y112.754 E22.09687
M204 S2000
G0 F7500 X108.94 Y112.354
M204 S500
;TYPE:WALL-OUTER
G1 F1500 X108.416 Y112.25 E22.11286
G1 X107.898 Y112.104 E22.12897
G1 X107.405 Y111.921 E22.14471
G1 X106.922 Y111.698 E22.16064
G1 X106.472 Y111.444 E22.1761
G1 X106.018 Y111.141 E22.19244
G1 X105.601 Y110.811 E22.20836
G1 X105.209 Y110.451 E22.22429
G1 X104.845 Y110.059 E22.24031
G1 X104.526 Y109.653 E22.25576
G1 X104.22 Y109.198 E22.27218
G1 X103.981 Y108.77 E22.28685
G1 X103.757 Y108.29 E22.30271
G1 X103.562 Y107.775 E22.31919
G1 X103.413 Y107.241 E22.33578
G1 X103.309 Y106.718 E22.35175
G1 X103.246 Y106.193 E22.36758
G1 X103.22 Y105.657 E22.38364
G1 X103.247 Y105.129 E22.39946
G1 X103.308 Y104.599 E22.41543
G1 X103.413 Y104.076 E22.4314
G1 X103.559 Y103.557 E22.44754
G1 X103.743 Y103.064 E22.46329
G1 X103.965 Y102.584 E22.47912
G1 X104.226 Y102.119 E22.49509
G1 X104.521 Y101.677 E22.51099
G1 X104.84 Y101.271 E22.52645
G1 X105.212 Y100.868 E22.54287
G1 X105.603 Y100.504 E22.55886
G1 X106.023 Y100.176 E22.57481
G1 X106.464 Y99.881 E22.59069
G1 X106.892 Y99.641 E22.60538
G1 X107.373 Y99.417 E22.62126
G1 X107.905 Y99.215 E22.6383
G1 X108.423 Y99.07 E22.6544
G1 X108.936 Y98.968 E22.67006
G1 X109.436 Y98.909 E22.68513
G1 X109.965 Y98.886 E22.70098
G1 X110.497 Y98.904 E22.71691
G1 X111.064 Y98.969 E22.73399
G1 X111.589 Y99.072 E22.75001
G1 X112.106 Y99.219 E22.7661
G1 X112.6 Y99.402 E22.78187
G1 X113.079 Y99.624 E22.79767
G1 X113.546 Y99.886 E22.8137
G1 X113.986 Y100.181 E22.82956
G1 X114.403 Y100.51 E22.84546
G1 X114.784 Y100.86 E22.86094
G1 X115.132 Y101.232 E22.87619
G1 X115.487 Y101.682 E22.89335
G1 X115.784 Y102.123 E22.90927
G1 X116.041 Y102.587 E22.92514
G1 X116.247 Y103.033 E22.93985
G1 X116.447 Y103.565 E22.95686
G1 X116.59 Y104.082 E22.97292
G1 X116.695 Y104.604 E22.98886
G1 X116.754 Y105.091 E23.00354
G1 X116.78 Y105.615 E23.01925
G1 X116.761 Y106.156 E23.03545
G1 X116.696 Y106.724 E23.05257
G1 X116.59 Y107.247 E23.06854
G1 X116.443 Y107.765 E23.08466
G1 X116.259 Y108.258 E23.10041
G1 X116.039 Y108.738 E23.11622
G1 X115.779 Y109.204 E23.13219
G1 X115.494 Y109.634 E23.14763
G1 X115.154 Y110.065 E23.16406
G1 X114.792 Y110.454 E23.17997
G1 X114.401 Y110.817 E23.19594
G1 X113.993 Y111.136 E23.21144
G1 X113.54 Y111.441 E23.22779
G1 X113.113 Y111.681 E23.24245
G1 X112.631 Y111.906 E23.25838
G1 X112.1 Y112.108 E23.27538
G1 X111.581 Y112.253 E23.29151
G1 X111.069 Y112.354 E23.30714
G1 X110.568 Y112.412 E23.32223
G1 X110.04 Y112.435 E23.33805
G1 X109.508 Y112.417 E23.35399
G1 X108.94 Y112.354 E23.37109
M204 S2000
G0 F7500 X108.791 Y113.101
M204 S500
;TYPE:SKIN
G1 F1500 X108.268 Y112.997 E23.38706
G1 X107.634 Y112.818 E23.40678
G1 X107.142 Y112.635 E23.42249
G1 X106.619 Y112.397 E23.43969
G1 X106.035 Y112.067 E23.45977
G1 X105.556 Y111.746 E23.47703
G1 X105.13 Y111.407 E23.49333
G1 X104.699 Y111.014 E23.51079
G1 X104.244 Y110.527 E23.53074
G1 X103.918 Y110.111 E23.54656
G1 X103.562 Y109.58 E23.56569
G1 X103.317 Y109.143 E23.58069
G1 X103.069 Y108.613 E23.59821
G1 X102.824 Y107.964 E23.61897
G1 X102.663 Y107.375 E23.63725
G1 X102.563 Y106.868 E23.65272
G1 X102.486 Y106.231 E23.67193
G1 X102.46 Y105.7 E23.68784
G1 X102.487 Y105.093 E23.70603
G1 X102.553 Y104.513 E23.7235
G1 X102.667 Y103.927 E23.74137
G1 X102.841 Y103.306 E23.76068
G1 X103.053 Y102.738 E23.77883
G1 X103.274 Y102.266 E23.79443
G1 X103.593 Y101.697 E23.81395
G1 X103.923 Y101.205 E23.83169
G1 X104.251 Y100.79 E23.84752
G1 X104.642 Y100.364 E23.86483
G1 X105.127 Y99.91 E23.88472
G1 X105.548 Y99.582 E23.90069
G1 X106.038 Y99.249 E23.91843
G1 X106.515 Y98.979 E23.93483
G1 X107.034 Y98.735 E23.952
G1 X107.693 Y98.485 E23.9731
G1 X108.29 Y98.319 E23.99165
G1 X108.814 Y98.216 E24.00763
G1 X109.405 Y98.149 E24.02544
G1 X109.93 Y98.126 E24.04117
G1 X110.521 Y98.144 E24.05887
G1 X111.223 Y98.224 E24.08002
G1 X111.798 Y98.34 E24.09758
G1 X112.369 Y98.505 E24.11537
G1 X112.926 Y98.713 E24.13317
G1 X113.397 Y98.933 E24.14873
G1 X113.916 Y99.222 E24.16651
G1 X114.395 Y99.537 E24.18367
G1 X114.917 Y99.951 E24.20361
G1 X115.309 Y100.308 E24.21948
G1 X115.73 Y100.76 E24.23797
G1 X116.118 Y101.256 E24.25682
G1 X116.434 Y101.729 E24.27385
G1 X116.707 Y102.217 E24.29059
G1 X116.937 Y102.714 E24.30698
G1 X117.175 Y103.344 E24.32714
G1 X117.325 Y103.886 E24.34398
G1 X117.438 Y104.438 E24.36084
G1 X117.508 Y104.995 E24.37765
G1 X117.541 Y105.612 E24.39614
G1 X117.521 Y106.18 E24.41316
G1 X117.444 Y106.861 E24.43367
G1 X117.337 Y107.396 E24.45
G1 X117.157 Y108.031 E24.46976
G1 X116.95 Y108.581 E24.48735
G1 X116.705 Y109.108 E24.50475
G1 X116.421 Y109.612 E24.52207
G1 X116.12 Y110.066 E24.53837
G1 X115.712 Y110.583 E24.55809
G1 X115.351 Y110.971 E24.57395
G1 X114.89 Y111.4 E24.5928
G1 X114.448 Y111.744 E24.60957
