;FLAVOR:Marlin
;TIME:3851
;Filament used: 1.42731m
;Layer height: 0.2
;MINX:93.122
;MINY:90.675
;MINZ:0.2
;MAXX:126.921
;MAXY:124.476
;MAXZ:65.2
;Generated with Cura_SteamEngine 5.2.2
M82 ;absolute extrusion mode
; Ender 3 S1 Start G-code
G92 E0 ; Reset Extruder
G28 ; Home all axes
G1 Z10.0 F3000 ; Move Z Axis up little to prevent scratching of Heat Bed
G1 X0 Y0

M104 S205.0
M190 S0
M109 S205.0

G1 X0.1 Y20 Z0.3 F5000.0 ; Move to start position
G1 X0.1 Y200.0 Z0.3 F1500.0 E15 ; Draw the first line
G1 X0.4 Y200.0 Z0.3 F5000.0 ; Move to side a little
G1 X0.4 Y20 Z0.3 F1500.0 E30 ; Draw the second line
G92 E0 ; Reset Extruder
G1 Z2.0 F3000 ; Move Z Axis up little to prevent scratching of Heat Bed
G1 X5 Y20 Z0.3 F5000.0 ; Move over to prevent blob squish

G92 E0
G92 E0
G1 F2400 E-1
;LAYER_COUNT:325
;LAYER:0
M107
M204 S2000
G1 F300 Z0.4
G0 F7500 X98.092 Y95.599 Z0.4
M204 S500
;TYPE:SKIRT
G1 F300 Z0.2
G1 F2400 E0
G1 F1500 X98.667 Y95.053 E0.02374
G1 X99.367 Y94.452 E0.05135
G1 X99.984 Y93.974 E0.07472
G1 X100.732 Y93.452 E0.10202
G1 X101.417 Y93.025 E0.12618
G1 X102.233 Y92.573 E0.15411
G1 X102.937 Y92.228 E0.17757
G1 X103.795 Y91.86 E0.20552
G1 X104.535 Y91.586 E0.22914
G1 X105.389 Y91.318 E0.25593
G1 X106.147 Y91.121 E0.27938
G1 X107.053 Y90.934 E0.30707
G1 X107.837 Y90.813 E0.33082
G1 X108.766 Y90.718 E0.35877
G1 X109.532 Y90.678 E0.38173
G1 X110.408 Y90.675 E0.40795
G1 X111.191 Y90.712 E0.43142
G1 X112.126 Y90.803 E0.45954
G1 X112.921 Y90.922 E0.4836
G1 X113.818 Y91.104 E0.511
G1 X114.575 Y91.297 E0.53438
G1 X115.495 Y91.582 E0.56321
G1 X116.267 Y91.867 E0.58785
G1 X117.114 Y92.231 E0.61544
G1 X117.823 Y92.579 E0.63909
G1 X118.631 Y93.028 E0.66676
G1 X119.297 Y93.443 E0.69025
G1 X120.053 Y93.969 E0.71782
G1 X120.675 Y94.45 E0.74135
G1 X121.376 Y95.051 E0.76899
G1 X121.954 Y95.6 E0.79286
G1 X122.583 Y96.262 E0.82019
G1 X123.095 Y96.86 E0.84376
G1 X123.661 Y97.591 E0.87143
G1 X124.105 Y98.227 E0.89465
G1 X124.594 Y99.008 E0.92223
G1 X124.992 Y99.725 E0.94678
G1 X125.404 Y100.569 E0.97489
G1 X125.707 Y101.274 E0.99786
G1 X126.021 Y102.119 E1.02485
G1 X126.255 Y102.862 E1.04817
G1 X126.486 Y103.745 E1.07549
G1 X126.646 Y104.512 E1.09894
G1 X126.789 Y105.425 E1.1266
G1 X126.873 Y106.243 E1.15122
G1 X126.921 Y107.204 E1.18002
G1 X126.92 Y108.013 E1.20424
G1 X126.87 Y108.941 E1.23206
G1 X126.791 Y109.703 E1.25499
G1 X126.654 Y110.597 E1.28206
G1 X126.498 Y111.36 E1.30537
G1 X126.276 Y112.222 E1.33202
G1 X126.039 Y112.98 E1.35579
G1 X125.712 Y113.865 E1.38404
G1 X125.4 Y114.593 E1.40774
G1 X124.991 Y115.428 E1.43558
G1 X124.606 Y116.123 E1.45936
G1 X124.118 Y116.906 E1.48698
G1 X123.665 Y117.556 E1.51069
G1 X123.105 Y118.279 E1.53807
G1 X122.594 Y118.875 E1.56157
G1 X121.951 Y119.552 E1.58952
G1 X121.385 Y120.09 E1.61289
G1 X120.693 Y120.686 E1.64023
G1 X120.067 Y121.172 E1.66396
G1 X119.312 Y121.699 E1.69152
G1 X118.634 Y122.123 E1.71545
G1 X117.827 Y122.571 E1.74308
G1 X117.114 Y122.92 E1.76685
G1 X116.246 Y123.292 E1.79511
G1 X115.508 Y123.565 E1.81867
G1 X114.654 Y123.833 E1.84546
G1 X113.896 Y124.03 E1.86891
G1 X112.99 Y124.217 E1.8966
G1 X112.206 Y124.338 E1.92034
G1 X111.277 Y124.433 E1.9483
G1 X110.511 Y124.473 E1.97126
G1 X109.635 Y124.476 E1.99748
G1 X108.852 Y124.439 E2.02095
G1 X107.917 Y124.348 E2.04907
G1 X107.122 Y124.229 E2.07313
G1 X106.225 Y124.047 E2.10053
G1 X105.466 Y123.853 E2.12398
G1 X104.547 Y123.568 E2.15278
G1 X103.779 Y123.285 E2.17728
G1 X102.929 Y122.92 E2.20497
G1 X102.218 Y122.571 E2.22868
G1 X101.412 Y122.123 E2.25628
G1 X100.746 Y121.708 E2.27977
G1 X99.99 Y121.182 E2.30734
G1 X99.363 Y120.696 E2.33109
G1 X98.662 Y120.094 E2.35875
G1 X98.094 Y119.554 E2.38221
G1 X97.463 Y118.891 E2.40961
G1 X96.936 Y118.277 E2.43383
G1 X96.367 Y117.539 E2.46172
G1 X95.934 Y116.918 E2.48438
G1 X95.449 Y116.144 E2.51173
G1 X95.05 Y115.424 E2.53637
G1 X94.638 Y114.58 E2.56448
G1 X94.335 Y113.873 E2.58751
G1 X94.022 Y113.03 E2.61442
G1 X93.788 Y112.289 E2.63768
G1 X93.557 Y111.406 E2.66501
G1 X93.397 Y110.636 E2.68855
G1 X93.254 Y109.721 E2.71627
G1 X93.17 Y108.907 E2.74077
G1 X93.122 Y107.948 E2.76951
G1 X93.123 Y107.138 E2.79375
G1 X93.173 Y106.21 E2.82157
G1 X93.252 Y105.448 E2.84451
G1 X93.389 Y104.554 E2.87158
G1 X93.548 Y103.782 E2.89517
G1 X93.771 Y102.92 E2.92183
G1 X94.003 Y102.178 E2.9451
G1 X94.329 Y101.293 E2.97333
G1 X94.643 Y100.558 E2.99726
G1 X95.052 Y99.723 E3.02509
G1 X95.441 Y99.022 E3.04909
G1 X95.93 Y98.239 E3.07672
G1 X96.375 Y97.6 E3.10003
G1 X96.934 Y96.877 E3.12739
G1 X97.449 Y96.276 E3.15108
G1 X98.092 Y95.599 E3.17903
M204 S2000
G0 F7500 X98.382 Y95.875
M204 S500
G1 F1500 X98.928 Y95.356 E3.20158
G1 X99.628 Y94.755 E3.22919
G1 X100.213 Y94.302 E3.25134
G1 X100.961 Y93.78 E3.27865
G1 X101.61 Y93.375 E3.30154
G1 X102.426 Y92.923 E3.32947
G1 X103.095 Y92.595 E3.35177
G1 X103.953 Y92.227 E3.37972
G1 X104.654 Y91.968 E3.40209
G1 X105.508 Y91.7 E3.42888
G1 X106.228 Y91.513 E3.45115
G1 X107.134 Y91.326 E3.47884
G1 X107.877 Y91.211 E3.50135
G1 X108.806 Y91.116 E3.5293
G1 X109.534 Y91.078 E3.55112
G1 X110.41 Y91.075 E3.57734
G1 X111.152 Y91.11 E3.59958
G1 X112.087 Y91.201 E3.6277
G1 X112.841 Y91.314 E3.65052
G1 X113.738 Y91.496 E3.67792
G1 X114.457 Y91.679 E3.70013
G1 X115.377 Y91.964 E3.72896
G1 X116.109 Y92.234 E3.75232
G1 X116.956 Y92.598 E3.77991
G1 X117.628 Y92.929 E3.80234
G1 X118.436 Y93.378 E3.83001
G1 X119.068 Y93.772 E3.8523
G1 X119.824 Y94.298 E3.87987
G1 X120.415 Y94.754 E3.90221
G1 X121.116 Y95.355 E3.92985
G1 X121.664 Y95.876 E3.95249
G1 X122.293 Y96.538 E3.97982
G1 X122.779 Y97.105 E4.00218
G1 X123.345 Y97.836 E4.02985
G1 X123.766 Y98.439 E4.05187
G1 X124.255 Y99.22 E4.07945
G1 X124.633 Y99.901 E4.10276
G1 X125.045 Y100.745 E4.13088
G1 X125.332 Y101.413 E4.15264
G1 X125.646 Y102.258 E4.17962
G1 X125.868 Y102.963 E4.20175
G1 X126.099 Y103.846 E4.22907
G1 X126.251 Y104.574 E4.25133
G1 X126.394 Y105.487 E4.279
G1 X126.474 Y106.263 E4.30235
G1 X126.522 Y107.224 E4.33115
G1 X126.52 Y107.991 E4.35411
G1 X126.47 Y108.919 E4.38193
G1 X126.396 Y109.642 E4.40369
G1 X126.259 Y110.536 E4.43076
G1 X126.11 Y111.261 E4.45291
G1 X125.888 Y112.123 E4.47956
G1 X125.663 Y112.842 E4.50211
G1 X125.336 Y113.727 E4.53035
G1 X125.041 Y114.417 E4.55282
G1 X124.632 Y115.252 E4.58065
G1 X124.266 Y115.911 E4.60321
G1 X123.778 Y116.694 E4.63083
G1 X123.348 Y117.311 E4.65334
G1 X122.788 Y118.034 E4.68072
G1 X122.304 Y118.599 E4.70299
G1 X121.661 Y119.276 E4.73094
G1 X121.124 Y119.787 E4.75313
G1 X120.432 Y120.383 E4.78047
G1 X119.839 Y120.844 E4.80295
G1 X119.084 Y121.371 E4.83051
G1 X118.44 Y121.773 E4.85324
G1 X117.633 Y122.221 E4.88087
G1 X116.956 Y122.553 E4.90344
G1 X116.088 Y122.925 E4.93171
G1 X115.389 Y123.183 E4.95401
G1 X114.535 Y123.451 E4.9808
G1 X113.815 Y123.638 E5.00307
G1 X112.909 Y123.825 E5.03076
G1 X112.166 Y123.94 E5.05327
G1 X111.237 Y124.035 E5.08122
G1 X110.509 Y124.073 E5.10304
G1 X109.633 Y124.076 E5.12927
G1 X108.891 Y124.041 E5.1515
G1 X107.956 Y123.95 E5.17962
G1 X107.202 Y123.837 E5.20244
G1 X106.305 Y123.655 E5.22984
G1 X105.584 Y123.471 E5.25212
G1 X104.665 Y123.186 E5.28092
G1 X103.937 Y122.918 E5.30414
G1 X103.087 Y122.553 E5.33183
G1 X102.412 Y122.221 E5.35435
G1 X101.606 Y121.773 E5.38195
G1 X100.975 Y121.379 E5.40422
G1 X100.219 Y120.853 E5.43179
G1 X99.624 Y120.393 E5.4543
G1 X98.923 Y119.791 E5.48196
G1 X98.384 Y119.279 E5.50421
G1 X97.753 Y118.616 E5.53161
G1 X97.253 Y118.032 E5.55463
G1 X96.684 Y117.294 E5.58252
G1 X96.273 Y116.705 E5.60402
G1 X95.788 Y115.931 E5.63136
G1 X95.409 Y115.248 E5.65474
G1 X94.997 Y114.404 E5.68286
G1 X94.71 Y113.734 E5.70468
G1 X94.397 Y112.891 E5.73159
G1 X94.175 Y112.188 E5.75366
G1 X93.944 Y111.305 E5.78098
G1 X93.792 Y110.575 E5.8033
G1 X93.649 Y109.66 E5.83103
G1 X93.569 Y108.887 E5.85429
G1 X93.521 Y107.928 E5.88303
G1 X93.523 Y107.16 E5.90602
G1 X93.573 Y106.232 E5.93384
G1 X93.647 Y105.509 E5.9556
G1 X93.784 Y104.615 E5.98267
G1 X93.935 Y103.883 E6.00504
G1 X94.158 Y103.021 E6.0317
G1 X94.378 Y102.316 E6.0538
G1 X94.704 Y101.431 E6.08203
G1 X95.002 Y100.734 E6.10473
G1 X95.411 Y99.899 E6.13256
G1 X95.78 Y99.234 E6.15532
G1 X96.269 Y98.451 E6.18296
G1 X96.692 Y97.845 E6.20508
G1 X97.251 Y97.122 E6.23244
G1 X97.739 Y96.552 E6.2549
G1 X98.382 Y95.875 E6.28285
M204 S2000
G0 F7500 X98.672 Y96.15
M204 S500
G1 F1500 X99.188 Y95.66 E6.30415
G1 X99.888 Y95.059 E6.33176
G1 X100.442 Y94.63 E6.35274
G1 X101.19 Y94.108 E6.38004
G1 X101.804 Y93.725 E6.4017
G1 X102.62 Y93.273 E6.42963
G1 X103.253 Y92.963 E6.45073
G1 X104.111 Y92.595 E6.47867
G1 X104.774 Y92.349 E6.49984
G1 X105.628 Y92.081 E6.52663
G1 X106.309 Y91.905 E6.54769
G1 X107.215 Y91.718 E6.57538
G1 X107.918 Y91.609 E6.59668
G1 X108.847 Y91.514 E6.62463
G1 X109.535 Y91.478 E6.64525
G1 X110.411 Y91.475 E6.67148
G1 X111.113 Y91.508 E6.69251
G1 X112.048 Y91.599 E6.72063
G1 X112.762 Y91.706 E6.74224
G1 X113.659 Y91.888 E6.76964
G1 X114.338 Y92.061 E6.79062
G1 X115.258 Y92.346 E6.81945
G1 X115.951 Y92.602 E6.84156
G1 X116.798 Y92.966 E6.86916
G1 X117.434 Y93.278 E6.89036
G1 X118.242 Y93.727 E6.91803
G1 X118.84 Y94.1 E6.93913
G1 X119.596 Y94.626 E6.9667
G1 X120.154 Y95.058 E6.98782
G1 X120.855 Y95.659 E7.01546
G1 X121.374 Y96.151 E7.03687
G1 X122.003 Y96.813 E7.06421
G1 X122.463 Y97.349 E7.08535
G1 X123.029 Y98.08 E7.11302
G1 X123.427 Y98.651 E7.13386
G1 X123.916 Y99.432 E7.16144
G1 X124.274 Y100.076 E7.1835
G1 X124.686 Y100.92 E7.21161
G1 X124.957 Y101.553 E7.23222
G1 X125.271 Y102.398 E7.25921
G1 X125.481 Y103.064 E7.28011
G1 X125.712 Y103.947 E7.30743
G1 X125.856 Y104.636 E7.3285
G1 X125.999 Y105.549 E7.35617
G1 X126.074 Y106.283 E7.37825
G1 X126.122 Y107.244 E7.40706
G1 X126.121 Y107.97 E7.42879
G1 X126.071 Y108.898 E7.45661
G1 X126 Y109.581 E7.47716
G1 X125.863 Y110.475 E7.50424
G1 X125.723 Y111.161 E7.52519
G1 X125.501 Y112.023 E7.55184
G1 X125.288 Y112.703 E7.57317
G1 X124.961 Y113.588 E7.60141
G1 X124.681 Y114.241 E7.62268
G1 X124.272 Y115.076 E7.65051
G1 X123.927 Y115.699 E7.67183
G1 X123.439 Y116.482 E7.69945
G1 X123.032 Y117.066 E7.72076
G1 X122.472 Y117.789 E7.74813
G1 X122.014 Y118.324 E7.76921
G1 X121.371 Y119.001 E7.79716
G1 X120.863 Y119.484 E7.81814
G1 X120.171 Y120.08 E7.84548
G1 X119.61 Y120.516 E7.86675
G1 X118.855 Y121.043 E7.89431
G1 X118.246 Y121.423 E7.9158
G1 X117.439 Y121.871 E7.94343
G1 X116.798 Y122.185 E7.9648
G1 X115.93 Y122.557 E7.99306
G1 X115.269 Y122.802 E8.01417
G1 X114.415 Y123.07 E8.04096
G1 X113.734 Y123.246 E8.06201
G1 X112.828 Y123.433 E8.08971
G1 X112.125 Y123.542 E8.111
G1 X111.196 Y123.637 E8.13895
G1 X110.508 Y123.673 E8.15958
G1 X109.632 Y123.676 E8.1858
G1 X108.93 Y123.643 E8.20684
G1 X107.995 Y123.552 E8.23496
G1 X107.281 Y123.445 E8.25657
G1 X106.384 Y123.263 E8.28397
G1 X105.703 Y123.089 E8.30501
G1 X104.784 Y122.804 E8.33381
G1 X104.095 Y122.55 E8.35579
G1 X103.245 Y122.185 E8.38348
G1 X102.606 Y121.871 E8.40479
G1 X101.8 Y121.423 E8.4324
G1 X101.203 Y121.051 E8.45345
G1 X100.447 Y120.525 E8.48102
G1 X99.884 Y120.09 E8.50232
G1 X99.183 Y119.488 E8.52998
G1 X98.673 Y119.003 E8.55105
G1 X98.042 Y118.34 E8.57844
G1 X97.569 Y117.788 E8.6002
G1 X97 Y117.05 E8.6281
G1 X96.612 Y116.493 E8.64842
G1 X96.127 Y115.719 E8.67576
G1 X95.768 Y115.073 E8.69788
G1 X95.356 Y114.229 E8.726
G1 X95.085 Y113.595 E8.74664
G1 X94.772 Y112.752 E8.77355
G1 X94.562 Y112.087 E8.79443
G1 X94.331 Y111.204 E8.82175
G1 X94.187 Y110.513 E8.84288
G1 X94.044 Y109.598 E8.8706
G1 X93.969 Y108.867 E8.8926
G1 X93.921 Y107.908 E8.92134
G1 X93.922 Y107.181 E8.9431
G1 X93.972 Y106.253 E8.97092
G1 X94.043 Y105.57 E8.99148
G1 X94.18 Y104.676 E9.01855
G1 X94.322 Y103.983 E9.03973
G1 X94.545 Y103.121 E9.06638
G1 X94.753 Y102.454 E9.08729
G1 X95.079 Y101.569 E9.11553
G1 X95.362 Y100.91 E9.13699
G1 X95.771 Y100.075 E9.16483
G1 X96.12 Y99.446 E9.18636
G1 X96.609 Y98.663 E9.21399
G1 X97.008 Y98.089 E9.23492
G1 X97.567 Y97.366 E9.26228
G1 X98.029 Y96.827 E9.28353
G1 X98.672 Y96.15 E9.31148
M204 S2000
G0 F7500 X98.962 Y96.426
M204 S500
G1 F1500 X99.449 Y95.963 E9.33159
G1 X100.149 Y95.362 E9.35921
G1 X100.671 Y94.958 E9.37897
G1 X101.419 Y94.436 E9.40627
G1 X101.998 Y94.075 E9.42669
G1 X102.814 Y93.623 E9.45462
G1 X103.41 Y93.33 E9.4745
G1 X104.268 Y92.962 E9.50244
G1 X104.894 Y92.731 E9.52242
G1 X105.748 Y92.463 E9.54921
G1 X106.39 Y92.296 E9.56907
G1 X107.296 Y92.109 E9.59676
G1 X107.959 Y92.007 E9.61684
G1 X108.888 Y91.912 E9.64479
G1 X109.536 Y91.878 E9.66422
G1 X110.412 Y91.875 E9.69044
G1 X111.074 Y91.906 E9.71028
G1 X112.009 Y91.997 E9.7384
G1 X112.682 Y92.098 E9.75877
G1 X113.579 Y92.28 E9.78617
G1 X114.22 Y92.444 E9.80597
G1 X115.14 Y92.729 E9.8348
G1 X115.793 Y92.969 E9.85563
G1 X116.64 Y93.333 E9.88323
G1 X117.24 Y93.628 E9.90324
G1 X118.048 Y94.077 E9.93091
G1 X118.611 Y94.428 E9.95077
G1 X119.367 Y94.954 E9.97834
G1 X119.894 Y95.361 E9.99827
G1 X120.595 Y95.962 E10.02591
G1 X121.084 Y96.427 E10.04611
G1 X121.713 Y97.089 E10.07345
G1 X122.147 Y97.594 E10.09338
G1 X122.713 Y98.325 E10.12105
G1 X123.088 Y98.864 E10.14071
G1 X123.577 Y99.645 E10.16829
G1 X123.914 Y100.252 E10.18907
G1 X124.326 Y101.096 E10.21719
G1 X124.582 Y101.692 E10.2366
G1 X124.896 Y102.537 E10.26359
G1 X125.094 Y103.166 E10.28333
G1 X125.325 Y104.049 E10.31065
G1 X125.461 Y104.698 E10.3305
G1 X125.604 Y105.611 E10.35816
G1 X125.675 Y106.303 E10.37898
G1 X125.723 Y107.264 E10.40779
G1 X125.721 Y107.948 E10.42826
G1 X125.671 Y108.876 E10.45608
G1 X125.605 Y109.521 E10.47549
G1 X125.468 Y110.415 E10.50256
G1 X125.335 Y111.061 E10.52231
G1 X125.113 Y111.923 E10.54895
G1 X124.913 Y112.564 E10.56905
G1 X124.586 Y113.449 E10.59729
G1 X124.322 Y114.065 E10.61736
G1 X123.913 Y114.9 E10.64519
G1 X123.587 Y115.488 E10.66531
G1 X123.099 Y116.271 E10.69293
G1 X122.716 Y116.822 E10.71302
G1 X122.156 Y117.545 E10.74039
G1 X121.724 Y118.048 E10.76024
G1 X121.081 Y118.725 E10.78819
G1 X120.602 Y119.181 E10.80799
G1 X119.91 Y119.777 E10.83532
G1 X119.381 Y120.188 E10.85538
G1 X118.626 Y120.715 E10.88294
G1 X118.051 Y121.073 E10.90321
G1 X117.244 Y121.521 E10.93084
G1 X116.641 Y121.817 E10.95095
G1 X115.773 Y122.189 E10.97922
G1 X115.149 Y122.42 E10.99914
G1 X114.295 Y122.688 E11.02593
G1 X113.653 Y122.855 E11.04579
G1 X112.747 Y123.042 E11.07348
G1 X112.084 Y123.144 E11.09356
G1 X111.155 Y123.239 E11.12151
G1 X110.507 Y123.273 E11.14094
G1 X109.631 Y123.276 E11.16716
G1 X108.969 Y123.245 E11.187
G1 X108.034 Y123.154 E11.21512
G1 X107.361 Y123.053 E11.23549
G1 X106.464 Y122.871 E11.26289
G1 X105.821 Y122.707 E11.28275
G1 X104.902 Y122.422 E11.31155
G1 X104.253 Y122.183 E11.33226
G1 X103.403 Y121.818 E11.35995
G1 X102.801 Y121.522 E11.38003
G1 X101.995 Y121.074 E11.40763
G1 X101.432 Y120.723 E11.42749
G1 X100.676 Y120.197 E11.45506
G1 X100.145 Y119.786 E11.47516
G1 X99.444 Y119.184 E11.50282
G1 X98.963 Y118.727 E11.52268
G1 X98.332 Y118.064 E11.55008
G1 X97.886 Y117.544 E11.57059
G1 X97.317 Y116.806 E11.59848
G1 X96.951 Y116.28 E11.61766
G1 X96.466 Y115.506 E11.645
G1 X96.128 Y114.897 E11.66585
G1 X95.716 Y114.053 E11.69397
G1 X95.46 Y113.455 E11.71344
G1 X95.147 Y112.612 E11.74036
G1 X94.949 Y111.985 E11.76004
G1 X94.718 Y111.102 E11.78736
G1 X94.582 Y110.451 E11.80727
G1 X94.439 Y109.536 E11.83499
G1 X94.368 Y108.847 E11.85573
G1 X94.32 Y107.888 E11.88447
G1 X94.322 Y107.203 E11.90497
G1 X94.372 Y106.275 E11.93279
G1 X94.438 Y105.63 E11.9522
G1 X94.575 Y104.736 E11.97927
G1 X94.709 Y104.083 E11.99923
G1 X94.932 Y103.221 E12.02588
G1 X95.129 Y102.593 E12.04558
G1 X95.455 Y101.708 E12.07381
G1 X95.721 Y101.086 E12.09406
G1 X96.13 Y100.251 E12.1219
G1 X96.459 Y99.658 E12.1422
G1 X96.948 Y98.875 E12.16983
G1 X97.325 Y98.334 E12.18957
G1 X97.884 Y97.611 E12.21693
G1 X98.319 Y97.103 E12.23695
G1 X98.962 Y96.426 E12.2649
M204 S2000
G0 F7500 X99.253 Y96.701
M204 S500
G1 F1500 X99.709 Y96.267 E12.28374
G1 X100.409 Y95.666 E12.31136
G1 X100.9 Y95.286 E12.32994
G1 X101.648 Y94.764 E12.35725
G1 X102.192 Y94.424 E12.37645
G1 X103.008 Y93.972 E12.40437
G1 X103.568 Y93.698 E12.42303
G1 X104.426 Y93.33 E12.45098
G1 X105.014 Y93.112 E12.46975
G1 X105.868 Y92.844 E12.49655
G1 X106.471 Y92.688 E12.51519
