;FLAVOR:Marlin
;TIME:2069
;Filament used: 0.966254m
;Layer height: 0.2
;MINX:93.809
;MINY:91.328
;MINZ:0.2
;MAXX:126.197
;MAXY:123.721
;MAXZ:30.2
;Generated with Cura_SteamEngine 5.2.2
M82 ;absolute extrusion mode
; Ender 3 S1 Start G-code
G92 E0 ; Reset Extruder
G28 ; Home all axes
G1 Z10.0 F3000 ; Move Z Axis up little to prevent scratching of Heat Bed
G1 X0 Y0

M104 S205.0
M190 S0
M109 S205.0

G1 X0.1 Y20 Z0.3 F5000.0 ; Move to start position
G1 X0.1 Y200.0 Z0.3 F1500.0 E15 ; Draw the first line
G1 X0.4 Y200.0 Z0.3 F5000.0 ; Move to side a little
G1 X0.4 Y20 Z0.3 F1500.0 E30 ; Draw the second line
G92 E0 ; Reset Extruder
G1 Z2.0 F3000 ; Move Z Axis up little to prevent scratching of Heat Bed
G1 X5 Y20 Z0.3 F5000.0 ; Move over to prevent blob squish

G92 E0
G92 E0
G1 F2400 E-1
;LAYER_COUNT:150
;LAYER:0
M107
M204 S2000
G1 F300 Z0.4
G0 F7500 X98.662 Y95.961 Z0.4
M204 S500
;TYPE:SKIRT
G1 F300 Z0.2
G1 F2400 E0
G1 F1500 X99.148 Y95.504 E0.01997
G1 X99.667 Y95.056 E0.04049
G1 X100.146 Y94.674 E0.05883
G1 X100.7 Y94.267 E0.07941
G1 X101.24 Y93.904 E0.09889
G1 X101.822 Y93.547 E0.11933
G1 X102.38 Y93.235 E0.13846
G1 X102.993 Y92.925 E0.15903
G1 X103.545 Y92.673 E0.17719
G1 X104.177 Y92.413 E0.19765
G1 X104.795 Y92.189 E0.21732
G1 X105.45 Y91.982 E0.23789
G1 X106.064 Y91.815 E0.25693
G1 X106.73 Y91.663 E0.27738
G1 X107.355 Y91.547 E0.29641
G1 X108.036 Y91.449 E0.317
G1 X108.668 Y91.384 E0.33602
G1 X109.351 Y91.342 E0.35651
G1 X109.978 Y91.328 E0.37528
G1 X110.662 Y91.341 E0.39576
G1 X111.323 Y91.382 E0.41558
G1 X112.004 Y91.453 E0.43608
G1 X112.593 Y91.537 E0.45389
G1 X113.268 Y91.66 E0.47443
G1 X113.919 Y91.808 E0.49441
G1 X114.58 Y91.988 E0.51492
G1 X115.187 Y92.18 E0.53398
G1 X115.833 Y92.414 E0.55454
G1 X116.407 Y92.648 E0.5731
G1 X117.029 Y92.931 E0.59355
G1 X117.611 Y93.226 E0.61308
G1 X118.209 Y93.561 E0.6336
G1 X118.745 Y93.89 E0.65243
G1 X119.314 Y94.272 E0.67294
G1 X119.832 Y94.652 E0.69217
G1 X120.367 Y95.079 E0.71266
G1 X120.838 Y95.486 E0.7313
G1 X121.339 Y95.956 E0.75186
G1 X121.79 Y96.416 E0.77115
G1 X122.248 Y96.923 E0.7916
G1 X122.66 Y97.419 E0.8109
G1 X123.076 Y97.964 E0.83142
G1 X123.433 Y98.473 E0.85003
G1 X123.804 Y99.049 E0.87054
G1 X124.123 Y99.591 E0.88937
G1 X124.447 Y100.196 E0.90991
G1 X124.733 Y100.788 E0.92959
G1 X125.004 Y101.416 E0.95007
G1 X125.229 Y102.002 E0.96886
G1 X125.449 Y102.651 E0.98937
G1 X125.63 Y103.266 E1.00856
G1 X125.796 Y103.931 E1.02908
G1 X125.923 Y104.547 E1.0479
G1 X126.035 Y105.224 E1.06844
G1 X126.114 Y105.859 E1.0876
G1 X126.17 Y106.541 E1.10808
G1 X126.196 Y107.168 E1.12687
G1 X126.197 Y107.853 E1.14737
G1 X126.172 Y108.49 E1.16646
G1 X126.117 Y109.173 E1.18697
G1 X126.038 Y109.818 E1.20642
G1 X125.926 Y110.496 E1.22699
G1 X125.797 Y111.117 E1.24598
G1 X125.631 Y111.781 E1.26646
G1 X125.453 Y112.386 E1.28534
G1 X125.234 Y113.034 E1.30582
G1 X125.008 Y113.625 E1.32476
G1 X124.736 Y114.256 E1.34532
G1 X124.456 Y114.837 E1.36463
G1 X124.134 Y115.441 E1.38512
G1 X123.808 Y115.996 E1.40439
G1 X123.437 Y116.572 E1.4249
G1 X123.08 Y117.081 E1.44351
G1 X122.664 Y117.626 E1.46403
G1 X122.251 Y118.122 E1.48335
G1 X121.792 Y118.63 E1.50385
G1 X121.359 Y119.073 E1.52239
G1 X120.86 Y119.544 E1.54293
G1 X120.365 Y119.974 E1.56256
G1 X119.83 Y120.4 E1.58303
G1 X119.321 Y120.772 E1.6019
G1 X118.751 Y121.155 E1.62246
G1 X118.223 Y121.481 E1.64103
G1 X117.627 Y121.816 E1.6615
G1 X117.04 Y122.113 E1.68119
G1 X116.417 Y122.397 E1.70168
G1 X115.838 Y122.634 E1.72041
G1 X115.192 Y122.868 E1.74098
G1 X114.585 Y123.06 E1.76004
G1 X113.924 Y123.24 E1.78054
G1 X113.297 Y123.383 E1.79979
G1 X112.623 Y123.508 E1.82031
G1 X111.997 Y123.598 E1.83925
G1 X111.315 Y123.668 E1.85977
G1 X110.679 Y123.707 E1.87884
G1 X109.996 Y123.721 E1.89929
G1 X109.369 Y123.709 E1.91806
G1 X108.685 Y123.668 E1.93857
G1 X108.051 Y123.604 E1.95765
G1 X107.371 Y123.507 E1.97821
G1 X106.726 Y123.387 E1.99785
G1 X106.06 Y123.234 E2.0183
G1 X105.463 Y123.072 E2.03682
G1 X104.809 Y122.866 E2.05735
G1 X104.2 Y122.646 E2.07673
G1 X103.564 Y122.386 E2.0973
G1 X102.991 Y122.124 E2.11616
G1 X102.379 Y121.814 E2.13669
G1 X101.829 Y121.507 E2.15555
G1 X101.248 Y121.151 E2.17595
G1 X100.724 Y120.8 E2.19482
G1 X100.172 Y120.397 E2.21528
G1 X99.665 Y119.994 E2.23467
G1 X99.143 Y119.542 E2.25534
G1 X98.677 Y119.103 E2.2745
G1 X98.197 Y118.613 E2.29504
G1 X97.769 Y118.139 E2.31415
G1 X97.332 Y117.613 E2.33462
G1 X96.949 Y117.112 E2.3535
G1 X96.555 Y116.551 E2.37402
G1 X96.213 Y116.02 E2.39293
G1 X95.868 Y115.433 E2.41331
G1 X95.559 Y114.851 E2.43304
G1 X95.261 Y114.229 E2.45368
G1 X95.02 Y113.671 E2.47188
G1 X94.773 Y113.032 E2.49238
G1 X94.562 Y112.411 E2.51202
G1 X94.37 Y111.755 E2.53248
G1 X94.22 Y111.155 E2.55099
G1 X94.08 Y110.483 E2.57154
G1 X93.975 Y109.848 E2.5908
G1 X93.891 Y109.168 E2.61131
G1 X93.839 Y108.545 E2.63003
G1 X93.81 Y107.866 E2.65037
G1 X93.809 Y107.217 E2.6698
G1 X93.837 Y106.527 E2.69047
G1 X93.89 Y105.885 E2.70975
G1 X93.974 Y105.206 E2.73023
G1 X94.076 Y104.586 E2.74904
G1 X94.215 Y103.913 E2.76961
G1 X94.368 Y103.3 E2.78852
G1 X94.56 Y102.644 E2.80899
G1 X94.765 Y102.036 E2.82819
G1 X95.011 Y101.396 E2.84872
G1 X95.262 Y100.816 E2.86763
G1 X95.559 Y100.198 E2.88816
G1 X95.853 Y99.645 E2.90691
G1 X96.198 Y99.054 E2.92739
G1 X96.55 Y98.505 E2.94691
G1 X96.941 Y97.948 E2.96728
G1 X97.329 Y97.44 E2.98642
G1 X97.77 Y96.91 E3.00706
G1 X98.183 Y96.452 E3.02552
G1 X98.662 Y95.961 E3.04605
M204 S2000
G0 F7500 X98.948 Y96.241
M204 S500
G1 F1500 X99.41 Y95.806 E3.06505
G1 X99.929 Y95.358 E3.08557
G1 X100.383 Y94.996 E3.10295
G1 X100.937 Y94.589 E3.12353
G1 X101.449 Y94.245 E3.14199
G1 X102.031 Y93.888 E3.16243
G1 X102.56 Y93.592 E3.18058
G1 X103.173 Y93.282 E3.20114
G1 X103.698 Y93.042 E3.21842
G1 X104.33 Y92.782 E3.23888
G1 X104.915 Y92.57 E3.2575
G1 X105.57 Y92.363 E3.27806
G1 X106.153 Y92.205 E3.29615
G1 X106.819 Y92.053 E3.31659
G1 X107.412 Y91.942 E3.33465
G1 X108.093 Y91.844 E3.35525
G1 X108.693 Y91.783 E3.3733
G1 X109.376 Y91.741 E3.39379
G1 X109.971 Y91.728 E3.4116
G1 X110.655 Y91.741 E3.43208
G1 X111.281 Y91.78 E3.45085
G1 X111.962 Y91.851 E3.47135
G1 X112.522 Y91.931 E3.48828
G1 X113.197 Y92.054 E3.50882
G1 X113.814 Y92.194 E3.52776
G1 X114.475 Y92.374 E3.54827
G1 X115.051 Y92.556 E3.56635
G1 X115.697 Y92.79 E3.58692
G1 X116.242 Y93.012 E3.60453
G1 X116.864 Y93.295 E3.62499
G1 X117.416 Y93.575 E3.64352
G1 X118.014 Y93.91 E3.66403
G1 X118.522 Y94.222 E3.68188
G1 X119.091 Y94.604 E3.70239
G1 X119.582 Y94.964 E3.72062
G1 X120.117 Y95.391 E3.74111
G1 X120.564 Y95.778 E3.75881
G1 X121.065 Y96.248 E3.77937
G1 X121.493 Y96.684 E3.79766
G1 X121.951 Y97.191 E3.81811
G1 X122.342 Y97.662 E3.83644
G1 X122.758 Y98.207 E3.85696
G1 X123.097 Y98.69 E3.87462
G1 X123.468 Y99.266 E3.89513
G1 X123.77 Y99.779 E3.91295
G1 X124.094 Y100.384 E3.9335
G1 X124.365 Y100.946 E3.95217
G1 X124.636 Y101.574 E3.97265
G1 X124.85 Y102.13 E3.99048
G1 X125.07 Y102.779 E4.01099
G1 X125.242 Y103.363 E4.02922
G1 X125.408 Y104.028 E4.04973
G1 X125.529 Y104.612 E4.06759
G1 X125.641 Y105.289 E4.08813
G1 X125.715 Y105.891 E4.10628
G1 X125.771 Y106.573 E4.12677
G1 X125.796 Y107.168 E4.14459
G1 X125.797 Y107.853 E4.1651
G1 X125.773 Y108.458 E4.18322
G1 X125.718 Y109.141 E4.20373
G1 X125.643 Y109.753 E4.22219
G1 X125.531 Y110.431 E4.24276
G1 X125.409 Y111.02 E4.26077
G1 X125.243 Y111.684 E4.28126
G1 X125.074 Y112.258 E4.29917
G1 X124.855 Y112.906 E4.31964
G1 X124.641 Y113.466 E4.33759
G1 X124.369 Y114.097 E4.35816
G1 X124.103 Y114.649 E4.3765
G1 X123.781 Y115.253 E4.39699
G1 X123.472 Y115.779 E4.41525
G1 X123.101 Y116.355 E4.43576
G1 X122.762 Y116.838 E4.45342
G1 X122.346 Y117.383 E4.47394
G1 X121.955 Y117.854 E4.49227
G1 X121.496 Y118.362 E4.51276
G1 X121.084 Y118.782 E4.53037
G1 X120.585 Y119.253 E4.55091
G1 X120.116 Y119.661 E4.56952
G1 X119.581 Y120.087 E4.58999
G1 X119.098 Y120.44 E4.6079
G1 X118.528 Y120.823 E4.62846
G1 X118.027 Y121.132 E4.64608
G1 X117.431 Y121.467 E4.66654
G1 X116.874 Y121.749 E4.68523
G1 X116.251 Y122.033 E4.70573
G1 X115.702 Y122.258 E4.72349
G1 X115.056 Y122.492 E4.74406
G1 X114.48 Y122.674 E4.76214
G1 X113.819 Y122.854 E4.78264
G1 X113.224 Y122.99 E4.80091
G1 X112.55 Y123.115 E4.82143
G1 X111.957 Y123.2 E4.83937
G1 X111.275 Y123.27 E4.85989
G1 X110.671 Y123.307 E4.878
G1 X109.988 Y123.321 E4.89845
G1 X109.393 Y123.31 E4.91627
G1 X108.709 Y123.269 E4.93678
G1 X108.107 Y123.208 E4.95489
G1 X107.427 Y123.111 E4.97545
G1 X106.815 Y122.997 E4.99409
G1 X106.149 Y122.844 E5.01454
G1 X105.583 Y122.69 E5.0321
G1 X104.929 Y122.484 E5.05263
G1 X104.352 Y122.276 E5.07099
G1 X103.716 Y122.016 E5.09155
G1 X103.172 Y121.767 E5.10946
G1 X102.56 Y121.457 E5.13
G1 X102.038 Y121.166 E5.14789
G1 X101.457 Y120.81 E5.16828
G1 X100.96 Y120.477 E5.18619
G1 X100.408 Y120.074 E5.20665
G1 X99.927 Y119.691 E5.22506
G1 X99.405 Y119.239 E5.24573
G1 X98.963 Y118.823 E5.2639
G1 X98.483 Y118.333 E5.28443
G1 X98.077 Y117.884 E5.30255
G1 X97.64 Y117.358 E5.32302
G1 X97.276 Y116.882 E5.34096
G1 X96.882 Y116.321 E5.36148
G1 X96.558 Y115.818 E5.37939
G1 X96.213 Y115.231 E5.39977
G1 X95.919 Y114.678 E5.41852
G1 X95.621 Y114.056 E5.43916
G1 X95.393 Y113.527 E5.45641
G1 X95.146 Y112.888 E5.47691
G1 X94.946 Y112.299 E5.49553
G1 X94.754 Y111.643 E5.51599
G1 X94.612 Y111.073 E5.53358
G1 X94.472 Y110.401 E5.55412
G1 X94.372 Y109.799 E5.57239
G1 X94.288 Y109.119 E5.5929
G1 X94.239 Y108.528 E5.61065
G1 X94.21 Y107.849 E5.631
G1 X94.209 Y107.233 E5.64944
G1 X94.237 Y106.543 E5.67011
G1 X94.287 Y105.934 E5.6884
G1 X94.371 Y105.255 E5.70888
G1 X94.468 Y104.667 E5.72672
G1 X94.607 Y103.994 E5.74729
G1 X94.752 Y103.412 E5.76524
G1 X94.944 Y102.756 E5.7857
G1 X95.139 Y102.18 E5.80391
G1 X95.385 Y101.54 E5.82443
G1 X95.622 Y100.99 E5.84236
G1 X95.919 Y100.372 E5.86288
G1 X96.198 Y99.846 E5.88071
G1 X96.543 Y99.255 E5.90119
G1 X96.877 Y98.734 E5.91972
G1 X97.268 Y98.177 E5.94009
G1 X97.637 Y97.696 E5.95824
G1 X98.078 Y97.166 E5.97887
G1 X98.469 Y96.732 E5.99636
G1 X98.948 Y96.241 E6.01689
M204 S2000
G0 F7500 X99.234 Y96.52
M204 S500
G1 F1500 X99.671 Y96.109 E6.03485
G1 X100.19 Y95.661 E6.05537
G1 X100.62 Y95.319 E6.07182
G1 X101.174 Y94.912 E6.0924
G1 X101.658 Y94.586 E6.10987
G1 X102.24 Y94.229 E6.13031
G1 X102.741 Y93.949 E6.14749
G1 X103.354 Y93.639 E6.16805
G1 X103.85 Y93.412 E6.18438
G1 X104.482 Y93.152 E6.20483
G1 X105.036 Y92.951 E6.22247
G1 X105.691 Y92.744 E6.24304
G1 X106.242 Y92.594 E6.26013
G1 X106.908 Y92.442 E6.28058
G1 X107.469 Y92.338 E6.29766
G1 X108.15 Y92.24 E6.31825
G1 X108.717 Y92.182 E6.33532
G1 X109.4 Y92.14 E6.3558
G1 X109.963 Y92.128 E6.37266
G1 X110.647 Y92.141 E6.39313
G1 X111.24 Y92.178 E6.41092
G1 X111.921 Y92.249 E6.43142
G1 X112.45 Y92.324 E6.44741
G1 X113.125 Y92.447 E6.46795
G1 X113.709 Y92.58 E6.48588
G1 X114.37 Y92.76 E6.50638
G1 X114.915 Y92.932 E6.52349
G1 X115.561 Y93.166 E6.54406
G1 X116.076 Y93.376 E6.56071
G1 X116.698 Y93.659 E6.58116
G1 X117.22 Y93.924 E6.59869
G1 X117.818 Y94.259 E6.6192
G1 X118.299 Y94.554 E6.63609
G1 X118.868 Y94.936 E6.65661
G1 X119.333 Y95.277 E6.67387
G1 X119.868 Y95.704 E6.69436
G1 X120.29 Y96.07 E6.71108
G1 X120.791 Y96.54 E6.73164
G1 X121.196 Y96.953 E6.74896
G1 X121.654 Y97.46 E6.76941
G1 X122.024 Y97.905 E6.78674
G1 X122.44 Y98.45 E6.80726
G1 X122.761 Y98.907 E6.82398
G1 X123.132 Y99.483 E6.84449
G1 X123.418 Y99.968 E6.86134
G1 X123.742 Y100.573 E6.88188
G1 X123.998 Y101.105 E6.89956
G1 X124.269 Y101.733 E6.92003
G1 X124.471 Y102.259 E6.9369
G1 X124.691 Y102.908 E6.95741
G1 X124.854 Y103.46 E6.97464
G1 X125.02 Y104.125 E6.99516
G1 X125.134 Y104.677 E7.01203
G1 X125.246 Y105.354 E7.03257
G1 X125.317 Y105.924 E7.04976
G1 X125.373 Y106.606 E7.07025
G1 X125.396 Y107.169 E7.08711
G1 X125.397 Y107.854 E7.10762
G1 X125.374 Y108.426 E7.12476
G1 X125.319 Y109.109 E7.14527
G1 X125.248 Y109.688 E7.16273
G1 X125.136 Y110.366 E7.1833
G1 X125.021 Y110.923 E7.20032
G1 X124.855 Y111.587 E7.22081
G1 X124.696 Y112.13 E7.23775
G1 X124.477 Y112.778 E7.25822
G1 X124.273 Y113.308 E7.27522
G1 X124.001 Y113.939 E7.29579
G1 X123.75 Y114.461 E7.31313
G1 X123.428 Y115.065 E7.33362
G1 X123.136 Y115.562 E7.35087
G1 X122.765 Y116.138 E7.37138
G1 X122.444 Y116.595 E7.3881
G1 X122.028 Y117.14 E7.40862
G1 X121.658 Y117.586 E7.42597
G1 X121.199 Y118.094 E7.44646
G1 X120.81 Y118.492 E7.46312
G1 X120.311 Y118.963 E7.48366
G1 X119.866 Y119.348 E7.50128
G1 X119.331 Y119.774 E7.52175
G1 X118.875 Y120.108 E7.53867
G1 X118.305 Y120.491 E7.55923
G1 X117.831 Y120.783 E7.57589
G1 X117.235 Y121.118 E7.59636
G1 X116.709 Y121.385 E7.61401
G1 X116.086 Y121.669 E7.63451
G1 X115.566 Y121.882 E7.65133
G1 X114.92 Y122.116 E7.6719
G1 X114.375 Y122.288 E7.68901
G1 X113.714 Y122.468 E7.70951
G1 X113.151 Y122.597 E7.7268
G1 X112.477 Y122.722 E7.74732
G1 X111.916 Y122.802 E7.76428
G1 X111.234 Y122.872 E7.78481
G1 X110.662 Y122.908 E7.80196
G1 X109.979 Y122.922 E7.82241
G1 X109.417 Y122.91 E7.83924
G1 X108.733 Y122.869 E7.85975
G1 X108.163 Y122.812 E7.8769
G1 X107.483 Y122.715 E7.89746
G1 X106.905 Y122.607 E7.91506
G1 X106.239 Y122.454 E7.93552
G1 X105.703 Y122.309 E7.95214
G1 X105.049 Y122.103 E7.97266
G1 X104.503 Y121.905 E7.99005
G1 X103.867 Y121.645 E8.01062
G1 X103.353 Y121.411 E8.02752
G1 X102.741 Y121.101 E8.04806
G1 X102.247 Y120.825 E8.065
G1 X101.666 Y120.469 E8.08539
G1 X101.195 Y120.154 E8.10235
G1 X100.643 Y119.751 E8.12281
G1 X100.189 Y119.389 E8.14019
G1 X99.667 Y118.937 E8.16086
G1 X99.248 Y118.543 E8.17808
G1 X98.768 Y118.053 E8.19861
G1 X98.385 Y117.628 E8.21574
G1 X97.948 Y117.102 E8.23621
G1 X97.604 Y116.652 E8.25317
G1 X97.21 Y116.091 E8.27369
G1 X96.903 Y115.615 E8.29064
G1 X96.558 Y115.028 E8.31102
G1 X96.28 Y114.505 E8.32875
G1 X95.982 Y113.883 E8.3494
G1 X95.766 Y113.383 E8.3657
G1 X95.519 Y112.744 E8.38621
G1 X95.33 Y112.186 E8.40384
G1 X95.138 Y111.53 E8.4243
G1 X95.003 Y110.992 E8.44091
G1 X94.863 Y110.32 E8.46146
G1 X94.769 Y109.75 E8.47875
G1 X94.685 Y109.07 E8.49926
G1 X94.638 Y108.511 E8.51605
G1 X94.609 Y107.832 E8.5364
G1 X94.609 Y107.249 E8.55385
G1 X94.637 Y106.559 E8.57452
G1 X94.684 Y105.984 E8.59179
G1 X94.768 Y105.305 E8.61227
G1 X94.86 Y104.748 E8.62917
G1 X94.999 Y104.075 E8.64974
G1 X95.136 Y103.525 E8.66671
G1 X95.328 Y102.869 E8.68717
G1 X95.512 Y102.324 E8.70438
G1 X95.758 Y101.684 E8.72491
G1 X95.983 Y101.163 E8.7419
G1 X96.28 Y100.545 E8.76242
G1 X96.544 Y100.048 E8.77927
G1 X96.889 Y99.457 E8.79975
G1 X97.205 Y98.964 E8.81728
G1 X97.596 Y98.407 E8.83765
G1 X97.944 Y97.952 E8.8548
G1 X98.385 Y97.422 E8.87544
G1 X98.755 Y97.011 E8.89199
G1 X99.234 Y96.52 E8.91253
M204 S2000
G0 F7500 X99.521 Y96.799
M204 S500
G1 F1500 X99.932 Y96.412 E8.92942
G1 X100.451 Y95.964 E8.94995
G1 X100.856 Y95.641 E8.96545
G1 X101.41 Y95.234 E8.98603
G1 X101.867 Y94.927 E9.00251
G1 X102.449 Y94.57 E9.02295
G1 X102.922 Y94.306 E9.03916
G1 X103.535 Y93.996 E9.05973
G1 X104.002 Y93.782 E9.0751
G1 X104.634 Y93.522 E9.09556
G1 X105.156 Y93.333 E9.11218
G1 X105.811 Y93.126 E9.13274
G1 X106.331 Y92.984 E9.14888
G1 X106.997 Y92.832 E9.16933
G1 X107.526 Y92.734 E9.18543
G1 X108.207 Y92.636 E9.20603
G1 X108.742 Y92.581 E9.22213
G1 X109.425 Y92.539 E9.24261
G1 X109.955 Y92.528 E9.25848
G1 X110.639 Y92.541 E9.27896
G1 X111.198 Y92.576 E9.29572
G1 X111.879 Y92.647 E9.31622
G1 X112.378 Y92.718 E9.33131
G1 X113.053 Y92.841 E9.35184
G1 X113.604 Y92.966 E9.36876
G1 X114.265 Y93.146 E9.38926
G1 X114.779 Y93.309 E9.4054
G1 X115.425 Y93.543 E9.42597
G1 X115.91 Y93.741 E9.44165
G1 X116.532 Y94.024 E9.46211
G1 X117.025 Y94.273 E9.47864
G1 X117.623 Y94.608 E9.49916
G1 X118.076 Y94.886 E9.51507
G1 X118.645 Y95.268 E9.53558
G1 X119.083 Y95.59 E9.55186
G1 X119.618 Y96.017 E9.57235
G1 X120.017 Y96.362 E9.58814
G1 X120.518 Y96.832 E9.6087
G1 X120.9 Y97.221 E9.62502
G1 X121.358 Y97.728 E9.64547
G1 X121.706 Y98.147 E9.66178
G1 X122.122 Y98.692 E9.6823
G1 X122.425 Y99.123 E9.69807
G1 X122.796 Y99.699 E9.71858
G1 X123.065 Y100.157 E9.73448
G1 X123.389 Y100.762 E9.75502
G1 X123.631 Y101.263 E9.77168
G1 X123.902 Y101.891 E9.79215
G1 X124.093 Y102.387 E9.80806
G1 X124.313 Y103.036 E9.82858
G1 X124.466 Y103.557 E9.84483
G1 X124.632 Y104.222 E9.86535
