;FLAVOR:Marlin
;TIME:3308
;Filament used: 1.0962m
;Layer height: 0.2
;MINX:96.219
;MINY:95.92
;MINZ:0.2
;MAXX:123.793
;MAXY:123.506
;MAXZ:65.8
;Generated with Cura_SteamEngine 5.2.2
M82 ;absolute extrusion mode
; Ender 3 S1 Start G-code
G92 E0 ; Reset Extruder
G28 ; Home all axes
G1 Z10.0 F3000 ; Move Z Axis up little to prevent scratching of Heat Bed
G1 X0 Y0

M104 S205.0
M190 S0
M109 S205.0

G1 X0.1 Y20 Z0.3 F5000.0 ; Move to start position
G1 X0.1 Y200.0 Z0.3 F1500.0 E15 ; Draw the first line
G1 X0.4 Y200.0 Z0.3 F5000.0 ; Move to side a little
G1 X0.4 Y20 Z0.3 F1500.0 E30 ; Draw the second line
G92 E0 ; Reset Extruder
G1 Z2.0 F3000 ; Move Z Axis up little to prevent scratching of Heat Bed
G1 X5 Y20 Z0.3 F5000.0 ; Move over to prevent blob squish

G92 E0
G92 E0
G1 F2400 E-1
;LAYER_COUNT:331
;LAYER:0
M107
M204 S2000
G1 F300 Z0.4
G0 F7500 X100.146 Y100.065 Z0.4
M204 S500
;TYPE:SKIRT
G1 F300 Z0.2
G1 F2400 E0
G1 F1500 X100.675 Y99.553 E0.02204
G1 X101.393 Y98.938 E0.05034
G1 X101.985 Y98.49 E0.07256
G1 X102.79 Y97.956 E0.10148
G1 X103.427 Y97.588 E0.1235
G1 X104.285 Y97.161 E0.15219
G1 X104.962 Y96.874 E0.1742
G1 X105.873 Y96.552 E0.20312
G1 X106.587 Y96.349 E0.22534
G1 X107.53 Y96.143 E0.25423
G1 X108.262 Y96.03 E0.27641
G1 X109.209 Y95.943 E0.30487
G1 X109.946 Y95.92 E0.32694
G1 X110.902 Y95.949 E0.35557
G1 X111.632 Y96.016 E0.37752
G1 X112.601 Y96.167 E0.40687
G1 X113.33 Y96.328 E0.42922
G1 X114.238 Y96.587 E0.45749
G1 X114.934 Y96.832 E0.47957
G1 X115.828 Y97.21 E0.50863
G1 X116.487 Y97.539 E0.53068
G1 X117.3 Y98.009 E0.55879
G1 X117.918 Y98.417 E0.58096
G1 X118.691 Y98.999 E0.60992
G1 X119.251 Y99.478 E0.63198
G1 X119.944 Y100.149 E0.66085
G1 X120.442 Y100.695 E0.68297
G1 X121.047 Y101.447 E0.71187
G1 X121.47 Y102.045 E0.73379
G1 X121.975 Y102.861 E0.76252
G1 X122.327 Y103.517 E0.7848
G1 X122.73 Y104.394 E0.81369
G1 X122.997 Y105.085 E0.83587
G1 X123.281 Y105.974 E0.86381
G1 X123.461 Y106.682 E0.88567
G1 X123.643 Y107.651 E0.91519
G1 X123.734 Y108.39 E0.93747
G1 X123.792 Y109.332 E0.96573
G1 X123.793 Y110.071 E0.98785
G1 X123.734 Y111.039 E1.01688
G1 X123.643 Y111.775 E1.03908
G1 X123.463 Y112.735 E1.06831
G1 X123.282 Y113.449 E1.09036
G1 X122.998 Y114.341 E1.11839
G1 X122.732 Y115.03 E1.14049
G1 X122.327 Y115.911 E1.16952
G1 X121.978 Y116.561 E1.1916
G1 X121.477 Y117.37 E1.22009
G1 X121.054 Y117.969 E1.24204
G1 X120.434 Y118.74 E1.27165
G1 X119.93 Y119.29 E1.29398
G1 X119.266 Y119.933 E1.32165
G1 X118.708 Y120.413 E1.34369
G1 X117.933 Y121 E1.37279
G1 X117.321 Y121.406 E1.39477
G1 X116.489 Y121.887 E1.42354
G1 X115.823 Y122.219 E1.44582
G1 X114.933 Y122.595 E1.47474
G1 X114.237 Y122.84 E1.49682
G1 X113.32 Y123.101 E1.52536
G1 X112.596 Y123.26 E1.54755
G1 X111.643 Y123.409 E1.57643
G1 X110.909 Y123.477 E1.59849
G1 X109.946 Y123.506 E1.62733
G1 X109.208 Y123.483 E1.64943
G1 X108.261 Y123.396 E1.6779
G1 X107.529 Y123.283 E1.70007
G1 X106.592 Y123.078 E1.72878
G1 X105.883 Y122.877 E1.75084
G1 X104.958 Y122.551 E1.7802
G1 X104.276 Y122.261 E1.80239
G1 X103.434 Y121.842 E1.83054
G1 X102.797 Y121.475 E1.85255
G1 X101.984 Y120.936 E1.88174
G1 X101.392 Y120.488 E1.90397
G1 X100.664 Y119.862 E1.93271
G1 X100.136 Y119.349 E1.95475
G1 X99.493 Y118.643 E1.98333
G1 X99.029 Y118.066 E2.00549
G1 X98.478 Y117.288 E2.03403
G1 X98.088 Y116.659 E2.05619
G1 X97.635 Y115.818 E2.08478
G1 X97.328 Y115.153 E2.10671
G1 X96.971 Y114.23 E2.13633
G1 X96.748 Y113.523 E2.15852
G1 X96.521 Y112.618 E2.18645
G1 X96.384 Y111.889 E2.20865
G1 X96.265 Y110.936 E2.2374
G1 X96.219 Y110.202 E2.25942
G1 X96.219 Y109.227 E2.2886
G1 X96.265 Y108.491 E2.31068
G1 X96.382 Y107.549 E2.33909
G1 X96.518 Y106.819 E2.36132
G1 X96.752 Y105.887 E2.39009
G1 X96.975 Y105.185 E2.41213
G1 X97.326 Y104.279 E2.44122
G1 X97.635 Y103.609 E2.4633
G1 X98.087 Y102.769 E2.49186
G1 X98.476 Y102.141 E2.51397
G1 X99.024 Y101.365 E2.54241
G1 X99.488 Y100.787 E2.5646
G1 X100.146 Y100.065 E2.59384
M204 S2000
G0 F7500 X100.425 Y100.353
M204 S500
G1 F1500 X100.954 Y99.841 E2.61587
G1 X101.635 Y99.257 E2.64273
G1 X102.227 Y98.809 E2.66495
G1 X102.99 Y98.302 E2.69237
G1 X103.627 Y97.934 E2.7144
G1 X104.441 Y97.529 E2.74161
G1 X105.118 Y97.242 E2.76362
G1 X105.982 Y96.937 E2.79105
G1 X106.696 Y96.734 E2.81327
G1 X107.591 Y96.539 E2.84069
G1 X108.323 Y96.426 E2.86286
G1 X109.221 Y96.343 E2.88986
G1 X109.958 Y96.32 E2.91193
G1 X110.865 Y96.347 E2.93909
G1 X111.595 Y96.414 E2.96103
G1 X112.515 Y96.557 E2.9889
G1 X113.244 Y96.718 E3.01125
G1 X114.105 Y96.964 E3.03806
G1 X114.801 Y97.209 E3.06014
G1 X115.649 Y97.568 E3.08771
G1 X116.308 Y97.897 E3.10976
G1 X117.08 Y98.342 E3.13643
G1 X117.698 Y98.75 E3.1586
G1 X118.431 Y99.303 E3.18608
G1 X118.991 Y99.782 E3.20814
G1 X119.648 Y100.418 E3.23551
G1 X120.146 Y100.964 E3.25764
G1 X120.72 Y101.678 E3.28506
G1 X121.143 Y102.276 E3.30699
G1 X121.623 Y103.05 E3.33425
G1 X121.975 Y103.706 E3.35653
G1 X122.357 Y104.538 E3.38394
G1 X122.624 Y105.229 E3.40611
G1 X122.893 Y106.073 E3.43263
G1 X123.073 Y106.781 E3.4545
G1 X123.246 Y107.7 E3.48249
G1 X123.337 Y108.439 E3.50478
G1 X123.392 Y109.333 E3.53159
G1 X123.393 Y110.072 E3.55371
G1 X123.337 Y110.99 E3.58124
G1 X123.246 Y111.726 E3.60344
G1 X123.075 Y112.636 E3.63116
G1 X122.894 Y113.35 E3.65321
G1 X122.624 Y114.197 E3.67982
G1 X122.358 Y114.886 E3.70193
G1 X121.975 Y115.722 E3.72945
G1 X121.626 Y116.372 E3.75154
G1 X121.151 Y117.14 E3.77857
G1 X120.728 Y117.739 E3.80052
G1 X120.139 Y118.469 E3.8286
G1 X119.635 Y119.019 E3.85093
G1 X119.005 Y119.63 E3.8772
G1 X118.447 Y120.11 E3.89923
G1 X117.712 Y120.666 E3.92682
G1 X117.1 Y121.072 E3.9488
G1 X116.31 Y121.529 E3.97612
G1 X115.644 Y121.861 E3.9984
G1 X114.8 Y122.218 E4.02583
G1 X114.104 Y122.463 E4.04792
G1 X113.234 Y122.711 E4.075
G1 X112.51 Y122.87 E4.09719
G1 X111.606 Y123.01 E4.12457
G1 X110.872 Y123.078 E4.14663
G1 X109.958 Y123.106 E4.17401
G1 X109.22 Y123.083 E4.19611
G1 X108.322 Y123 E4.22311
G1 X107.59 Y122.887 E4.24528
G1 X106.701 Y122.693 E4.27251
G1 X105.992 Y122.492 E4.29457
G1 X105.114 Y122.183 E4.32244
G1 X104.432 Y121.893 E4.34462
G1 X103.634 Y121.495 E4.37131
G1 X102.997 Y121.128 E4.39332
G1 X102.226 Y120.617 E4.42101
G1 X101.634 Y120.169 E4.44323
G1 X100.942 Y119.575 E4.47053
G1 X100.414 Y119.062 E4.49257
G1 X99.804 Y118.392 E4.51969
G1 X99.34 Y117.815 E4.54185
G1 X98.818 Y117.077 E4.56891
G1 X98.428 Y116.448 E4.59107
G1 X97.998 Y115.651 E4.61818
G1 X97.691 Y114.986 E4.6401
G1 X97.353 Y114.11 E4.66821
G1 X97.13 Y113.403 E4.6904
G1 X96.914 Y112.544 E4.71691
G1 X96.777 Y111.815 E4.73912
G1 X96.664 Y110.911 E4.76639
G1 X96.618 Y110.177 E4.7884
G1 X96.618 Y109.252 E4.81609
G1 X96.664 Y108.516 E4.83817
G1 X96.775 Y107.623 E4.8651
G1 X96.911 Y106.893 E4.88733
G1 X97.133 Y106.008 E4.91464
G1 X97.356 Y105.306 E4.93669
G1 X97.689 Y104.447 E4.96427
G1 X97.998 Y103.777 E4.98636
G1 X98.427 Y102.979 E5.01348
G1 X98.816 Y102.351 E5.03559
G1 X99.336 Y101.616 E5.06254
G1 X99.8 Y101.038 E5.08473
G1 X100.425 Y100.353 E5.11248
M204 S2000
G0 F7500 X100.703 Y100.64
M204 S500
G1 F1500 X101.232 Y100.128 E5.13452
G1 X101.876 Y99.576 E5.15991
G1 X102.468 Y99.128 E5.18214
G1 X103.19 Y98.649 E5.20807
G1 X103.827 Y98.281 E5.23009
G1 X104.597 Y97.897 E5.25585
G1 X105.274 Y97.61 E5.27786
G1 X106.092 Y97.322 E5.30382
G1 X106.806 Y97.119 E5.32604
G1 X107.652 Y96.934 E5.35196
G1 X108.384 Y96.821 E5.37413
G1 X109.234 Y96.742 E5.39969
G1 X109.971 Y96.719 E5.42176
G1 X110.829 Y96.745 E5.44745
G1 X111.559 Y96.812 E5.4694
G1 X112.429 Y96.948 E5.49576
G1 X113.158 Y97.109 E5.51811
G1 X113.972 Y97.341 E5.54344
G1 X114.668 Y97.586 E5.56553
G1 X115.471 Y97.926 E5.59163
G1 X116.13 Y98.255 E5.61368
G1 X116.86 Y98.676 E5.63891
G1 X117.478 Y99.084 E5.66107
G1 X118.171 Y99.607 E5.68706
G1 X118.731 Y100.086 E5.70912
G1 X119.353 Y100.688 E5.73503
G1 X119.851 Y101.234 E5.75715
G1 X120.394 Y101.909 E5.78309
G1 X120.817 Y102.507 E5.80501
G1 X121.27 Y103.239 E5.83078
G1 X121.622 Y103.895 E5.85307
G1 X121.984 Y104.682 E5.879
G1 X122.251 Y105.373 E5.90117
G1 X122.505 Y106.171 E5.92624
G1 X122.685 Y106.879 E5.94811
G1 X122.849 Y107.748 E5.97458
G1 X122.94 Y108.487 E5.99687
G1 X122.992 Y109.334 E6.02227
G1 X122.993 Y110.073 E6.04439
G1 X122.94 Y110.941 E6.07042
G1 X122.849 Y111.677 E6.09262
G1 X122.687 Y112.538 E6.11885
G1 X122.506 Y113.252 E6.1409
G1 X122.251 Y114.053 E6.16606
G1 X121.985 Y114.742 E6.18817
G1 X121.622 Y115.532 E6.21419
G1 X121.273 Y116.182 E6.23628
G1 X120.824 Y116.909 E6.26185
G1 X120.401 Y117.508 E6.2838
G1 X119.844 Y118.199 E6.31037
G1 X119.34 Y118.749 E6.3327
G1 X118.744 Y119.327 E6.35756
G1 X118.186 Y119.807 E6.37959
G1 X117.491 Y120.333 E6.40568
G1 X116.879 Y120.739 E6.42766
G1 X116.132 Y121.171 E6.45349
G1 X115.466 Y121.503 E6.47577
G1 X114.667 Y121.841 E6.50174
G1 X113.971 Y122.086 E6.52383
G1 X113.149 Y122.32 E6.54941
G1 X112.425 Y122.479 E6.5716
G1 X111.569 Y122.612 E6.59753
G1 X110.835 Y122.68 E6.6196
G1 X109.971 Y122.707 E6.64547
G1 X109.233 Y122.684 E6.66757
G1 X108.383 Y122.605 E6.69313
G1 X107.651 Y122.492 E6.7153
G1 X106.81 Y122.309 E6.74106
G1 X106.101 Y122.108 E6.76312
G1 X105.271 Y121.815 E6.78947
G1 X104.589 Y121.525 E6.81165
G1 X103.834 Y121.148 E6.83692
G1 X103.197 Y120.781 E6.85892
G1 X102.467 Y120.298 E6.88512
G1 X101.875 Y119.85 E6.90735
G1 X101.221 Y119.289 E6.93314
G1 X100.693 Y118.776 E6.95518
G1 X100.116 Y118.142 E6.98084
G1 X99.652 Y117.565 E7.003
G1 X99.158 Y116.867 E7.0286
G1 X98.768 Y116.238 E7.05075
G1 X98.362 Y115.483 E7.07641
G1 X98.055 Y114.818 E7.09834
G1 X97.734 Y113.99 E7.12492
G1 X97.511 Y113.283 E7.14711
G1 X97.307 Y112.47 E7.1722
G1 X97.17 Y111.741 E7.19441
G1 X97.064 Y110.886 E7.2202
G1 X97.018 Y110.152 E7.24221
G1 X97.018 Y109.277 E7.2684
G1 X97.064 Y108.541 E7.29048
G1 X97.168 Y107.696 E7.31596
G1 X97.304 Y106.966 E7.33819
G1 X97.515 Y106.129 E7.36403
G1 X97.738 Y105.427 E7.38608
G1 X98.052 Y104.614 E7.41217
G1 X98.361 Y103.944 E7.43425
G1 X98.767 Y103.19 E7.45989
G1 X99.156 Y102.562 E7.482
G1 X99.648 Y101.866 E7.50752
G1 X100.112 Y101.288 E7.5297
G1 X100.703 Y100.64 E7.55596
M204 S2000
G0 F7500 X100.981 Y100.928
M204 S500
G1 F1500 X101.51 Y100.416 E7.57799
G1 X102.117 Y99.895 E7.60194
G1 X102.709 Y99.447 E7.62416
G1 X103.39 Y98.995 E7.64863
G1 X104.027 Y98.627 E7.67065
G1 X104.753 Y98.265 E7.69493
G1 X105.43 Y97.978 E7.71695
G1 X106.201 Y97.707 E7.74141
G1 X106.915 Y97.504 E7.76363
G1 X107.713 Y97.329 E7.78808
G1 X108.445 Y97.216 E7.81025
G1 X109.246 Y97.142 E7.83433
G1 X109.983 Y97.119 E7.85641
G1 X110.792 Y97.144 E7.88063
G1 X111.522 Y97.211 E7.90258
G1 X112.342 Y97.338 E7.92742
G1 X113.071 Y97.499 E7.94976
G1 X113.839 Y97.718 E7.97367
G1 X114.535 Y97.963 E7.99576
G1 X115.292 Y98.284 E8.02037
G1 X115.951 Y98.613 E8.04242
G1 X116.639 Y99.01 E8.0662
G1 X117.257 Y99.418 E8.08836
G1 X117.911 Y99.91 E8.11286
G1 X118.471 Y100.389 E8.13492
G1 X119.057 Y100.957 E8.15935
G1 X119.555 Y101.503 E8.18147
G1 X120.067 Y102.14 E8.20594
G1 X120.49 Y102.738 E8.22786
G1 X120.918 Y103.428 E8.25217
G1 X121.27 Y104.084 E8.27445
G1 X121.61 Y104.826 E8.29888
G1 X121.877 Y105.517 E8.32106
G1 X122.118 Y106.27 E8.34473
G1 X122.298 Y106.978 E8.36659
G1 X122.452 Y107.797 E8.39154
G1 X122.543 Y108.536 E8.41383
G1 X122.592 Y109.334 E8.43776
G1 X122.593 Y110.073 E8.45988
G1 X122.543 Y110.892 E8.48444
G1 X122.452 Y111.628 E8.50664
G1 X122.3 Y112.44 E8.53137
G1 X122.119 Y113.154 E8.55342
G1 X121.878 Y113.909 E8.57714
G1 X121.612 Y114.598 E8.59925
G1 X121.27 Y115.343 E8.62379
G1 X120.921 Y115.993 E8.64587
G1 X120.497 Y116.678 E8.66999
G1 X120.074 Y117.277 E8.69194
G1 X119.549 Y117.929 E8.717
G1 X119.045 Y118.479 E8.73933
G1 X118.483 Y119.023 E8.76274
G1 X117.925 Y119.503 E8.78478
G1 X117.27 Y120 E8.80939
G1 X116.658 Y120.406 E8.83137
G1 X115.954 Y120.813 E8.85571
G1 X115.288 Y121.145 E8.87799
G1 X114.534 Y121.464 E8.9025
G1 X113.838 Y121.709 E8.92458
G1 X113.063 Y121.929 E8.9487
G1 X112.339 Y122.088 E8.97089
G1 X111.532 Y122.214 E8.99534
G1 X110.798 Y122.282 E9.0174
G1 X109.983 Y122.307 E9.04181
G1 X109.245 Y122.284 E9.06391
G1 X108.444 Y122.21 E9.08799
G1 X107.712 Y122.097 E9.11016
G1 X106.919 Y121.924 E9.13446
G1 X106.21 Y121.723 E9.15652
G1 X105.427 Y121.447 E9.18137
G1 X104.745 Y121.157 E9.20356
G1 X104.033 Y120.802 E9.22737
G1 X103.396 Y120.435 E9.24938
G1 X102.708 Y119.979 E9.27409
G1 X102.116 Y119.531 E9.29631
G1 X101.5 Y119.002 E9.32061
G1 X100.972 Y118.489 E9.34265
G1 X100.428 Y117.891 E9.36685
G1 X99.964 Y117.314 E9.38901
G1 X99.498 Y116.656 E9.41315
G1 X99.108 Y116.027 E9.4353
G1 X98.725 Y115.315 E9.45951
G1 X98.418 Y114.65 E9.48143
G1 X98.116 Y113.869 E9.5065
G1 X97.893 Y113.162 E9.52869
G1 X97.701 Y112.396 E9.55233
G1 X97.564 Y111.667 E9.57453
G1 X97.463 Y110.861 E9.59885
G1 X97.417 Y110.127 E9.62086
G1 X97.417 Y109.302 E9.64556
G1 X97.463 Y108.566 E9.66763
G1 X97.562 Y107.769 E9.69167
G1 X97.698 Y107.039 E9.7139
G1 X97.896 Y106.25 E9.73825
G1 X98.119 Y105.548 E9.7603
G1 X98.416 Y104.782 E9.78489
G1 X98.725 Y104.112 E9.80698
G1 X99.107 Y103.401 E9.83114
G1 X99.496 Y102.773 E9.85325
G1 X99.96 Y102.116 E9.87733
G1 X100.424 Y101.538 E9.89951
G1 X100.981 Y100.928 E9.92424
M204 S2000
G0 F7500 X101.259 Y101.215
M204 S500
G1 F1500 X101.788 Y100.703 E9.94628
G1 X102.359 Y100.214 E9.96878
G1 X102.951 Y99.766 E9.99101
G1 X103.591 Y99.341 E10.014
G1 X104.228 Y98.973 E10.03602
G1 X104.909 Y98.634 E10.0588
G1 X105.586 Y98.347 E10.08081
G1 X106.31 Y98.091 E10.10379
G1 X107.024 Y97.888 E10.12601
G1 X107.774 Y97.725 E10.14899
G1 X108.506 Y97.612 E10.17116
G1 X109.259 Y97.542 E10.1938
G1 X109.996 Y97.519 E10.21587
G1 X110.756 Y97.542 E10.23863
G1 X111.486 Y97.609 E10.26057
G1 X112.256 Y97.729 E10.2839
G1 X112.985 Y97.89 E10.30625
G1 X113.707 Y98.096 E10.32872
G1 X114.403 Y98.341 E10.35081
G1 X115.113 Y98.642 E10.3739
G1 X115.772 Y98.971 E10.39594
G1 X116.419 Y99.344 E10.4183
G1 X117.037 Y99.752 E10.44047
G1 X117.651 Y100.214 E10.46347
G1 X118.211 Y100.693 E10.48553
G1 X118.762 Y101.227 E10.5085
G1 X119.26 Y101.773 E10.53062
G1 X119.741 Y102.371 E10.55359
G1 X120.164 Y102.969 E10.57552
G1 X120.565 Y103.618 E10.59835
G1 X120.917 Y104.274 E10.62064
G1 X121.237 Y104.97 E10.64357
G1 X121.504 Y105.661 E10.66574
G1 X121.73 Y106.368 E10.68796
G1 X121.91 Y107.076 E10.70983
G1 X122.055 Y107.846 E10.73328
G1 X122.146 Y108.585 E10.75557
G1 X122.192 Y109.335 E10.77806
G1 X122.193 Y110.074 E10.80019
G1 X122.146 Y110.843 E10.82325
G1 X122.055 Y111.579 E10.84545
G1 X121.912 Y112.342 E10.86868
G1 X121.731 Y113.056 E10.89073
G1 X121.505 Y113.765 E10.91301
G1 X121.239 Y114.454 E10.93512
G1 X120.917 Y115.154 E10.95818
G1 X120.568 Y115.804 E10.98027
G1 X120.17 Y116.447 E11.0029
G1 X119.747 Y117.046 E11.02485
G1 X119.254 Y117.659 E11.0484
G1 X118.75 Y118.209 E11.07073
G1 X118.222 Y118.72 E11.09273
G1 X117.664 Y119.2 E11.11476
G1 X117.048 Y119.666 E11.13788
G1 X116.436 Y120.072 E11.15987
G1 X115.775 Y120.455 E11.18273
G1 X115.109 Y120.787 E11.20501
G1 X114.402 Y121.086 E11.22799
G1 X113.706 Y121.331 E11.25007
G1 X112.977 Y121.539 E11.27277
G1 X112.253 Y121.698 E11.29496
G1 X111.495 Y121.816 E11.31792
G1 X110.761 Y121.884 E11.33999
G1 X109.996 Y121.907 E11.3629
G1 X109.258 Y121.884 E11.385
G1 X108.505 Y121.814 E11.40764
G1 X107.773 Y121.701 E11.42981
G1 X107.028 Y121.539 E11.45263
G1 X106.319 Y121.338 E11.47469
G1 X105.584 Y121.079 E11.49802
G1 X104.902 Y120.789 E11.5202
G1 X104.233 Y120.455 E11.54258
G1 X103.596 Y120.088 E11.56459
G1 X102.95 Y119.66 E11.58779
G1 X102.358 Y119.212 E11.61001
G1 X101.779 Y118.715 E11.63285
G1 X101.251 Y118.202 E11.65489
G1 X100.739 Y117.64 E11.67764
G1 X100.275 Y117.063 E11.69981
G1 X99.838 Y116.445 E11.72247
G1 X99.448 Y115.816 E11.74462
G1 X99.088 Y115.148 E11.76733
G1 X98.781 Y114.483 E11.78926
G1 X98.497 Y113.749 E11.81282
G1 X98.274 Y113.042 E11.83501
G1 X98.094 Y112.322 E11.85723
G1 X97.957 Y111.593 E11.87943
G1 X97.862 Y110.836 E11.90227
G1 X97.816 Y110.102 E11.92428
G1 X97.816 Y109.327 E11.94748
G1 X97.862 Y108.591 E11.96956
G1 X97.955 Y107.842 E11.99215
G1 X98.091 Y107.112 E12.01438
G1 X98.277 Y106.371 E12.03725
G1 X98.5 Y105.669 E12.05929
G1 X98.779 Y104.949 E12.08241
G1 X99.088 Y104.279 E12.10449
