;FLAVOR:Marlin
;TIME:20223
;Filament used: 13.9832m
;Layer height: 0.2
;MINX:10
;MINY:50.781
;MINZ:0.2
;MAXX:210
;MAXY:169.781
;MAXZ:40.2
;Generated with Cura_SteamEngine 5.2.2
M82 ;absolute extrusion mode
; Ender 3 S1 Start G-code
G92 E0 ; Reset Extruder
G28 ; Home all axes
G1 Z10.0 F3000 ; Move Z Axis up little to prevent scratching of Heat Bed
G1 X0 Y0

M104 S205.0
M190 S0
M109 S205.0

G1 X0.1 Y20 Z0.3 F5000.0 ; Move to start position
G1 X0.1 Y200.0 Z0.3 F1500.0 E15 ; Draw the first line
G1 X0.4 Y200.0 Z0.3 F5000.0 ; Move to side a little
G1 X0.4 Y20 Z0.3 F1500.0 E30 ; Draw the second line
G92 E0 ; Reset Extruder
G1 Z2.0 F3000 ; Move Z Axis up little to prevent scratching of Heat Bed
G1 X5 Y20 Z0.3 F5000.0 ; Move over to prevent blob squish

G92 E0
G92 E0
G1 F2400 E-1.2
;LAYER_COUNT:200
;LAYER:0
M107
M204 S2000
G1 F300 Z0.4
G0 F7500 X20.009 Y51.974 Z0.4
M204 S500
;TYPE:SKIRT
G1 F300 Z0.2
G1 F2400 E0
G1 F1500 X20.873 Y51.66 E0.02752
G1 X21.41 Y51.481 E0.04446
G1 X22.312 Y51.223 E0.07255
G1 X23.46 Y51.01 E0.1075
G1 X24.347 Y50.9 E0.13425
G1 X24.956 Y50.841 E0.15257
G1 X25.869 Y50.791 E0.17994
G1 X26.684 Y50.781 E0.20434
G1 X193.451 Y50.782 E5.19636
G1 X194.149 Y50.792 E5.21726
G1 X195.054 Y50.842 E5.24439
G1 X195.6 Y50.895 E5.26081
G1 X196.499 Y51.005 E5.28792
G1 X197.423 Y51.163 E5.31598
G1 X198.563 Y51.473 E5.35134
G1 X199.351 Y51.738 E5.37623
G1 X199.927 Y51.948 E5.39458
G1 X200.793 Y52.307 E5.42264
G1 X201.855 Y52.872 E5.45865
G1 X202.311 Y53.148 E5.47461
G1 X203.086 Y53.644 E5.50215
G1 X203.851 Y54.186 E5.53022
G1 X204.776 Y54.989 E5.56688
G1 X205.155 Y55.357 E5.5827
G1 X205.769 Y55.981 E5.6089
G1 X206.395 Y56.68 E5.63699
G1 X207.122 Y57.673 E5.67383
G1 X207.595 Y58.409 E5.70002
G1 X207.886 Y58.887 E5.71677
G1 X208.339 Y59.708 E5.74484
G1 X208.792 Y60.751 E5.77888
G1 X209.123 Y61.658 E5.80778
G1 X209.307 Y62.213 E5.82528
G1 X209.564 Y63.115 E5.85336
G1 X209.779 Y64.293 E5.8892
G1 X209.881 Y65.133 E5.91453
G1 X209.937 Y65.701 E5.93162
G1 X209.989 Y66.625 E5.95932
G1 X210 Y67.488 E5.98516
G1 X209.999 Y153.232 E8.55183
G1 X209.989 Y153.93 E8.57272
G1 X209.94 Y154.822 E8.59946
G1 X209.847 Y155.733 E8.62688
G1 X209.775 Y156.295 E8.64384
G1 X209.616 Y157.219 E8.6719
G1 X209.295 Y158.388 E8.70819
G1 X209.02 Y159.198 E8.7338
G1 X208.822 Y159.738 E8.75101
G1 X208.462 Y160.604 E8.77909
G1 X207.892 Y161.668 E8.81522
G1 X207.447 Y162.391 E8.84063
G1 X207.132 Y162.877 E8.85797
G1 X206.588 Y163.641 E8.88604
G1 X205.781 Y164.569 E8.92286
G1 X205.197 Y165.163 E8.94779
G1 X204.789 Y165.56 E8.96483
G1 X204.09 Y166.185 E8.9929
G1 X203.166 Y166.864 E9.02722
G1 X202.727 Y167.153 E9.04296
G1 X201.897 Y167.666 E9.07217
G1 X201.076 Y168.12 E9.10025
G1 X199.997 Y168.587 E9.13544
G1 X199.487 Y168.776 E9.15172
G1 X198.575 Y169.085 E9.18055
G1 X197.673 Y169.343 E9.20863
G1 X196.503 Y169.557 E9.24424
G1 X195.657 Y169.661 E9.26975
G1 X195.045 Y169.721 E9.28816
G1 X194.111 Y169.772 E9.31616
G1 X193.341 Y169.781 E9.33921
G1 X26.549 Y169.78 E14.33198
G1 X25.851 Y169.77 E14.35288
G1 X24.959 Y169.721 E14.37962
G1 X24.046 Y169.628 E14.40709
G1 X23.485 Y169.556 E14.42402
G1 X22.56 Y169.397 E14.45212
G1 X21.4 Y169.078 E14.48813
G1 X20.588 Y168.802 E14.5138
G1 X20.041 Y168.601 E14.53125
G1 X19.175 Y168.24 E14.55933
G1 X18.135 Y167.684 E14.59463
G1 X17.429 Y167.251 E14.61942
G1 X16.921 Y166.923 E14.63752
G1 X16.156 Y166.381 E14.66559
G1 X15.237 Y165.585 E14.70198
G1 X14.86 Y165.22 E14.71769
G1 X14.211 Y164.559 E14.74542
G1 X13.586 Y163.86 E14.77349
G1 X12.886 Y162.902 E14.809
G1 X12.399 Y162.145 E14.83595
G1 X12.104 Y161.659 E14.85297
G1 X11.652 Y160.837 E14.88105
G1 X11.195 Y159.78 E14.91552
G1 X10.875 Y158.898 E14.9436
G1 X10.69 Y158.339 E14.96123
G1 X10.434 Y157.437 E14.9893
G1 X10.22 Y156.263 E15.02502
G1 X10.153 Y155.733 E15.04101
G1 X10.059 Y154.803 E15.06899
G1 X10.009 Y153.89 E15.09636
G1 X10 Y153.122 E15.11935
G1 X10.001 Y67.33 E17.68746
G1 X10.011 Y66.632 E17.70836
G1 X10.061 Y65.727 E17.73549
G1 X10.149 Y64.868 E17.76134
G1 X10.222 Y64.289 E17.77881
G1 X10.379 Y63.364 E17.80689
G1 X10.707 Y62.168 E17.84401
G1 X10.987 Y61.348 E17.86995
G1 X11.186 Y60.808 E17.88718
G1 X11.547 Y59.943 E17.91524
G1 X12.106 Y58.901 E17.95063
G1 X12.56 Y58.163 E17.97657
G1 X12.879 Y57.672 E17.9941
G1 X13.423 Y56.908 E18.02217
G1 X14.212 Y56.002 E18.05813
G1 X14.582 Y55.621 E18.07403
G1 X15.214 Y55 E18.10056
G1 X15.913 Y54.375 E18.12862
G1 X16.888 Y53.661 E18.1648
G1 X17.654 Y53.169 E18.19205
G1 X18.124 Y52.884 E18.2085
G1 X18.946 Y52.433 E18.23657
G1 X20.009 Y51.974 E18.27123
M204 S2000
G0 F7500 X20.148 Y52.349
M204 S500
G1 F1500 X20.672 Y52.155 E18.28796
G1 X21.537 Y51.861 E18.3153
G1 X22.422 Y51.608 E18.34286
G1 X23.512 Y51.407 E18.37603
G1 X24.386 Y51.298 E18.4024
G1 X24.995 Y51.239 E18.42071
G1 X25.874 Y51.191 E18.44707
G1 X26.684 Y51.181 E18.47131
G1 X193.445 Y51.182 E23.46316
G1 X194.143 Y51.192 E23.48405
G1 X195.015 Y51.241 E23.5102
G1 X195.874 Y51.329 E23.53605
G1 X196.448 Y51.402 E23.55337
G1 X197.356 Y51.557 E23.58094
G1 X198.437 Y51.852 E23.61448
G1 X199.214 Y52.114 E23.63903
G1 X199.79 Y52.324 E23.65738
G1 X200.64 Y52.677 E23.68493
G1 X201.648 Y53.215 E23.71913
G1 X202.104 Y53.491 E23.73509
G1 X202.868 Y53.98 E23.76224
G1 X203.619 Y54.513 E23.78981
G1 X204.497 Y55.276 E23.82463
G1 X204.876 Y55.644 E23.84044
G1 X205.483 Y56.261 E23.86635
G1 X206.097 Y56.947 E23.89391
G1 X206.787 Y57.89 E23.92889
G1 X207.089 Y58.355 E23.94548
G1 X207.544 Y59.095 E23.97149
G1 X207.988 Y59.901 E23.99903
G1 X208.417 Y60.891 E24.03133
G1 X208.743 Y61.784 E24.05979
G1 X208.927 Y62.339 E24.07729
G1 X209.179 Y63.225 E24.10486
G1 X209.382 Y64.343 E24.13888
G1 X209.483 Y65.172 E24.16388
G1 X209.539 Y65.74 E24.18096
G1 X209.589 Y66.63 E24.20764
G1 X209.6 Y67.488 E24.23333
G1 X209.599 Y153.226 E26.79982
G1 X209.589 Y153.924 E26.82072
G1 X209.542 Y154.784 E26.8465
G1 X209.488 Y155.347 E26.86343
G1 X209.378 Y156.244 E26.89048
G1 X209.222 Y157.151 E26.91803
G1 X208.916 Y158.261 E26.9525
G1 X208.644 Y159.06 E26.97776
G1 X208.446 Y159.6 E26.99498
G1 X208.092 Y160.45 E27.02254
G1 X207.55 Y161.46 E27.05685
G1 X207.272 Y161.917 E27.07287
G1 X206.796 Y162.659 E27.09925
G1 X206.262 Y163.409 E27.12681
G1 X205.494 Y164.29 E27.1618
G1 X204.918 Y164.876 E27.1864
G1 X204.51 Y165.273 E27.20344
G1 X203.823 Y165.886 E27.231
G1 X202.947 Y166.53 E27.26354
G1 X202.508 Y166.819 E27.27928
G1 X201.689 Y167.325 E27.30809
G1 X200.883 Y167.769 E27.33564
G1 X199.858 Y168.211 E27.36905
G1 X199.006 Y168.521 E27.39619
G1 X198.449 Y168.706 E27.41376
G1 X197.564 Y168.958 E27.44131
G1 X196.452 Y169.16 E27.47514
G1 X195.618 Y169.262 E27.50029
G1 X195.006 Y169.322 E27.5187
G1 X194.106 Y169.372 E27.54568
G1 X193.341 Y169.381 E27.56858
G1 X26.555 Y169.38 E32.56117
G1 X25.857 Y169.37 E32.58207
G1 X24.997 Y169.323 E32.60785
G1 X24.434 Y169.269 E32.62478
G1 X23.536 Y169.159 E32.65186
G1 X22.628 Y169.002 E32.67945
G1 X21.527 Y168.699 E32.71363
G1 X20.726 Y168.427 E32.73895
G1 X20.179 Y168.226 E32.7564
G1 X19.329 Y167.871 E32.78397
G1 X18.342 Y167.342 E32.81749
G1 X17.903 Y167.076 E32.83286
G1 X17.138 Y166.587 E32.86003
G1 X16.387 Y166.055 E32.88758
G1 X15.515 Y165.298 E32.92215
G1 X15.138 Y164.933 E32.93786
G1 X14.498 Y164.281 E32.96521
G1 X13.885 Y163.593 E32.99279
G1 X13.221 Y162.684 E33.02649
G1 X12.923 Y162.227 E33.04282
G1 X12.446 Y161.451 E33.07008
G1 X12.003 Y160.644 E33.09764
G1 X11.57 Y159.641 E33.13034
G1 X11.381 Y159.132 E33.1466
G1 X11.07 Y158.213 E33.17564
G1 X10.819 Y157.328 E33.20317
G1 X10.617 Y156.212 E33.23712
G1 X10.515 Y155.368 E33.26257
G1 X10.457 Y154.765 E33.28071
G1 X10.409 Y153.885 E33.30709
G1 X10.4 Y153.122 E33.32993
G1 X10.401 Y67.336 E35.89786
G1 X10.411 Y66.638 E35.91875
G1 X10.46 Y65.766 E35.9449
G1 X10.546 Y64.918 E35.97041
G1 X10.619 Y64.339 E35.98788
G1 X10.774 Y63.431 E36.01545
G1 X11.086 Y62.295 E36.05072
G1 X11.258 Y61.782 E36.06691
G1 X11.561 Y60.947 E36.0935
G1 X11.916 Y60.097 E36.12108
G1 X12.448 Y59.109 E36.15467
G1 X12.895 Y58.381 E36.18024
G1 X13.214 Y57.89 E36.19777
G1 X13.749 Y57.141 E36.22532
G1 X14.499 Y56.28 E36.2595
G1 X15.08 Y55.688 E36.28433
G1 X15.493 Y55.286 E36.30158
G1 X16.179 Y54.673 E36.32912
G1 X17.106 Y53.996 E36.36348
G1 X17.578 Y53.689 E36.38034
G1 X18.332 Y53.226 E36.40682
G1 X19.139 Y52.783 E36.43438
G1 X20.148 Y52.349 E36.46726
M204 S2000
G0 F7500 X20.287 Y52.725
M204 S500
G1 F1500 X21.126 Y52.419 E36.49399
G1 X21.663 Y52.24 E36.51094
G1 X22.532 Y51.993 E36.53798
G1 X23.564 Y51.803 E36.56939
G1 X24.083 Y51.735 E36.58506
G1 X25.033 Y51.638 E36.61364
G1 X25.879 Y51.591 E36.63901
G1 X26.684 Y51.581 E36.66311
G1 X193.439 Y51.582 E41.65477
G1 X194.137 Y51.592 E41.67567
G1 X194.976 Y51.639 E41.70082
G1 X195.522 Y51.692 E41.71724
G1 X196.398 Y51.799 E41.74366
G1 X197.288 Y51.952 E41.77069
G1 X198.312 Y52.232 E41.80247
G1 X199.077 Y52.49 E41.82664
G1 X199.653 Y52.7 E41.84499
G1 X200.487 Y53.047 E41.87203
G1 X201.441 Y53.557 E41.90441
G1 X201.897 Y53.833 E41.92036
G1 X202.651 Y54.316 E41.94717
G1 X203.387 Y54.839 E41.9742
G1 X204.219 Y55.563 E42.00721
G1 X204.598 Y55.931 E42.02302
G1 X205.197 Y56.54 E42.04859
G1 X205.798 Y57.214 E42.07563
G1 X206.451 Y58.108 E42.10877
G1 X206.753 Y58.573 E42.12536
G1 X207.202 Y59.303 E42.15102
G1 X207.637 Y60.094 E42.17804
G1 X208.043 Y61.032 E42.20863
G1 X208.364 Y61.91 E42.23662
G1 X208.548 Y62.465 E42.25412
G1 X208.794 Y63.334 E42.28116
G1 X208.985 Y64.394 E42.3134
G1 X209.085 Y65.211 E42.33804
G1 X209.141 Y65.779 E42.35512
G1 X209.189 Y66.636 E42.38081
G1 X209.2 Y67.488 E42.40632
G1 X209.199 Y153.22 E44.97263
G1 X209.189 Y153.918 E44.99353
G1 X209.143 Y154.746 E45.01835
G1 X209.053 Y155.631 E45.04498
G1 X208.981 Y156.193 E45.06194
G1 X208.827 Y157.083 E45.08898
G1 X208.537 Y158.134 E45.12162
G1 X208.269 Y158.922 E45.14653
G1 X208.071 Y159.462 E45.16375
G1 X207.722 Y160.296 E45.19081
G1 X207.208 Y161.252 E45.2233
G1 X206.775 Y161.956 E45.24804
G1 X206.46 Y162.442 E45.26538
G1 X205.936 Y163.177 E45.2924
G1 X205.208 Y164.011 E45.32554
G1 X204.833 Y164.396 E45.34162
G1 X204.231 Y164.986 E45.36686
G1 X203.557 Y165.587 E45.39389
G1 X202.727 Y166.196 E45.4247
G1 X202.288 Y166.485 E45.44044
G1 X201.481 Y166.983 E45.46882
G1 X200.69 Y167.418 E45.49585
G1 X199.719 Y167.836 E45.52749
G1 X198.88 Y168.141 E45.55421
G1 X198.323 Y168.326 E45.57178
G1 X197.454 Y168.572 E45.59882
G1 X196.402 Y168.764 E45.63083
G1 X195.878 Y168.831 E45.64664
G1 X194.967 Y168.924 E45.67405
G1 X194.101 Y168.972 E45.70002
G1 X193.341 Y168.981 E45.72277
G1 X26.561 Y168.98 E50.71518
G1 X25.863 Y168.97 E50.73608
G1 X25.035 Y168.924 E50.7609
G1 X24.148 Y168.834 E50.78759
G1 X23.587 Y168.762 E50.80452
G1 X22.697 Y168.608 E50.83156
G1 X21.654 Y168.32 E50.86395
G1 X21.151 Y168.152 E50.87982
G1 X20.317 Y167.85 E50.90637
G1 X19.484 Y167.501 E50.93341
G1 X18.549 Y167 E50.96516
G1 X18.11 Y166.734 E50.98052
G1 X17.355 Y166.251 E51.00735
G1 X16.619 Y165.728 E51.03438
G1 X15.793 Y165.01 E51.06714
G1 X15.195 Y164.425 E51.09218
G1 X14.784 Y164.002 E51.10984
G1 X14.184 Y163.327 E51.13687
G1 X13.556 Y162.465 E51.1688
G1 X13.083 Y161.73 E51.19496
G1 X12.788 Y161.244 E51.21198
G1 X12.354 Y160.452 E51.23901
G1 X11.945 Y159.502 E51.26997
G1 X11.756 Y158.993 E51.28623
G1 X11.45 Y158.088 E51.31482
G1 X11.204 Y157.219 E51.34186
G1 X11.014 Y156.162 E51.37401
G1 X10.913 Y155.33 E51.3991
G1 X10.855 Y154.727 E51.41723
G1 X10.809 Y153.88 E51.44262
G1 X10.8 Y153.122 E51.46531
G1 X10.801 Y67.342 E54.03306
G1 X10.811 Y66.644 E54.05396
G1 X10.858 Y65.805 E54.07911
G1 X10.943 Y64.968 E54.10429
G1 X11.016 Y64.389 E54.12176
G1 X11.169 Y63.499 E54.1488
G1 X11.465 Y62.423 E54.1822
G1 X11.737 Y61.625 E54.20744
G1 X11.936 Y61.085 E54.22467
G1 X12.286 Y60.252 E54.25171
G1 X12.789 Y59.316 E54.28352
G1 X13.066 Y58.86 E54.29949
G1 X13.55 Y58.108 E54.32626
G1 X14.075 Y57.373 E54.3533
G1 X14.786 Y56.559 E54.38565
G1 X15.156 Y56.178 E54.40155
G1 X15.772 Y55.573 E54.42739
G1 X16.446 Y54.972 E54.45443
G1 X17.325 Y54.332 E54.48697
G1 X18.069 Y53.853 E54.51346
G1 X18.539 Y53.568 E54.52992
G1 X19.331 Y53.135 E54.55693
G1 X20.287 Y52.725 E54.58807
M204 S2000
G1 F2400 E53.38807
G1 F300 Z0.4
;MESH:PhoneMountBack.stl
G0 F7500 X26.035 Y158.18 Z0.4
M204 S500
;TYPE:WALL-INNER
G1 F300 Z0.2
G1 F2400 E54.58807
G1 F1500 X193.965 Y158.181 E59.61491
G1 X194.981 Y158.067 E59.64551
G1 X195.908 Y157.742 E59.67492
G1 X196.738 Y157.219 E59.70428
G1 X197.438 Y156.52 E59.7339
G1 X197.962 Y155.686 E59.76338
G1 X198.286 Y154.762 E59.79269
G1 X198.4 Y153.746 E59.82329
G1 X198.4 Y67.076 E62.41769
G1 X198.4 Y66.814 E62.42553
G1 X198.286 Y65.801 E62.45604
G1 X197.961 Y64.873 E62.48548
G1 X197.438 Y64.043 E62.51484
G1 X196.738 Y63.343 E62.54448
G1 X195.908 Y62.82 E62.57384
G1 X194.981 Y62.496 E62.60324
G1 X193.965 Y62.381 E62.63384
G1 X26.035 Y62.381 E67.66068
G1 X25.019 Y62.496 E67.69129
G1 X24.092 Y62.82 E67.72068
G1 X23.262 Y63.343 E67.75005
G1 X22.562 Y64.043 E67.77968
G1 X22.037 Y64.877 E67.80918
G1 X21.714 Y65.801 E67.83848
G1 X21.6 Y66.816 E67.86906
G1 X21.601 Y153.748 E70.47129
G1 X21.714 Y154.762 E70.50183
G1 X22.037 Y155.686 E70.53113
G1 X22.562 Y156.52 E70.56063
G1 X23.262 Y157.218 E70.59022
G1 X24.092 Y157.742 E70.6196
G1 X25.019 Y158.067 E70.64901
G1 X26.035 Y158.18 E70.67961
M204 S2000
G0 F7500 X26.013 Y158.58
M204 S500
;TYPE:WALL-OUTER
G1 F1500 X193.987 Y158.581 E75.70776
G1 X195.071 Y158.459 E75.74042
G1 X196.083 Y158.104 E75.77252
G1 X196.989 Y157.533 E75.80458
G1 X197.752 Y156.771 E75.83686
G1 X198.325 Y155.861 E75.86905
G1 X198.678 Y154.852 E75.90105
G1 X198.8 Y153.768 E75.9337
G1 X198.8 Y67.076 E78.52875
G1 X198.8 Y66.792 E78.53725
G1 X198.678 Y65.711 E78.56981
G1 X198.323 Y64.698 E78.60195
G1 X197.752 Y63.792 E78.634
G1 X196.989 Y63.029 E78.6663
G1 X196.083 Y62.458 E78.69836
G1 X195.071 Y62.104 E78.73045
G1 X193.987 Y61.981 E78.76311
G1 X26.013 Y61.981 E83.79126
G1 X24.929 Y62.104 E83.82392
G1 X23.917 Y62.458 E83.85601
G1 X23.011 Y63.029 E83.88807
G1 X22.248 Y63.792 E83.92037
G1 X21.675 Y64.702 E83.95256
G1 X21.322 Y65.711 E83.98456
G1 X21.2 Y66.794 E84.01718
G1 X21.201 Y153.77 E86.62073
G1 X21.322 Y154.852 E86.65333
G1 X21.675 Y155.861 E86.68532
G1 X22.248 Y156.771 E86.71751
G1 X23.011 Y157.533 E86.74979
G1 X23.917 Y158.104 E86.78185
G1 X24.929 Y158.459 E86.81395
G1 X26.013 Y158.58 E86.8466
M204 S2000
G0 F7500 X26.057 Y157.82
M204 S500
;TYPE:SKIN
G1 F1500 X193.943 Y157.82 E91.87212
G1 X194.903 Y157.713 E91.90104
G1 X195.752 Y157.415 E91.92797
G1 X196.509 Y156.935 E91.9548
G1 X197.154 Y156.291 E91.98209
G1 X197.637 Y155.527 E92.00914
G1 X197.931 Y154.685 E92.03584
G1 X198.039 Y153.724 E92.06479
G1 X198.04 Y67.076 E94.65852
G1 X198.04 Y66.834 E94.66576
G1 X197.932 Y65.879 E94.69453
G1 X197.633 Y65.029 E94.72151
G1 X197.154 Y64.272 E94.74832
G1 X196.509 Y63.627 E94.77563
G1 X195.753 Y63.148 E94.80242
G1 X194.903 Y62.85 E94.82938
G1 X193.943 Y62.741 E94.8583
G1 X26.057 Y62.741 E99.88382
G1 X25.097 Y62.85 E99.91274
G1 X24.248 Y63.148 E99.93968
G1 X23.491 Y63.626 E99.96648
G1 X22.846 Y64.272 E99.9938
G1 X22.363 Y65.037 E100.02088
G1 X22.07 Y65.879 E100.04757
G1 X21.96 Y66.838 E100.07647
G1 X21.962 Y153.728 E102.67744
G1 X22.069 Y154.685 E102.70627
G1 X22.363 Y155.527 E102.73296
G1 X22.846 Y156.291 E102.76002
G1 X23.491 Y156.935 E102.7873
G1 X24.249 Y157.414 E102.81415
G1 X25.097 Y157.712 E102.84105
G1 X26.057 Y157.82 E102.86997
M204 S2000
G1 F2400 E101.66997
G1 F300 Z0.4
G0 F7500 X24.225 Y157.161 Z0.4
M204 S500
G1 F300 Z0.2
G1 F2400 E102.86997
G1 F1500 X22.616 Y155.552 E102.93808
M204 S2000
G0 F7500 X22.263 Y154.634
M204 S500
G1 F1500 X25.144 Y157.515 E103.06005
M204 S2000
G0 F7500 X25.782 Y157.587
M204 S500
G1 F1500 X22.193 Y153.997 E103.212
M204 S2000
G0 F7500 X22.161 Y153.4
M204 S500
G1 F1500 X26.38 Y157.619 E103.3906
M204 S2000
G0 F7500 X26.946 Y157.619
M204 S500
G1 F1500 X22.161 Y152.834 E103.59317
M204 S2000
G0 F7500 X22.161 Y152.269
M204 S500
G1 F1500 X27.512 Y157.619 E103.81967
M204 S2000
G0 F7500 X28.077 Y157.619
M204 S500
G1 F1500 X22.161 Y151.703 E104.07012
M204 S2000
G0 F7500 X22.161 Y151.137
M204 S500
G1 F1500 X28.643 Y157.619 E104.34452
M204 S2000
G0 F7500 X29.209 Y157.619
M204 S500
