;FLAVOR:Marlin
;TIME:24410
;Filament used: 16.7761m
;Layer height: 0.2
;MINX:10
;MINY:50.5
;MINZ:0.2
;MAXX:210
;MAXY:169.5
;MAXZ:26.2
;Generated with Cura_SteamEngine 5.2.2
M82 ;absolute extrusion mode
; Ender 3 S1 Start G-code
G92 E0 ; Reset Extruder
G28 ; Home all axes
G1 Z10.0 F3000 ; Move Z Axis up little to prevent scratching of Heat Bed
G1 X0 Y0

M104 S210.0
M190 S0
M109 S210.0

G1 X0.1 Y20 Z0.3 F5000.0 ; Move to start position
G1 X0.1 Y200.0 Z0.3 F1500.0 E15 ; Draw the first line
G1 X0.4 Y200.0 Z0.3 F5000.0 ; Move to side a little
G1 X0.4 Y20 Z0.3 F1500.0 E30 ; Draw the second line
G92 E0 ; Reset Extruder
G1 Z2.0 F3000 ; Move Z Axis up little to prevent scratching of Heat Bed
G1 X5 Y20 Z0.3 F5000.0 ; Move over to prevent blob squish

G92 E0
G92 E0
G1 F2400 E-0.8
;LAYER_COUNT:130
;LAYER:0
M107
M204 S2000
G1 F300 Z0.4
G0 F7500 X20.003 Y51.694 Z0.4
M204 S500
;TYPE:SKIRT
G1 F300 Z0.2
G1 F2400 E0
G1 F1500 X20.513 Y51.505 E0.01628
G1 X21.425 Y51.196 E0.04511
G1 X22.327 Y50.938 E0.07319
G1 X23.497 Y50.724 E0.10879
G1 X24.351 Y50.62 E0.13455
G1 X24.968 Y50.56 E0.1531
G1 X25.893 Y50.509 E0.18083
G1 X26.66 Y50.5 E0.20379
G1 X193.451 Y50.501 E5.19654
G1 X194.149 Y50.511 E5.21743
G1 X195.041 Y50.56 E5.24417
G1 X195.954 Y50.653 E5.27164
G1 X196.515 Y50.725 E5.28858
G1 X197.44 Y50.884 E5.31667
G1 X198.6 Y51.203 E5.35268
G1 X199.397 Y51.473 E5.37787
G1 X199.941 Y51.672 E5.39521
G1 X200.807 Y52.032 E5.42329
G1 X201.853 Y52.59 E5.45877
G1 X202.582 Y53.037 E5.48437
G1 X203.097 Y53.371 E5.50275
G1 X203.862 Y53.914 E5.53083
G1 X204.764 Y54.698 E5.5666
G1 X205.364 Y55.285 E5.59173
G1 X205.769 Y55.7 E5.60909
G1 X206.395 Y56.399 E5.63717
G1 X207.122 Y57.392 E5.67401
G1 X207.595 Y58.128 E5.7002
G1 X207.886 Y58.606 E5.71695
G1 X208.339 Y59.427 E5.74502
G1 X208.791 Y60.468 E5.77899
G1 X209.12 Y61.369 E5.80771
G1 X209.304 Y61.923 E5.82518
G1 X209.562 Y62.825 E5.85326
G1 X209.777 Y64 E5.88902
G1 X209.844 Y64.526 E5.90489
G1 X209.94 Y65.463 E5.93309
G1 X209.991 Y66.391 E5.96091
G1 X210 Y67.16 E5.98393
G1 X209.999 Y152.951 E8.55201
G1 X209.989 Y153.649 E8.57291
G1 X209.94 Y154.541 E8.59965
G1 X209.848 Y155.445 E8.62685
G1 X209.776 Y156.01 E8.6439
G1 X209.618 Y156.934 E8.67196
G1 X209.289 Y158.129 E8.70906
G1 X209.036 Y158.871 E8.73253
G1 X208.84 Y159.411 E8.74972
G1 X208.483 Y160.278 E8.77779
G1 X207.895 Y161.379 E8.81515
G1 X207.47 Y162.071 E8.83946
G1 X207.14 Y162.582 E8.85767
G1 X206.598 Y163.347 E8.88573
G1 X205.794 Y164.274 E8.92247
G1 X205.435 Y164.644 E8.9379
G1 X204.801 Y165.268 E8.96453
G1 X204.102 Y165.894 E8.99262
G1 X203.102 Y166.626 E9.02971
G1 X202.383 Y167.088 E9.0553
G1 X201.903 Y167.381 E9.07213
G1 X201.083 Y167.835 E9.10019
G1 X199.996 Y168.306 E9.13565
G1 X199.489 Y168.494 E9.15183
G1 X198.575 Y168.804 E9.18072
G1 X197.673 Y169.062 E9.20881
G1 X196.503 Y169.276 E9.24441
G1 X195.657 Y169.38 E9.26993
G1 X195.045 Y169.44 E9.28833
G1 X194.111 Y169.491 E9.31633
G1 X193.341 Y169.5 E9.33939
G1 X26.549 Y169.499 E14.33216
G1 X25.851 Y169.489 E14.35305
G1 X24.959 Y169.44 E14.37979
G1 X24.046 Y169.347 E14.40727
G1 X23.485 Y169.275 E14.4242
G1 X22.56 Y169.116 E14.45229
G1 X21.4 Y168.797 E14.4883
G1 X20.588 Y168.521 E14.51398
G1 X20.041 Y168.32 E14.53142
G1 X19.175 Y167.959 E14.55951
G1 X18.135 Y167.403 E14.59481
G1 X17.696 Y167.137 E14.61017
G1 X16.916 Y166.638 E14.63789
G1 X16.151 Y166.096 E14.66596
G1 X15.224 Y165.292 E14.70269
G1 X14.845 Y164.924 E14.7185
G1 X14.202 Y164.267 E14.74602
G1 X13.578 Y163.566 E14.77411
G1 X12.887 Y162.621 E14.80916
G1 X12.413 Y161.886 E14.83533
G1 X12.118 Y161.403 E14.85228
G1 X11.664 Y160.582 E14.88036
G1 X11.191 Y159.489 E14.91601
G1 X10.874 Y158.614 E14.94387
G1 X10.69 Y158.057 E14.96143
G1 X10.434 Y157.155 E14.98949
G1 X10.224 Y156.005 E15.02449
G1 X10.157 Y155.482 E15.04027
G1 X10.06 Y154.537 E15.06871
G1 X10.009 Y153.609 E15.09653
G1 X10 Y152.841 E15.11952
G1 X10.001 Y67.049 E17.68763
G1 X10.011 Y66.351 E17.70852
G1 X10.06 Y65.459 E17.73527
G1 X10.153 Y64.546 E17.76274
G1 X10.225 Y63.985 E17.77967
G1 X10.384 Y63.06 E17.80776
G1 X10.703 Y61.9 E17.84378
G1 X10.975 Y61.099 E17.8691
G1 X11.175 Y60.553 E17.8865
G1 X11.535 Y59.686 E17.9146
G1 X12.106 Y58.62 E17.9508
G1 X12.536 Y57.92 E17.9754
G1 X12.868 Y57.407 E17.99369
G1 X13.411 Y56.643 E18.02174
G1 X14.211 Y55.722 E18.05826
G1 X14.797 Y55.124 E18.08332
G1 X15.212 Y54.72 E18.10066
G1 X15.911 Y54.095 E18.12873
G1 X16.891 Y53.378 E18.16508
G1 X17.365 Y53.07 E18.182
G1 X18.086 Y52.625 E18.20736
G1 X18.906 Y52.17 E18.23543
G1 X20.003 Y51.694 E18.27123
M204 S2000
G0 F7500 X20.142 Y52.07
M204 S500
G1 F1500 X20.994 Y51.76 E18.29837
G1 X21.551 Y51.575 E18.31594
G1 X22.436 Y51.323 E18.34348
G1 X23.548 Y51.121 E18.37731
G1 X24.39 Y51.018 E18.40271
G1 X25.007 Y50.958 E18.42126
G1 X25.898 Y50.909 E18.44797
G1 X26.66 Y50.9 E18.47079
G1 X193.445 Y50.901 E23.46335
G1 X194.143 Y50.911 E23.48424
G1 X195.003 Y50.958 E23.51003
G1 X195.566 Y51.012 E23.52696
G1 X196.464 Y51.122 E23.55404
G1 X197.372 Y51.279 E23.58162
G1 X198.473 Y51.582 E23.6158
G1 X199.26 Y51.849 E23.64068
G1 X199.804 Y52.048 E23.65802
G1 X200.654 Y52.402 E23.68558
G1 X201.646 Y52.932 E23.71925
G1 X202.365 Y53.373 E23.7445
G1 X202.88 Y53.707 E23.76287
G1 X203.63 Y54.241 E23.79043
G1 X204.486 Y54.985 E23.82438
G1 X204.866 Y55.353 E23.84022
G1 X205.483 Y55.98 E23.86655
G1 X206.097 Y56.666 E23.89411
G1 X206.787 Y57.609 E23.92909
G1 X207.089 Y58.074 E23.94568
G1 X207.544 Y58.814 E23.97169
G1 X207.988 Y59.62 E23.99923
G1 X208.417 Y60.608 E24.03147
G1 X208.741 Y61.495 E24.05974
G1 X208.925 Y62.049 E24.07722
G1 X209.177 Y62.934 E24.10476
G1 X209.38 Y64.051 E24.13875
G1 X209.482 Y64.887 E24.16396
G1 X209.542 Y65.502 E24.18245
G1 X209.591 Y66.396 E24.20925
G1 X209.6 Y67.16 E24.23213
G1 X209.599 Y152.945 E26.80002
G1 X209.589 Y153.643 E26.82092
G1 X209.542 Y154.503 E26.8467
G1 X209.488 Y155.066 E26.86363
G1 X209.379 Y155.959 E26.89056
G1 X209.223 Y156.866 E26.91811
G1 X208.91 Y158.001 E26.95335
G1 X208.66 Y158.735 E26.97657
G1 X208.464 Y159.275 E26.99376
G1 X208.113 Y160.126 E27.02132
G1 X207.553 Y161.171 E27.05681
G1 X207.134 Y161.854 E27.08079
G1 X206.804 Y162.365 E27.099
G1 X206.271 Y163.115 E27.12654
G1 X205.507 Y163.995 E27.16143
G1 X205.148 Y164.365 E27.17686
G1 X204.521 Y164.982 E27.20319
G1 X203.835 Y165.596 E27.23075
G1 X202.885 Y166.291 E27.26599
G1 X202.175 Y166.747 E27.29125
G1 X201.695 Y167.04 E27.30808
G1 X200.889 Y167.485 E27.33564
G1 X199.857 Y167.931 E27.36929
G1 X199.006 Y168.24 E27.39639
G1 X198.449 Y168.425 E27.41396
G1 X197.564 Y168.677 E27.44151
G1 X196.452 Y168.879 E27.47534
G1 X195.618 Y168.981 E27.50049
G1 X195.006 Y169.041 E27.5189
G1 X194.106 Y169.091 E27.54588
G1 X193.341 Y169.1 E27.56878
G1 X26.555 Y169.099 E32.56137
G1 X25.857 Y169.089 E32.58227
G1 X24.997 Y169.042 E32.60805
G1 X24.434 Y168.988 E32.62498
G1 X23.536 Y168.878 E32.65206
G1 X22.628 Y168.721 E32.67965
G1 X21.527 Y168.418 E32.71383
G1 X20.726 Y168.146 E32.73915
G1 X20.179 Y167.945 E32.7566
G1 X19.329 Y167.59 E32.78417
G1 X18.342 Y167.061 E32.81769
G1 X17.903 Y166.795 E32.83306
G1 X17.133 Y166.302 E32.86042
G1 X16.382 Y165.769 E32.88799
G1 X15.503 Y165.005 E32.92285
G1 X14.896 Y164.409 E32.94832
G1 X14.489 Y163.989 E32.96582
G1 X13.877 Y163.3 E32.99341
G1 X13.222 Y162.402 E33.02668
G1 X12.922 Y161.942 E33.04312
G1 X12.46 Y161.194 E33.06944
G1 X12.015 Y160.388 E33.097
G1 X11.566 Y159.35 E33.13085
G1 X11.254 Y158.489 E33.15827
G1 X11.07 Y157.932 E33.17583
G1 X10.819 Y157.046 E33.20339
G1 X10.621 Y155.954 E33.23661
G1 X10.518 Y155.113 E33.26197
G1 X10.458 Y154.498 E33.28047
G1 X10.409 Y153.604 E33.30727
G1 X10.4 Y152.841 E33.33011
G1 X10.401 Y67.055 E35.89804
G1 X10.411 Y66.357 E35.91894
G1 X10.458 Y65.497 E35.94472
G1 X10.512 Y64.934 E35.96165
G1 X10.622 Y64.036 E35.98873
G1 X10.779 Y63.128 E36.01632
G1 X11.082 Y62.027 E36.0505
G1 X11.25 Y61.524 E36.06637
G1 X11.551 Y60.69 E36.09291
G1 X11.905 Y59.84 E36.12048
G1 X12.448 Y58.828 E36.15486
G1 X12.872 Y58.138 E36.1791
G1 X13.204 Y57.625 E36.19739
G1 X13.737 Y56.874 E36.22496
G1 X14.498 Y56 E36.25965
G1 X14.865 Y55.622 E36.27542
G1 X15.491 Y55.007 E36.30169
G1 X16.178 Y54.394 E36.32925
G1 X17.109 Y53.714 E36.36376
G1 X17.828 Y53.251 E36.38936
G1 X18.294 Y52.966 E36.40571
G1 X19.1 Y52.52 E36.43328
G1 X20.142 Y52.07 E36.46726
M204 S2000
G0 F7500 X20.281 Y52.445
M204 S500
G1 F1500 X21.12 Y52.14 E36.49398
G1 X21.677 Y51.955 E36.51155
G1 X22.546 Y51.709 E36.53859
G1 X23.598 Y51.517 E36.5706
G1 X24.122 Y51.45 E36.58641
G1 X25.046 Y51.356 E36.61421
G1 X25.903 Y51.309 E36.6399
G1 X26.66 Y51.3 E36.66256
G1 X193.439 Y51.301 E41.65495
G1 X194.137 Y51.311 E41.67584
G1 X194.965 Y51.357 E41.70067
G1 X195.852 Y51.447 E41.72736
G1 X196.413 Y51.519 E41.74429
G1 X197.303 Y51.673 E41.77132
G1 X198.346 Y51.961 E41.80371
G1 X198.849 Y52.129 E41.81959
G1 X199.666 Y52.424 E41.84559
G1 X200.5 Y52.771 E41.87263
G1 X201.439 Y53.274 E41.90452
G1 X202.147 Y53.708 E41.92937
G1 X202.662 Y54.042 E41.94775
G1 X203.397 Y54.567 E41.97479
G1 X204.208 Y55.273 E42.00697
G1 X204.792 Y55.844 E42.03142
G1 X205.197 Y56.259 E42.04878
G1 X205.798 Y56.933 E42.07581
G1 X206.451 Y57.827 E42.10895
G1 X206.753 Y58.292 E42.12555
G1 X207.202 Y59.022 E42.1512
G1 X207.637 Y59.813 E42.17823
G1 X208.042 Y60.749 E42.20875
G1 X208.361 Y61.621 E42.23655
G1 X208.545 Y62.175 E42.25402
G1 X208.791 Y63.044 E42.28106
G1 X208.983 Y64.101 E42.31322
G1 X209.084 Y64.926 E42.3381
G1 X209.144 Y65.541 E42.35659
G1 X209.191 Y66.401 E42.38237
G1 X209.2 Y67.16 E42.4051
G1 X209.199 Y152.939 E44.97281
G1 X209.189 Y153.637 E44.99371
G1 X209.143 Y154.465 E45.01853
G1 X209.054 Y155.343 E45.04495
G1 X208.982 Y155.908 E45.062
G1 X208.828 Y156.798 E45.08904
G1 X208.531 Y157.874 E45.12245
G1 X208.363 Y158.373 E45.13821
G1 X208.088 Y159.138 E45.16255
G1 X207.743 Y159.973 E45.18959
G1 X207.212 Y160.963 E45.22322
G1 X206.798 Y161.637 E45.2469
G1 X206.468 Y162.148 E45.26511
G1 X205.945 Y162.884 E45.29213
G1 X205.219 Y163.717 E45.32521
G1 X204.666 Y164.282 E45.34888
G1 X204.242 Y164.696 E45.36661
G1 X203.568 Y165.298 E45.39367
G1 X202.667 Y165.955 E45.42705
G1 X201.966 Y166.405 E45.45198
G1 X201.486 Y166.698 E45.46882
G1 X200.695 Y167.134 E45.49585
G1 X199.718 Y167.556 E45.52771
G1 X199.211 Y167.744 E45.5439
G1 X198.323 Y168.045 E45.57196
G1 X197.454 Y168.291 E45.599
G1 X196.402 Y168.483 E45.63101
G1 X195.878 Y168.55 E45.64682
G1 X194.967 Y168.643 E45.67423
G1 X194.101 Y168.691 E45.7002
G1 X193.341 Y168.7 E45.72295
G1 X26.561 Y168.699 E50.71536
G1 X25.863 Y168.689 E50.73626
G1 X25.035 Y168.643 E50.76108
G1 X24.148 Y168.553 E50.78777
G1 X23.587 Y168.481 E50.8047
G1 X22.697 Y168.327 E50.83174
G1 X21.654 Y168.039 E50.86413
G1 X21.151 Y167.871 E50.88
G1 X20.317 Y167.569 E50.90655
G1 X19.484 Y167.22 E50.93359
G1 X18.549 Y166.719 E50.96534
G1 X18.11 Y166.453 E50.9807
G1 X17.35 Y165.966 E51.00772
G1 X16.614 Y165.443 E51.03475
G1 X15.781 Y164.718 E51.06781
G1 X15.402 Y164.35 E51.08362
G1 X14.776 Y163.71 E51.11042
G1 X14.177 Y163.034 E51.13746
G1 X13.557 Y162.184 E51.16895
G1 X13.096 Y161.469 E51.19442
G1 X12.801 Y160.986 E51.21136
G1 X12.365 Y160.195 E51.2384
G1 X11.941 Y159.211 E51.27047
G1 X11.634 Y158.363 E51.29746
G1 X11.45 Y157.806 E51.31502
G1 X11.205 Y156.937 E51.34205
G1 X11.018 Y155.903 E51.37351
G1 X10.916 Y155.074 E51.39851
G1 X10.856 Y154.459 E51.417
G1 X10.809 Y153.599 E51.44279
G1 X10.8 Y152.841 E51.46548
G1 X10.801 Y67.061 E54.03323
G1 X10.811 Y66.363 E54.05412
G1 X10.857 Y65.535 E54.07895
G1 X10.947 Y64.648 E54.10563
G1 X11.019 Y64.087 E54.12257
G1 X11.173 Y63.197 E54.1496
G1 X11.461 Y62.154 E54.18199
G1 X11.726 Y61.374 E54.20665
G1 X11.926 Y60.828 E54.22406
G1 X12.274 Y59.994 E54.25111
G1 X12.789 Y59.036 E54.28367
G1 X13.208 Y58.355 E54.3076
G1 X13.54 Y57.842 E54.32589
G1 X14.064 Y57.106 E54.35294
G1 X14.785 Y56.279 E54.38578
G1 X15.355 Y55.697 E54.41017
G1 X15.77 Y55.293 E54.4275
G1 X16.444 Y54.693 E54.45451
G1 X17.327 Y54.049 E54.48723
G1 X18.037 Y53.592 E54.5125
G1 X18.503 Y53.307 E54.52886
G1 X19.294 Y52.871 E54.55589
G1 X20.281 Y52.445 E54.58807
M204 S2000
G1 F2400 E53.78807
G1 F300 Z0.4
;MESH:PhoneMountFront.stl
G0 F7500 X26.035 Y157.899 Z0.4
M204 S500
;TYPE:WALL-INNER
G1 F300 Z0.2
G1 F2400 E54.58807
G1 F1500 X193.965 Y157.9 E59.61491
G1 X194.981 Y157.786 E59.64551
G1 X195.908 Y157.461 E59.67492
G1 X196.738 Y156.938 E59.70428
G1 X197.437 Y156.238 E59.7339
G1 X197.962 Y155.404 E59.7634
G1 X198.286 Y154.481 E59.79268
G1 X198.4 Y153.465 E59.82328
G1 X198.4 Y66.796 E62.41764
G1 X198.4 Y66.533 E62.42551
G1 X198.286 Y65.519 E62.45606
G1 X197.961 Y64.592 E62.48546
G1 X197.438 Y63.762 E62.51483
G1 X196.738 Y63.062 E62.54446
G1 X195.908 Y62.539 E62.57383
G1 X194.981 Y62.214 E62.60324
G1 X193.965 Y62.1 E62.63384
G1 X26.035 Y62.1 E67.66068
G1 X25.019 Y62.214 E67.69128
G1 X24.092 Y62.539 E67.72069
G1 X23.262 Y63.062 E67.75005
G1 X22.562 Y63.762 E67.77968
G1 X22.037 Y64.596 E67.80918
G1 X21.714 Y65.519 E67.83846
G1 X21.6 Y66.535 E67.86906
G1 X21.601 Y153.467 E70.47129
G1 X21.714 Y154.481 E70.50183
G1 X22.037 Y155.404 E70.53111
G1 X22.562 Y156.238 E70.56061
G1 X23.262 Y156.938 E70.59024
G1 X24.092 Y157.461 E70.61961
G1 X25.019 Y157.786 E70.64901
G1 X26.035 Y157.899 E70.67961
M204 S2000
G0 F7500 X26.013 Y158.299
M204 S500
;TYPE:WALL-OUTER
G1 F1500 X193.987 Y158.3 E75.70777
G1 X195.071 Y158.178 E75.74042
G1 X196.083 Y157.823 E75.77252
G1 X196.989 Y157.252 E75.80458
G1 X197.752 Y156.489 E75.83688
G1 X198.325 Y155.579 E75.86907
G1 X198.678 Y154.571 E75.90104
G1 X198.8 Y153.487 E75.93369
G1 X198.8 Y66.796 E78.52871
G1 X198.8 Y66.511 E78.53724
G1 X198.678 Y65.429 E78.56984
G1 X198.323 Y64.417 E78.60194
G1 X197.752 Y63.511 E78.634
G1 X196.989 Y62.748 E78.6663
G1 X196.083 Y62.177 E78.69836
G1 X195.071 Y61.822 E78.73046
G1 X193.987 Y61.7 E78.76311
G1 X26.013 Y61.7 E83.79127
G1 X24.929 Y61.822 E83.82392
G1 X23.917 Y62.177 E83.85602
G1 X23.011 Y62.748 E83.88808
G1 X22.248 Y63.511 E83.92038
G1 X21.675 Y64.421 E83.95257
G1 X21.322 Y65.429 E83.98454
G1 X21.2 Y66.513 E84.01719
G1 X21.201 Y153.489 E86.62074
G1 X21.322 Y154.571 E86.65334
G1 X21.675 Y155.579 E86.68531
G1 X22.248 Y156.489 E86.7175
G1 X23.011 Y157.252 E86.7498
G1 X23.917 Y157.823 E86.78185
G1 X24.929 Y158.178 E86.81396
G1 X26.013 Y158.299 E86.84661
M204 S2000
G0 F7500 X26.057 Y157.539
M204 S500
;TYPE:SKIN
G1 F1500 X193.943 Y157.539 E91.87213
G1 X194.903 Y157.432 E91.90104
G1 X195.752 Y157.134 E91.92798
G1 X196.509 Y156.654 E91.95481
G1 X197.154 Y156.009 E91.98211
G1 X197.637 Y155.245 E92.00917
G1 X197.931 Y154.403 E92.03587
G1 X198.039 Y153.443 E92.06478
G1 X198.04 Y66.795 E94.65852
G1 X198.04 Y66.553 E94.66576
G1 X197.932 Y65.597 E94.69456
G1 X197.633 Y64.749 E94.72147
G1 X197.154 Y63.991 E94.74831
G1 X196.509 Y63.346 E94.77562
G1 X195.751 Y62.867 E94.80246
G1 X194.903 Y62.569 E94.82937
G1 X193.943 Y62.46 E94.85829
G1 X26.057 Y62.46 E99.88381
G1 X25.097 Y62.568 E99.91273
G1 X24.248 Y62.866 E99.93966
G1 X23.491 Y63.346 E99.96649
G1 X22.846 Y63.991 E99.9938
G1 X22.363 Y64.756 E100.02088
G1 X22.069 Y65.596 E100.04752
G1 X21.96 Y66.557 E100.07647
G1 X21.962 Y153.447 E102.67745
G1 X22.068 Y154.403 E102.70624
G1 X22.363 Y155.244 E102.73292
G1 X22.846 Y156.009 E102.76
G1 X23.491 Y156.654 E102.7873
G1 X24.249 Y157.133 E102.81414
G1 X25.097 Y157.431 E102.84105
G1 X26.057 Y157.539 E102.86997
M204 S2000
G0 F7500 X24.711 Y157.082
M204 S500
G1 F1500 X22.413 Y154.784 E102.96725
M204 S2000
G0 F7500 X22.227 Y154.032
M204 S500
G1 F1500 X25.465 Y157.27 E103.10432
M204 S2000
G0 F7500 X26.099 Y157.338
M204 S500
G1 F1500 X22.161 Y153.4 E103.27103
M204 S2000
G0 F7500 X22.161 Y152.834
M204 S500
G1 F1500 X26.664 Y157.338 E103.46168
M204 S2000
G0 F7500 X27.23 Y157.338
M204 S500
G1 F1500 X22.161 Y152.269 E103.67627
M204 S2000
G0 F7500 X22.161 Y151.703
M204 S500
G1 F1500 X27.796 Y157.338 E103.91482
M204 S2000
G0 F7500 X28.362 Y157.338
M204 S500
G1 F1500 X22.161 Y151.137 E104.17732
M204 S2000
G0 F7500 X22.161 Y150.572
M204 S500
G1 F1500 X28.927 Y157.338 E104.46375
M204 S2000
G0 F7500 X29.493 Y157.338
M204 S500
G1 F1500 X22.161 Y150.006 E104.77414
M204 S2000
G0 F7500 X22.161 Y149.44
M204 S500
