; LightBurn 1.4.00
; Marlin device profile, absolute coords
; Bounds: X7.09 Y8.38 to X178.32 Y213.58
G21
G90
; Cut @ 10 mm/sec, 100% power
M8
M05 
G0 X7.086 Y10.627 F0
; Layer C02 Pass 1 of 3
M03 S1000
G1 X54.918 Y8.377 F600
G1 X56.914 Y8.505
G1 X56.497 Y15.014
G1 X56.445 Y15.206
G1 X56.328 Y15.357
G1 X56.162 Y15.454
G1 X55.966 Y15.481
G1 X54.469 Y15.385
G1 X53.791 Y25.963
G1 X55.288 Y26.059
G1 X55.48 Y26.111
G1 X55.631 Y26.228
G1 X55.728 Y26.394
G1 X55.755 Y26.59
G1 X55.218 Y34.973
G1 X55.166 Y35.165
G1 X55.049 Y35.317
G1 X54.884 Y35.413
G1 X54.687 Y35.44
G1 X53.19 Y35.344
G1 X52.562 Y45.155
G1 X52.514 Y45.339
G1 X52.405 Y45.488
G1 X52.249 Y45.587
G1 X52.063 Y45.623
G1 X42.232
G1  Y47.123
G1 X42.192 Y47.318
G1 X42.085 Y47.477
G1 X41.926 Y47.584
G1 X41.732 Y47.623
G1 X18.957
G1 X18.763 Y47.584
G1 X18.604 Y47.477
G1 X18.497 Y47.318
G1 X18.457 Y47.123
G1  Y45.623
G1 X8.642
G1 X8.451 Y45.585
G1 X8.294 Y45.482
G1 X8.186 Y45.328
G1 X8.143 Y45.138
G1 X7.086 Y10.627
; Layer C02 Pass 2 of 3
G1 X54.918 Y8.377
G1 X56.914 Y8.505
G1 X56.497 Y15.014
G1 X56.445 Y15.206
G1 X56.328 Y15.357
G1 X56.162 Y15.454
G1 X55.966 Y15.481
G1 X54.469 Y15.385
G1 X53.791 Y25.963
G1 X55.288 Y26.059
G1 X55.48 Y26.111
G1 X55.631 Y26.228
G1 X55.728 Y26.394
G1 X55.755 Y26.59
G1 X55.218 Y34.973
G1 X55.166 Y35.165
G1 X55.049 Y35.317
G1 X54.884 Y35.413
G1 X54.687 Y35.44
G1 X53.19 Y35.344
G1 X52.562 Y45.155
G1 X52.514 Y45.339
G1 X52.405 Y45.488
G1 X52.249 Y45.587
G1 X52.063 Y45.623
G1 X42.232
G1  Y47.123
G1 X42.192 Y47.318
G1 X42.085 Y47.477
G1 X41.926 Y47.584
G1 X41.732 Y47.623
G1 X18.957
G1 X18.763 Y47.584
G1 X18.604 Y47.477
G1 X18.497 Y47.318
G1 X18.457 Y47.123
G1  Y45.623
G1 X8.642
G1 X8.451 Y45.585
G1 X8.294 Y45.482
G1 X8.186 Y45.328
G1 X8.143 Y45.138
G1 X7.086 Y10.627
; Layer C02 Pass 3 of 3
G1 X54.918 Y8.377
G1 X56.914 Y8.505
G1 X56.497 Y15.014
G1 X56.445 Y15.206
G1 X56.328 Y15.357
G1 X56.162 Y15.454
G1 X55.966 Y15.481
G1 X54.469 Y15.385
G1 X53.791 Y25.963
G1 X55.288 Y26.059
G1 X55.48 Y26.111
G1 X55.631 Y26.228
G1 X55.728 Y26.394
G1 X55.755 Y26.59
G1 X55.218 Y34.973
G1 X55.166 Y35.165
G1 X55.049 Y35.317
G1 X54.884 Y35.413
G1 X54.687 Y35.44
G1 X53.19 Y35.344
G1 X52.562 Y45.155
G1 X52.514 Y45.339
G1 X52.405 Y45.488
G1 X52.249 Y45.587
G1 X52.063 Y45.623
G1 X42.232
G1  Y47.123
G1 X42.192 Y47.318
G1 X42.085 Y47.477
G1 X41.926 Y47.584
G1 X41.732 Y47.623
G1 X18.957
G1 X18.763 Y47.584
G1 X18.604 Y47.477
G1 X18.497 Y47.318
G1 X18.457 Y47.123
G1  Y45.623
G1 X8.642
G1 X8.451 Y45.585
G1 X8.294 Y45.482
G1 X8.186 Y45.328
G1 X8.143 Y45.138
G1 X7.086 Y10.627
M05 
G0 X15.303 Y53.323 F0
; Layer C02 Pass 1 of 3
M03 S1000
G1 X40.997 Y51.472 F600
G1 X41.794 Y67.257
G1 X43.312 Y67.18
G1 X43.509 Y67.21
G1 X43.673 Y67.309
G1 X43.788 Y67.462
G1 X43.837 Y67.655
G1 X44.26 Y76.044
G1 X44.231 Y76.24
G1 X44.132 Y76.404
G1 X43.979 Y76.519
G1 X43.786 Y76.568
G1 X42.268 Y76.645
G1 X42.79 Y86.975
G1 X38.521 Y87.283
G1 X38.629 Y88.779
G1 X38.604 Y88.976
G1 X38.508 Y89.142
G1 X38.357 Y89.26
G1 X38.166 Y89.313
G1 X29.473 Y89.94
G1 X29.276 Y89.914
G1 X29.11 Y89.819
G1 X28.992 Y89.668
G1 X28.939 Y89.477
G1 X28.831 Y87.981
G1 X22.547 Y88.433
G1 X21.078 Y88.736
G1 X20.88
G1 X20.702 Y88.664
G1 X20.565 Y88.53
G1 X20.487 Y88.348
G1 X18.669 Y79.533
G1  Y79.335
G1 X18.741 Y79.157
G1 X18.875 Y79.02
G1 X19.057 Y78.943
G1 X20.526 Y78.639
G1 X18.506 Y68.846
G1 X17.036 Y69.149
G1 X16.838
G1 X16.661 Y69.077
G1 X16.524 Y68.943
G1 X16.446 Y68.76
G1 X14.627 Y59.946
G1  Y59.747
G1 X14.699 Y59.57
G1 X14.833 Y59.433
G1 X15.016 Y59.355
G1 X16.485 Y59.052
G1 X15.303 Y53.323
; Layer C02 Pass 2 of 3
G1 X40.997 Y51.472
G1 X41.794 Y67.257
G1 X43.312 Y67.18
G1 X43.509 Y67.21
G1 X43.673 Y67.309
G1 X43.788 Y67.462
G1 X43.837 Y67.655
G1 X44.26 Y76.044
G1 X44.231 Y76.24
G1 X44.132 Y76.404
G1 X43.979 Y76.519
G1 X43.786 Y76.568
G1 X42.268 Y76.645
G1 X42.79 Y86.975
G1 X38.521 Y87.283
G1 X38.629 Y88.779
G1 X38.604 Y88.976
G1 X38.508 Y89.142
G1 X38.357 Y89.26
G1 X38.166 Y89.313
G1 X29.473 Y89.94
G1 X29.276 Y89.914
G1 X29.11 Y89.819
G1 X28.992 Y89.668
G1 X28.939 Y89.477
G1 X28.831 Y87.981
G1 X22.547 Y88.433
G1 X21.078 Y88.736
G1 X20.88
G1 X20.702 Y88.664
G1 X20.565 Y88.53
G1 X20.487 Y88.348
G1 X18.669 Y79.533
G1  Y79.335
G1 X18.741 Y79.157
G1 X18.875 Y79.02
G1 X19.057 Y78.943
G1 X20.526 Y78.639
G1 X18.506 Y68.846
G1 X17.036 Y69.149
G1 X16.838
G1 X16.661 Y69.077
G1 X16.524 Y68.943
G1 X16.446 Y68.76
G1 X14.627 Y59.946
G1  Y59.747
G1 X14.699 Y59.57
G1 X14.833 Y59.433
G1 X15.016 Y59.355
G1 X16.485 Y59.052
G1 X15.303 Y53.323
; Layer C02 Pass 3 of 3
G1 X40.997 Y51.472
G1 X41.794 Y67.257
G1 X43.312 Y67.18
G1 X43.509 Y67.21
G1 X43.673 Y67.309
G1 X43.788 Y67.462
G1 X43.837 Y67.655
G1 X44.26 Y76.044
G1 X44.231 Y76.24
G1 X44.132 Y76.404
G1 X43.979 Y76.519
G1 X43.786 Y76.568
G1 X42.268 Y76.645
G1 X42.79 Y86.975
G1 X38.521 Y87.283
G1 X38.629 Y88.779
G1 X38.604 Y88.976
G1 X38.508 Y89.142
G1 X38.357 Y89.26
G1 X38.166 Y89.313
G1 X29.473 Y89.94
G1 X29.276 Y89.914
G1 X29.11 Y89.819
G1 X28.992 Y89.668
G1 X28.939 Y89.477
G1 X28.831 Y87.981
G1 X22.547 Y88.433
G1 X21.078 Y88.736
G1 X20.88
G1 X20.702 Y88.664
G1 X20.565 Y88.53
G1 X20.487 Y88.348
G1 X18.669 Y79.533
G1  Y79.335
G1 X18.741 Y79.157
G1 X18.875 Y79.02
G1 X19.057 Y78.943
G1 X20.526 Y78.639
G1 X18.506 Y68.846
G1 X17.036 Y69.149
G1 X16.838
G1 X16.661 Y69.077
G1 X16.524 Y68.943
G1 X16.446 Y68.76
G1 X14.627 Y59.946
G1  Y59.747
G1 X14.699 Y59.57
G1 X14.833 Y59.433
G1 X15.016 Y59.355
G1 X16.485 Y59.052
G1 X15.303 Y53.323
M05 
G0 X41.885 Y57.245 F0
; Layer C02 Pass 1 of 3
M03 S1000
G1 X41.857 Y57.441 F600
G1 X42.311 Y66.43
G1 X42.359 Y66.622
G1 X42.471 Y66.776
G1 X42.63 Y66.875
G1 X42.821 Y66.905
G1 X44.275 Y66.831
G1 X44.779 Y76.819
G1 X43.325 Y76.892
G1 X43.138 Y76.941
G1 X42.99 Y77.056
G1 X42.894 Y77.22
G1 X42.865 Y77.416
G1 X43.319 Y86.405
G1 X43.367 Y86.597
G1 X43.479 Y86.75
G1 X43.639 Y86.85
G1 X43.829 Y86.879
G1 X45.284 Y86.806
G1 X45.575
G1 X45.619 Y88.297
G1 X45.663 Y88.491
G1 X45.772 Y88.646
G1 X45.929 Y88.749
G1 X46.119 Y88.783
G1 X54.271 Y88.552
G1 X54.459 Y88.507
G1 X54.61 Y88.396
G1 X54.709 Y88.234
G1 X54.742 Y88.038
G1 X54.697 Y86.539
G1 X63.043 Y86.302
G1 X63.088 Y87.802
G1 X63.132 Y87.995
G1 X63.24 Y88.151
G1 X63.398 Y88.254
G1 X63.588 Y88.288
G1 X69.188 Y88.129
G1 X69.376 Y88.084
G1 X69.527 Y87.973
G1 X69.626 Y87.811
G1 X69.659 Y87.615
G1 X69.614 Y86.116
G1 X77.96 Y85.879
G1 X78.005 Y87.378
G1 X78.049 Y87.572
G1 X78.157 Y87.728
G1 X78.315 Y87.831
G1 X78.505 Y87.864
G1 X86.657 Y87.633
G1 X86.844 Y87.589
G1 X86.996 Y87.477
G1 X87.095 Y87.315
G1 X87.127 Y87.12
G1 X87.083 Y85.62
G1 X87.374
G1 X87.297 Y50.061
G1 X43.491 Y51.303
G1 X43.771 Y56.844
G1 X42.316 Y56.918
G1 X42.13 Y56.966
G1 X41.981 Y57.081
G1 X41.885 Y57.245
; Layer C02 Pass 2 of 3
G1 X41.857 Y57.441
G1 X42.311 Y66.43
G1 X42.359 Y66.622
G1 X42.471 Y66.776
G1 X42.63 Y66.875
G1 X42.821 Y66.905
G1 X44.275 Y66.831
G1 X44.779 Y76.819
G1 X43.325 Y76.892
G1 X43.138 Y76.941
G1 X42.99 Y77.056
G1 X42.894 Y77.22
G1 X42.865 Y77.416
G1 X43.319 Y86.405
G1 X43.367 Y86.597
G1 X43.479 Y86.75
G1 X43.639 Y86.85
G1 X43.829 Y86.879
G1 X45.284 Y86.806
G1 X45.575
G1 X45.619 Y88.297
G1 X45.663 Y88.491
G1 X45.772 Y88.646
G1 X45.929 Y88.749
G1 X46.119 Y88.783
G1 X54.271 Y88.552
G1 X54.459 Y88.507
G1 X54.61 Y88.396
G1 X54.709 Y88.234
G1 X54.742 Y88.038
G1 X54.697 Y86.539
G1 X63.043 Y86.302
G1 X63.088 Y87.802
G1 X63.132 Y87.995
G1 X63.24 Y88.151
G1 X63.398 Y88.254
G1 X63.588 Y88.288
G1 X69.188 Y88.129
G1 X69.376 Y88.084
G1 X69.527 Y87.973
G1 X69.626 Y87.811
G1 X69.659 Y87.615
G1 X69.614 Y86.116
G1 X77.96 Y85.879
G1 X78.005 Y87.378
G1 X78.049 Y87.572
G1 X78.157 Y87.728
G1 X78.315 Y87.831
G1 X78.505 Y87.864
G1 X86.657 Y87.633
G1 X86.844 Y87.589
G1 X86.996 Y87.477
G1 X87.095 Y87.315
G1 X87.127 Y87.12
G1 X87.083 Y85.62
G1 X87.374
G1 X87.297 Y50.061
G1 X43.491 Y51.303
G1 X43.771 Y56.844
G1 X42.316 Y56.918
G1 X42.13 Y56.966
G1 X41.981 Y57.081
G1 X41.885 Y57.245
; Layer C02 Pass 3 of 3
G1 X41.857 Y57.441
G1 X42.311 Y66.43
G1 X42.359 Y66.622
G1 X42.471 Y66.776
G1 X42.63 Y66.875
G1 X42.821 Y66.905
G1 X44.275 Y66.831
G1 X44.779 Y76.819
G1 X43.325 Y76.892
G1 X43.138 Y76.941
G1 X42.99 Y77.056
G1 X42.894 Y77.22
G1 X42.865 Y77.416
G1 X43.319 Y86.405
G1 X43.367 Y86.597
G1 X43.479 Y86.75
G1 X43.639 Y86.85
G1 X43.829 Y86.879
G1 X45.284 Y86.806
G1 X45.575
G1 X45.619 Y88.297
G1 X45.663 Y88.491
G1 X45.772 Y88.646
G1 X45.929 Y88.749
G1 X46.119 Y88.783
G1 X54.271 Y88.552
G1 X54.459 Y88.507
G1 X54.61 Y88.396
G1 X54.709 Y88.234
G1 X54.742 Y88.038
G1 X54.697 Y86.539
G1 X63.043 Y86.302
G1 X63.088 Y87.802
G1 X63.132 Y87.995
G1 X63.24 Y88.151
G1 X63.398 Y88.254
G1 X63.588 Y88.288
G1 X69.188 Y88.129
G1 X69.376 Y88.084
G1 X69.527 Y87.973
G1 X69.626 Y87.811
G1 X69.659 Y87.615
G1 X69.614 Y86.116
G1 X77.96 Y85.879
G1 X78.005 Y87.378
G1 X78.049 Y87.572
G1 X78.157 Y87.728
G1 X78.315 Y87.831
G1 X78.505 Y87.864
G1 X86.657 Y87.633
G1 X86.844 Y87.589
G1 X86.996 Y87.477
G1 X87.095 Y87.315
G1 X87.127 Y87.12
G1 X87.083 Y85.62
G1 X87.374
G1 X87.297 Y50.061
G1 X43.491 Y51.303
G1 X43.771 Y56.844
G1 X42.316 Y56.918
G1 X42.13 Y56.966
G1 X41.981 Y57.081
G1 X41.885 Y57.245
M05 
G0 X48.721 Y91.36 F0
; Layer C02 Pass 1 of 3
M03 S1000
G1 X48.918 Y91.386 F600
G1 X49.084 Y91.481
G1 X49.202 Y91.632
G1 X49.255 Y91.824
G1 X49.36 Y93.32
G1 X59.934 Y92.574
G1 X59.828 Y91.078
G1 X59.854 Y90.881
G1 X59.95 Y90.715
G1 X60.101 Y90.596
G1 X60.292 Y90.544
G1 X68.671 Y89.952
G1 X68.868 Y89.978
G1 X69.034 Y90.074
G1 X69.152 Y90.225
G1 X69.205 Y90.416
G1 X69.311 Y91.912
G1 X79.884 Y91.166
G1 X79.779 Y89.67
G1 X79.804 Y89.473
G1 X79.9 Y89.307
G1 X80.051 Y89.189
G1 X80.242 Y89.136
G1 X92.454 Y88.274
G1 X92.595 Y90.269
G1 X92.21 Y209.732
G1 X92.054 Y211.726
G1 X79.83 Y210.766
G1 X79.639 Y210.712
G1 X79.489 Y210.592
G1 X79.394 Y210.426
G1 X79.37 Y210.228
G1 X79.488 Y208.733
G1 X68.92 Y207.903
G1 X68.803 Y209.399
G1 X68.749 Y209.59
G1 X68.629 Y209.74
G1 X68.462 Y209.834
G1 X68.265 Y209.858
G1 X59.891 Y209.2
G1 X59.7 Y209.146
G1 X59.55 Y209.027
G1 X59.456 Y208.86
G1 X59.432 Y208.663
G1 X59.549 Y207.167
G1 X48.982 Y206.338
G1 X48.864 Y207.833
G1 X48.81 Y208.024
G1 X48.691 Y208.174
G1 X48.524 Y208.268
G1 X48.327 Y208.292
G1 X39.952 Y207.635
G1 X39.762 Y207.58
G1 X39.611 Y207.461
G1 X39.517 Y207.294
G1 X39.493 Y207.097
G1 X39.611 Y205.602
G1 X29.043 Y204.772
G1 X28.926 Y206.267
G1 X28.871 Y206.458
G1 X28.752 Y206.608
G1 X28.585 Y206.703
G1 X28.388 Y206.727
G1 X20.014 Y206.069
G1 X19.823 Y206.015
G1 X19.673 Y205.896
G1 X19.578 Y205.729
G1 X19.555 Y205.532
G1 X19.672 Y204.036
G1 X9.866 Y203.266
G1 X9.684 Y203.216
G1 X9.537 Y203.107
G1 X9.44 Y202.952
G1 X9.405 Y202.766
G1 X9.757 Y96.579
G1 X9.793 Y96.393
G1 X9.892 Y96.239
G1 X10.039 Y96.13
G1 X10.222 Y96.081
G1 X20.033 Y95.389
G1 X19.928 Y93.893
G1 X19.953 Y93.696
G1 X20.049 Y93.53
G1 X20.2 Y93.412
G1 X20.391 Y93.359
G1 X28.77 Y92.768
G1 X28.967 Y92.793
G1 X29.133 Y92.889
G1 X29.251 Y93.04
G1 X29.304 Y93.231
G1 X29.41 Y94.728
G1 X39.984 Y93.981
G1 X39.878 Y92.485
G1 X39.903 Y92.288
G1 X39.999 Y92.122
G1 X40.15 Y92.004
G1 X40.342 Y91.951
G1 X48.721 Y91.36
; Layer C02 Pass 2 of 3
G1 X48.918 Y91.386
G1 X49.084 Y91.481
G1 X49.202 Y91.632
G1 X49.255 Y91.824
G1 X49.36 Y93.32
G1 X59.934 Y92.574
G1 X59.828 Y91.078
G1 X59.854 Y90.881
G1 X59.95 Y90.715
G1 X60.101 Y90.596
G1 X60.292 Y90.544
G1 X68.671 Y89.952
G1 X68.868 Y89.978
G1 X69.034 Y90.074
G1 X69.152 Y90.225
G1 X69.205 Y90.416
G1 X69.311 Y91.912
G1 X79.884 Y91.166
G1 X79.779 Y89.67
G1 X79.804 Y89.473
G1 X79.9 Y89.307
G1 X80.051 Y89.189
G1 X80.242 Y89.136
G1 X92.454 Y88.274
G1 X92.595 Y90.269
G1 X92.21 Y209.732
G1 X92.054 Y211.726
G1 X79.83 Y210.766
G1 X79.639 Y210.712
G1 X79.489 Y210.592
G1 X79.394 Y210.426
G1 X79.37 Y210.228
G1 X79.488 Y208.733
G1 X68.92 Y207.903
G1 X68.803 Y209.399
G1 X68.749 Y209.59
G1 X68.629 Y209.74
G1 X68.462 Y209.834
G1 X68.265 Y209.858
G1 X59.891 Y209.2
G1 X59.7 Y209.146
G1 X59.55 Y209.027
G1 X59.456 Y208.86
G1 X59.432 Y208.663
G1 X59.549 Y207.167
G1 X48.982 Y206.338
G1 X48.864 Y207.833
G1 X48.81 Y208.024
G1 X48.691 Y208.174
G1 X48.524 Y208.268
G1 X48.327 Y208.292
G1 X39.952 Y207.635
G1 X39.762 Y207.58
G1 X39.611 Y207.461
G1 X39.517 Y207.294
G1 X39.493 Y207.097
G1 X39.611 Y205.602
G1 X29.043 Y204.772
G1 X28.926 Y206.267
G1 X28.871 Y206.458
G1 X28.752 Y206.608
G1 X28.585 Y206.703
G1 X28.388 Y206.727
G1 X20.014 Y206.069
G1 X19.823 Y206.015
G1 X19.673 Y205.896
G1 X19.578 Y205.729
G1 X19.555 Y205.532
G1 X19.672 Y204.036
G1 X9.866 Y203.266
G1 X9.684 Y203.216
G1 X9.537 Y203.107
G1 X9.44 Y202.952
G1 X9.405 Y202.766
G1 X9.757 Y96.579
G1 X9.793 Y96.393
G1 X9.892 Y96.239
G1 X10.039 Y96.13
G1 X10.222 Y96.081
G1 X20.033 Y95.389
G1 X19.928 Y93.893
G1 X19.953 Y93.696
G1 X20.049 Y93.53
G1 X20.2 Y93.412
G1 X20.391 Y93.359
G1 X28.77 Y92.768
G1 X28.967 Y92.793
G1 X29.133 Y92.889
G1 X29.251 Y93.04
G1 X29.304 Y93.231
G1 X29.41 Y94.728
G1 X39.984 Y93.981
G1 X39.878 Y92.485
G1 X39.903 Y92.288
G1 X39.999 Y92.122
G1 X40.15 Y92.004
G1 X40.342 Y91.951
G1 X48.721 Y91.36
; Layer C02 Pass 3 of 3
G1 X48.918 Y91.386
G1 X49.084 Y91.481
G1 X49.202 Y91.632
G1 X49.255 Y91.824
G1 X49.36 Y93.32
G1 X59.934 Y92.574
G1 X59.828 Y91.078
G1 X59.854 Y90.881
G1 X59.95 Y90.715
G1 X60.101 Y90.596
G1 X60.292 Y90.544
G1 X68.671 Y89.952
G1 X68.868 Y89.978
G1 X69.034 Y90.074
G1 X69.152 Y90.225
G1 X69.205 Y90.416
G1 X69.311 Y91.912
G1 X79.884 Y91.166
G1 X79.779 Y89.67
G1 X79.804 Y89.473
G1 X79.9 Y89.307
G1 X80.051 Y89.189
G1 X80.242 Y89.136
G1 X92.454 Y88.274
G1 X92.595 Y90.269
G1 X92.21 Y209.732
G1 X92.054 Y211.726
G1 X79.83 Y210.766
G1 X79.639 Y210.712
G1 X79.489 Y210.592
G1 X79.394 Y210.426
G1 X79.37 Y210.228
G1 X79.488 Y208.733
G1 X68.92 Y207.903
G1 X68.803 Y209.399
G1 X68.749 Y209.59
G1 X68.629 Y209.74
G1 X68.462 Y209.834
G1 X68.265 Y209.858
G1 X59.891 Y209.2
G1 X59.7 Y209.146
G1 X59.55 Y209.027
G1 X59.456 Y208.86
G1 X59.432 Y208.663
G1 X59.549 Y207.167
G1 X48.982 Y206.338
G1 X48.864 Y207.833
G1 X48.81 Y208.024
G1 X48.691 Y208.174
G1 X48.524 Y208.268
G1 X48.327 Y208.292
G1 X39.952 Y207.635
G1 X39.762 Y207.58
G1 X39.611 Y207.461
G1 X39.517 Y207.294
G1 X39.493 Y207.097
G1 X39.611 Y205.602
G1 X29.043 Y204.772
G1 X28.926 Y206.267
G1 X28.871 Y206.458
G1 X28.752 Y206.608
G1 X28.585 Y206.703
G1 X28.388 Y206.727
G1 X20.014 Y206.069
G1 X19.823 Y206.015
G1 X19.673 Y205.896
G1 X19.578 Y205.729
G1 X19.555 Y205.532
G1 X19.672 Y204.036
G1 X9.866 Y203.266
G1 X9.684 Y203.216
G1 X9.537 Y203.107
G1 X9.44 Y202.952
G1 X9.405 Y202.766
G1 X9.757 Y96.579
G1 X9.793 Y96.393
G1 X9.892 Y96.239
G1 X10.039 Y96.13
G1 X10.222 Y96.081
G1 X20.033 Y95.389
G1 X19.928 Y93.893
G1 X19.953 Y93.696
G1 X20.049 Y93.53
G1 X20.2 Y93.412
G1 X20.391 Y93.359
G1 X28.77 Y92.768
G1 X28.967 Y92.793
G1 X29.133 Y92.889
G1 X29.251 Y93.04
G1 X29.304 Y93.231
G1 X29.41 Y94.728
G1 X39.984 Y93.981
G1 X39.878 Y92.485
G1 X39.903 Y92.288
G1 X39.999 Y92.122
G1 X40.15 Y92.004
G1 X40.342 Y91.951
G1 X48.721 Y91.36
M05 
G0 X130.648 Y99.413 F0
; Layer C02 Pass 1 of 3
M03 S1000
G1 X130.627 Y99.614 F600
G1 X130.646 Y99.816
G1 X130.704 Y100.004
G1 X130.795 Y100.174
G1 X130.916 Y100.323
G1 X131.064 Y100.446
G1 X131.233 Y100.539
G1 X131.42 Y100.598
G1 X131.622 Y100.619
G1 X131.824 Y100.6
G1 X132.012 Y100.543
G1 X132.182 Y100.451
G1 X132.33 Y100.33
G1 X132.453 Y100.183
G1 X132.546 Y100.013
G1 X132.606 Y99.826
G1 X132.627 Y99.624
G1 X132.608 Y99.423
G1 X132.55 Y99.235
G1 X132.459 Y99.065
G1 X132.338 Y98.916
G1 X132.19 Y98.793
G1 X132.021 Y98.7
G1 X131.834 Y98.641
G1 X131.632 Y98.619
G1 X131.43 Y98.639
G1 X131.242 Y98.696
G1 X131.072 Y98.787
G1 X130.924 Y98.909
G1 X130.801 Y99.056
G1 X130.708 Y99.225
G1 X130.648 Y99.413
; Layer C02 Pass 2 of 3
G1 X130.627 Y99.614
G1 X130.646 Y99.816
G1 X130.704 Y100.004
G1 X130.795 Y100.174
G1 X130.916 Y100.323
G1 X131.064 Y100.446
G1 X131.233 Y100.539
G1 X131.42 Y100.598
G1 X131.622 Y100.619
G1 X131.824 Y100.6
G1 X132.012 Y100.543
G1 X132.182 Y100.451
G1 X132.33 Y100.33
G1 X132.453 Y100.183
G1 X132.546 Y100.013
G1 X132.606 Y99.826
G1 X132.627 Y99.624
G1 X132.608 Y99.423
G1 X132.55 Y99.235
G1 X132.459 Y99.065
G1 X132.338 Y98.916
G1 X132.19 Y98.793
G1 X132.021 Y98.7
G1 X131.834 Y98.641
G1 X131.632 Y98.619
G1 X131.43 Y98.639
G1 X131.242 Y98.696
G1 X131.072 Y98.787
G1 X130.924 Y98.909
G1 X130.801 Y99.056
G1 X130.708 Y99.225
G1 X130.648 Y99.413
; Layer C02 Pass 3 of 3
G1 X130.627 Y99.614
G1 X130.646 Y99.816
G1 X130.704 Y100.004
G1 X130.795 Y100.174
G1 X130.916 Y100.323
G1 X131.064 Y100.446
G1 X131.233 Y100.539
G1 X131.42 Y100.598
G1 X131.622 Y100.619
G1 X131.824 Y100.6
G1 X132.012 Y100.543
G1 X132.182 Y100.451
G1 X132.33 Y100.33
G1 X132.453 Y100.183
G1 X132.546 Y100.013
G1 X132.606 Y99.826
G1 X132.627 Y99.624
G1 X132.608 Y99.423
G1 X132.55 Y99.235
G1 X132.459 Y99.065
G1 X132.338 Y98.916
G1 X132.19 Y98.793
G1 X132.021 Y98.7
G1 X131.834 Y98.641
G1 X131.632 Y98.619
G1 X131.43 Y98.639
G1 X131.242 Y98.696
G1 X131.072 Y98.787
G1 X130.924 Y98.909
G1 X130.801 Y99.056
G1 X130.708 Y99.225
G1 X130.648 Y99.413
M05 
G0 X144.745 Y101.189 F0
; Layer C02 Pass 1 of 3
M03 S1000
G1 X144.723 Y101.391 F600
G1 X144.742 Y101.592
G1 X144.799 Y101.78
G1 X144.89 Y101.951
G1 X145.011 Y102.1
G1 X145.159 Y102.223
G1 X145.328 Y102.316
G1 X145.515 Y102.375
G1 X145.717 Y102.397
G1 X145.918 Y102.378
G1 X146.106 Y102.321
G1 X146.277 Y102.23
G1 X146.426 Y102.109
G1 X146.549 Y101.961
G1 X146.642 Y101.792
G1 X146.701 Y101.605
G1 X146.723 Y101.403
G1 X146.704 Y101.202
G1 X146.647 Y101.014
G1 X146.556 Y100.843
G1 X146.435 Y100.694
G1 X146.287 Y100.571
G1 X146.118 Y100.478
G1 X145.931 Y100.419
G1 X145.729 Y100.397
G1 X145.528 Y100.416
G1 X145.34 Y100.473
G1 X145.169 Y100.564
G1 X145.02 Y100.685
G1 X144.897 Y100.833
G1 X144.804 Y101.002
G1 X144.745 Y101.189
; Layer C02 Pass 2 of 3
G1 X144.723 Y101.391
G1 X144.742 Y101.592
G1 X144.799 Y101.78
G1 X144.89 Y101.951
G1 X145.011 Y102.1
G1 X145.159 Y102.223
G1 X145.328 Y102.316
G1 X145.515 Y102.375
G1 X145.717 Y102.397
G1 X145.918 Y102.378
G1 X146.106 Y102.321
G1 X146.277 Y102.23
G1 X146.426 Y102.109
G1 X146.549 Y101.961
G1 X146.642 Y101.792
G1 X146.701 Y101.605
G1 X146.723 Y101.403
G1 X146.704 Y101.202
G1 X146.647 Y101.014
G1 X146.556 Y100.843
G1 X146.435 Y100.694
G1 X146.287 Y100.571
G1 X146.118 Y100.478
G1 X145.931 Y100.419
G1 X145.729 Y100.397
G1 X145.528 Y100.416
G1 X145.34 Y100.473
G1 X145.169 Y100.564
G1 X145.02 Y100.685
G1 X144.897 Y100.833
G1 X144.804 Y101.002
G1 X144.745 Y101.189
; Layer C02 Pass 3 of 3
G1 X144.723 Y101.391
G1 X144.742 Y101.592
G1 X144.799 Y101.78
G1 X144.89 Y101.951
G1 X145.011 Y102.1
G1 X145.159 Y102.223
G1 X145.328 Y102.316
G1 X145.515 Y102.375
G1 X145.717 Y102.397
G1 X145.918 Y102.378
G1 X146.106 Y102.321
G1 X146.277 Y102.23
G1 X146.426 Y102.109
G1 X146.549 Y101.961
G1 X146.642 Y101.792
G1 X146.701 Y101.605
G1 X146.723 Y101.403
G1 X146.704 Y101.202
G1 X146.647 Y101.014
G1 X146.556 Y100.843
G1 X146.435 Y100.694
G1 X146.287 Y100.571
G1 X146.118 Y100.478
G1 X145.931 Y100.419
G1 X145.729 Y100.397
G1 X145.528 Y100.416
G1 X145.34 Y100.473
G1 X145.169 Y100.564
G1 X145.02 Y100.685
G1 X144.897 Y100.833
G1 X144.804 Y101.002
G1 X144.745 Y101.189
M05 
G0 X131.712 Y122.64 F0
; Layer C02 Pass 1 of 3
M03 S1000
G1 X131.51 Y122.619 F600
G1 X131.308 Y122.638
G1 X131.12 Y122.696
G1 X130.95 Y122.787
G1 X130.802 Y122.908
G1 X130.679 Y123.056
G1 X130.586 Y123.225
G1 X130.526 Y123.412
G1 X130.505 Y123.614
G1 X130.524 Y123.816
G1 X130.582 Y124.004
G1 X130.673 Y124.174
G1 X130.794 Y124.322
G1 X130.942 Y124.445
G1 X131.111 Y124.538
G1 X131.298 Y124.598
G1 X131.5 Y124.619
G1 X131.702 Y124.6
G1 X131.89 Y124.542
G1 X132.06 Y124.451
G1 X132.208 Y124.33
G1 X132.331 Y124.182
G1 X132.424 Y124.013
G1 X132.484 Y123.826
G1 X132.505 Y123.624
G1 X132.486 Y123.422
G1 X132.428 Y123.234
G1 X132.337 Y123.064
G1 X132.216 Y122.916
G1 X132.068 Y122.793
G1 X131.899 Y122.7
G1 X131.712 Y122.64
; Layer C02 Pass 2 of 3
G1 X131.51 Y122.619
G1 X131.308 Y122.638
G1 X131.12 Y122.696
G1 X130.95 Y122.787
G1 X130.802 Y122.908
G1 X130.679 Y123.056
G1 X130.586 Y123.225
G1 X130.526 Y123.412
G1 X130.505 Y123.614
G1 X130.524 Y123.816
G1 X130.582 Y124.004
G1 X130.673 Y124.174
G1 X130.794 Y124.322
G1 X130.942 Y124.445
G1 X131.111 Y124.538
G1 X131.298 Y124.598
G1 X131.5 Y124.619
G1 X131.702 Y124.6
G1 X131.89 Y124.542
G1 X132.06 Y124.451
G1 X132.208 Y124.33
G1 X132.331 Y124.182
G1 X132.424 Y124.013
G1 X132.484 Y123.826
G1 X132.505 Y123.624
G1 X132.486 Y123.422
G1 X132.428 Y123.234
G1 X132.337 Y123.064
G1 X132.216 Y122.916
G1 X132.068 Y122.793
G1 X131.899 Y122.7
G1 X131.712 Y122.64
; Layer C02 Pass 3 of 3
G1 X131.51 Y122.619
G1 X131.308 Y122.638
G1 X131.12 Y122.696
G1 X130.95 Y122.787
G1 X130.802 Y122.908
G1 X130.679 Y123.056
G1 X130.586 Y123.225
G1 X130.526 Y123.412
G1 X130.505 Y123.614
G1 X130.524 Y123.816
G1 X130.582 Y124.004
G1 X130.673 Y124.174
G1 X130.794 Y124.322
G1 X130.942 Y124.445
G1 X131.111 Y124.538
G1 X131.298 Y124.598
G1 X131.5 Y124.619
G1 X131.702 Y124.6
G1 X131.89 Y124.542
G1 X132.06 Y124.451
G1 X132.208 Y124.33
G1 X132.331 Y124.182
G1 X132.424 Y124.013
G1 X132.484 Y123.826
G1 X132.505 Y123.624
G1 X132.486 Y123.422
G1 X132.428 Y123.234
G1 X132.337 Y123.064
G1 X132.216 Y122.916
G1 X132.068 Y122.793
G1 X131.899 Y122.7
G1 X131.712 Y122.64
M05 
G0 X131.388 Y146.619 F0
; Layer C02 Pass 1 of 3
M03 S1000
G1 X131.186 Y146.638 F600
G1 X130.998 Y146.696
G1 X130.828 Y146.787
G1 X130.68 Y146.908
G1 X130.557 Y147.056
G1 X130.464 Y147.225
G1 X130.404 Y147.412
G1 X130.383 Y147.614
G1 X130.402 Y147.816
G1 X130.46 Y148.004
G1 X130.551 Y148.174
G1 X130.672 Y148.322
G1 X130.82 Y148.445
G1 X130.989 Y148.538
G1 X131.176 Y148.598
G1 X131.378 Y148.619
G1 X131.58 Y148.6
G1 X131.768 Y148.542
G1 X131.938 Y148.451
G1 X132.086 Y148.33
G1 X132.209 Y148.182
G1 X132.302 Y148.013
G1 X132.362 Y147.826
G1 X132.383 Y147.624
G1 X132.364 Y147.422
G1 X132.306 Y147.234
G1 X132.215 Y147.064
G1 X132.094 Y146.916
G1 X131.946 Y146.793
G1 X131.777 Y146.7
G1 X131.59 Y146.64
G1 X131.388 Y146.619
; Layer C02 Pass 2 of 3
G1 X131.186 Y146.638
G1 X130.998 Y146.696
G1 X130.828 Y146.787
G1 X130.68 Y146.908
G1 X130.557 Y147.056
G1 X130.464 Y147.225
G1 X130.404 Y147.412
G1 X130.383 Y147.614
G1 X130.402 Y147.816
G1 X130.46 Y148.004
G1 X130.551 Y148.174
G1 X130.672 Y148.322
G1 X130.82 Y148.445
G1 X130.989 Y148.538
G1 X131.176 Y148.598
G1 X131.378 Y148.619
G1 X131.58 Y148.6
G1 X131.768 Y148.542
G1 X131.938 Y148.451
G1 X132.086 Y148.33
G1 X132.209 Y148.182
G1 X132.302 Y148.013
G1 X132.362 Y147.826
G1 X132.383 Y147.624
G1 X132.364 Y147.422
G1 X132.306 Y147.234
G1 X132.215 Y147.064
G1 X132.094 Y146.916
G1 X131.946 Y146.793
G1 X131.777 Y146.7
G1 X131.59 Y146.64
G1 X131.388 Y146.619
; Layer C02 Pass 3 of 3
G1 X131.186 Y146.638
G1 X130.998 Y146.696
G1 X130.828 Y146.787
G1 X130.68 Y146.908
G1 X130.557 Y147.056
G1 X130.464 Y147.225
G1 X130.404 Y147.412
G1 X130.383 Y147.614
G1 X130.402 Y147.816
G1 X130.46 Y148.004
G1 X130.551 Y148.174
G1 X130.672 Y148.322
G1 X130.82 Y148.445
G1 X130.989 Y148.538
G1 X131.176 Y148.598
G1 X131.378 Y148.619
G1 X131.58 Y148.6
G1 X131.768 Y148.542
G1 X131.938 Y148.451
G1 X132.086 Y148.33
G1 X132.209 Y148.182
G1 X132.302 Y148.013
G1 X132.362 Y147.826
G1 X132.383 Y147.624
G1 X132.364 Y147.422
G1 X132.306 Y147.234
G1 X132.215 Y147.064
G1 X132.094 Y146.916
G1 X131.946 Y146.793
G1 X131.777 Y146.7
G1 X131.59 Y146.64
G1 X131.388 Y146.619
M05 
G0 X131.265 Y170.618 F0
; Layer C02 Pass 1 of 3
M03 S1000
G1 X131.063 Y170.637 F600
G1 X130.875 Y170.695
G1 X130.705 Y170.786
G1 X130.557 Y170.907
G1 X130.434 Y171.055
G1 X130.341 Y171.224
G1 X130.281 Y171.411
G1 X130.26 Y171.613
G1 X130.279 Y171.815
G1 X130.337 Y172.003
G1 X130.428 Y172.173
G1 X130.549 Y172.321
G1 X130.697 Y172.444
G1 X130.866 Y172.537
G1 X131.053 Y172.597
G1 X131.255 Y172.618
G1 X131.457 Y172.599
G1 X131.645 Y172.541
G1 X131.815 Y172.45
G1 X131.963 Y172.329
G1 X132.086 Y172.181
G1 X132.179 Y172.012
G1 X132.239 Y171.825
G1 X132.26 Y171.623
G1 X132.241 Y171.421
G1 X132.183 Y171.233
G1 X132.092 Y171.063
G1 X131.971 Y170.915
G1 X131.823 Y170.792
G1 X131.654 Y170.699
G1 X131.467 Y170.639
G1 X131.265 Y170.618
; Layer C02 Pass 2 of 3
G1 X131.063 Y170.637
G1 X130.875 Y170.695
G1 X130.705 Y170.786
G1 X130.557 Y170.907
G1 X130.434 Y171.055
G1 X130.341 Y171.224
G1 X130.281 Y171.411
G1 X130.26 Y171.613
G1 X130.279 Y171.815
G1 X130.337 Y172.003
G1 X130.428 Y172.173
G1 X130.549 Y172.321
G1 X130.697 Y172.444
G1 X130.866 Y172.537
G1 X131.053 Y172.597
G1 X131.255 Y172.618
G1 X131.457 Y172.599
G1 X131.645 Y172.541
G1 X131.815 Y172.45
G1 X131.963 Y172.329
G1 X132.086 Y172.181
G1 X132.179 Y172.012
G1 X132.239 Y171.825
G1 X132.26 Y171.623
G1 X132.241 Y171.421
G1 X132.183 Y171.233
G1 X132.092 Y171.063
G1 X131.971 Y170.915
G1 X131.823 Y170.792
G1 X131.654 Y170.699
G1 X131.467 Y170.639
G1 X131.265 Y170.618
; Layer C02 Pass 3 of 3
G1 X131.063 Y170.637
G1 X130.875 Y170.695
G1 X130.705 Y170.786
G1 X130.557 Y170.907
G1 X130.434 Y171.055
G1 X130.341 Y171.224
G1 X130.281 Y171.411
G1 X130.26 Y171.613
G1 X130.279 Y171.815
G1 X130.337 Y172.003
G1 X130.428 Y172.173
G1 X130.549 Y172.321
G1 X130.697 Y172.444
G1 X130.866 Y172.537
G1 X131.053 Y172.597
G1 X131.255 Y172.618
G1 X131.457 Y172.599
G1 X131.645 Y172.541
G1 X131.815 Y172.45
G1 X131.963 Y172.329
G1 X132.086 Y172.181
G1 X132.179 Y172.012
G1 X132.239 Y171.825
G1 X132.26 Y171.623
G1 X132.241 Y171.421
G1 X132.183 Y171.233
G1 X132.092 Y171.063
G1 X131.971 Y170.915
G1 X131.823 Y170.792
G1 X131.654 Y170.699
G1 X131.467 Y170.639
G1 X131.265 Y170.618
M05 
G0 X131.745 Y76.62 F0
; Layer C02 Pass 1 of 3
M03 S1000
G1 X131.947 Y76.6 F600
G1 X132.135 Y76.543
G1 X132.305 Y76.452
G1 X132.453 Y76.33
G1 X132.576 Y76.183
G1 X132.669 Y76.014
G1 X132.729 Y75.826
G1 X132.75 Y75.625
G1 X132.731 Y75.423
G1 X132.673 Y75.235
G1 X132.582 Y75.065
G1 X132.461 Y74.916
G1 X132.313 Y74.793
G1 X132.144 Y74.7
G1 X131.957 Y74.641
G1 X131.755 Y74.62
G1 X131.553 Y74.639
G1 X131.365 Y74.696
G1 X131.195 Y74.788
G1 X131.047 Y74.909
G1 X130.924 Y75.056
G1 X130.831 Y75.226
G1 X130.771 Y75.413
G1 X130.75 Y75.615
G1 X130.769 Y75.816
G1 X130.827 Y76.004
G1 X130.918 Y76.175
G1 X131.039 Y76.323
G1 X131.187 Y76.446
G1 X131.356 Y76.539
G1 X131.543 Y76.598
G1 X131.745 Y76.62
; Layer C02 Pass 2 of 3
G1 X131.947 Y76.6
G1 X132.135 Y76.543
G1 X132.305 Y76.452
G1 X132.453 Y76.33
G1 X132.576 Y76.183
G1 X132.669 Y76.014
G1 X132.729 Y75.826
G1 X132.75 Y75.625
G1 X132.731 Y75.423
G1 X132.673 Y75.235
G1 X132.582 Y75.065
G1 X132.461 Y74.916
G1 X132.313 Y74.793
G1 X132.144 Y74.7
G1 X131.957 Y74.641
G1 X131.755 Y74.62
G1 X131.553 Y74.639
G1 X131.365 Y74.696
G1 X131.195 Y74.788
G1 X131.047 Y74.909
G1 X130.924 Y75.056
G1 X130.831 Y75.226
G1 X130.771 Y75.413
G1 X130.75 Y75.615
G1 X130.769 Y75.816
G1 X130.827 Y76.004
G1 X130.918 Y76.175
G1 X131.039 Y76.323
G1 X131.187 Y76.446
G1 X131.356 Y76.539
G1 X131.543 Y76.598
G1 X131.745 Y76.62
; Layer C02 Pass 3 of 3
G1 X131.947 Y76.6
G1 X132.135 Y76.543
G1 X132.305 Y76.452
G1 X132.453 Y76.33
G1 X132.576 Y76.183
G1 X132.669 Y76.014
G1 X132.729 Y75.826
G1 X132.75 Y75.625
G1 X132.731 Y75.423
G1 X132.673 Y75.235
G1 X132.582 Y75.065
G1 X132.461 Y74.916
G1 X132.313 Y74.793
G1 X132.144 Y74.7
G1 X131.957 Y74.641
G1 X131.755 Y74.62
G1 X131.553 Y74.639
G1 X131.365 Y74.696
G1 X131.195 Y74.788
G1 X131.047 Y74.909
G1 X130.924 Y75.056
G1 X130.831 Y75.226
G1 X130.771 Y75.413
G1 X130.75 Y75.615
G1 X130.769 Y75.816
G1 X130.827 Y76.004
G1 X130.918 Y76.175
G1 X131.039 Y76.323
G1 X131.187 Y76.446
G1 X131.356 Y76.539
G1 X131.543 Y76.598
G1 X131.745 Y76.62
M05 
G0 X144.906 Y75.07 F0
; Layer C02 Pass 1 of 3
M03 S1000
G1 X144.963 Y75.258 F600
G1 X145.054 Y75.428
G1 X145.175 Y75.577
G1 X145.323 Y75.7
G1 X145.492 Y75.793
G1 X145.679 Y75.853
G1 X145.881 Y75.874
G1 X146.082 Y75.855
G1 X146.27 Y75.798
G1 X146.441 Y75.707
G1 X146.59 Y75.586
G1 X146.713 Y75.439
G1 X146.806 Y75.27
G1 X146.865 Y75.082
G1 X146.887 Y74.881
G1 X146.868 Y74.679
G1 X146.811 Y74.491
G1 X146.72 Y74.321
G1 X146.599 Y74.172
G1 X146.451 Y74.049
G1 X146.282 Y73.956
G1 X146.095 Y73.896
G1 X145.893 Y73.875
G1 X145.692 Y73.894
G1 X145.504 Y73.951
G1 X145.333 Y74.042
G1 X145.184 Y74.163
G1 X145.061 Y74.31
G1 X144.968 Y74.479
G1 X144.909 Y74.667
G1 X144.887 Y74.868
G1 X144.906 Y75.07
; Layer C02 Pass 2 of 3
G1 X144.963 Y75.258
G1 X145.054 Y75.428
G1 X145.175 Y75.577
G1 X145.323 Y75.7
G1 X145.492 Y75.793
G1 X145.679 Y75.853
G1 X145.881 Y75.874
G1 X146.082 Y75.855
G1 X146.27 Y75.798
G1 X146.441 Y75.707
G1 X146.59 Y75.586
G1 X146.713 Y75.439
G1 X146.806 Y75.27
G1 X146.865 Y75.082
G1 X146.887 Y74.881
G1 X146.868 Y74.679
G1 X146.811 Y74.491
G1 X146.72 Y74.321
G1 X146.599 Y74.172
G1 X146.451 Y74.049
G1 X146.282 Y73.956
G1 X146.095 Y73.896
G1 X145.893 Y73.875
G1 X145.692 Y73.894
G1 X145.504 Y73.951
G1 X145.333 Y74.042
G1 X145.184 Y74.163
G1 X145.061 Y74.31
G1 X144.968 Y74.479
G1 X144.909 Y74.667
G1 X144.887 Y74.868
G1 X144.906 Y75.07
; Layer C02 Pass 3 of 3
G1 X144.963 Y75.258
G1 X145.054 Y75.428
G1 X145.175 Y75.577
G1 X145.323 Y75.7
G1 X145.492 Y75.793
G1 X145.679 Y75.853
G1 X145.881 Y75.874
G1 X146.082 Y75.855
G1 X146.27 Y75.798
G1 X146.441 Y75.707
G1 X146.59 Y75.586
G1 X146.713 Y75.439
G1 X146.806 Y75.27
G1 X146.865 Y75.082
G1 X146.887 Y74.881
G1 X146.868 Y74.679
G1 X146.811 Y74.491
G1 X146.72 Y74.321
G1 X146.599 Y74.172
G1 X146.451 Y74.049
G1 X146.282 Y73.956
G1 X146.095 Y73.896
G1 X145.893 Y73.875
G1 X145.692 Y73.894
G1 X145.504 Y73.951
G1 X145.333 Y74.042
G1 X145.184 Y74.163
G1 X145.061 Y74.31
G1 X144.968 Y74.479
G1 X144.909 Y74.667
G1 X144.887 Y74.868
G1 X144.906 Y75.07
M05 
G0 X132.069 Y52.601 F0
; Layer C02 Pass 1 of 3
M03 S1000
G1 X132.257 Y52.543 F600
G1 X132.427 Y52.452
G1 X132.575 Y52.331
G1 X132.698 Y52.183
G1 X132.791 Y52.014
G1 X132.851 Y51.827
G1 X132.872 Y51.625
G1 X132.853 Y51.423
G1 X132.795 Y51.235
G1 X132.704 Y51.065
G1 X132.583 Y50.917
G1 X132.435 Y50.794
G1 X132.266 Y50.701
G1 X132.079 Y50.641
G1 X131.877 Y50.62
G1 X131.675 Y50.639
G1 X131.487 Y50.697
G1 X131.317 Y50.788
G1 X131.169 Y50.909
G1 X131.046 Y51.057
G1 X130.953 Y51.226
G1 X130.893 Y51.413
G1 X130.872 Y51.615
G1 X130.891 Y51.817
G1 X130.949 Y52.005
G1 X131.04 Y52.175
G1 X131.161 Y52.323
G1 X131.309 Y52.446
G1 X131.478 Y52.539
G1 X131.665 Y52.599
G1 X131.867 Y52.62
G1 X132.069 Y52.601
; Layer C02 Pass 2 of 3
G1 X132.257 Y52.543
G1 X132.427 Y52.452
G1 X132.575 Y52.331
G1 X132.698 Y52.183
G1 X132.791 Y52.014
G1 X132.851 Y51.827
G1 X132.872 Y51.625
G1 X132.853 Y51.423
G1 X132.795 Y51.235
G1 X132.704 Y51.065
G1 X132.583 Y50.917
G1 X132.435 Y50.794
G1 X132.266 Y50.701
G1 X132.079 Y50.641
G1 X131.877 Y50.62
G1 X131.675 Y50.639
G1 X131.487 Y50.697
G1 X131.317 Y50.788
G1 X131.169 Y50.909
G1 X131.046 Y51.057
G1 X130.953 Y51.226
G1 X130.893 Y51.413
G1 X130.872 Y51.615
G1 X130.891 Y51.817
G1 X130.949 Y52.005
G1 X131.04 Y52.175
G1 X131.161 Y52.323
G1 X131.309 Y52.446
G1 X131.478 Y52.539
G1 X131.665 Y52.599
G1 X131.867 Y52.62
G1 X132.069 Y52.601
; Layer C02 Pass 3 of 3
G1 X132.257 Y52.543
G1 X132.427 Y52.452
G1 X132.575 Y52.331
G1 X132.698 Y52.183
G1 X132.791 Y52.014
G1 X132.851 Y51.827
G1 X132.872 Y51.625
G1 X132.853 Y51.423
G1 X132.795 Y51.235
G1 X132.704 Y51.065
G1 X132.583 Y50.917
G1 X132.435 Y50.794
G1 X132.266 Y50.701
G1 X132.079 Y50.641
G1 X131.877 Y50.62
G1 X131.675 Y50.639
G1 X131.487 Y50.697
G1 X131.317 Y50.788
G1 X131.169 Y50.909
G1 X131.046 Y51.057
G1 X130.953 Y51.226
G1 X130.893 Y51.413
G1 X130.872 Y51.615
G1 X130.891 Y51.817
G1 X130.949 Y52.005
G1 X131.04 Y52.175
G1 X131.161 Y52.323
G1 X131.309 Y52.446
G1 X131.478 Y52.539
G1 X131.665 Y52.599
G1 X131.867 Y52.62
G1 X132.069 Y52.601
M05 
G0 X145.353 Y46.727 F0
; Layer C02 Pass 1 of 3
M03 S1000
G1 X145.501 Y46.85 F600
G1 X145.67 Y46.943
G1 X145.857 Y47.003
G1 X146.059 Y47.024
G1 X146.26 Y47.005
G1 X146.448 Y46.948
G1 X146.619 Y46.857
G1 X146.768 Y46.736
G1 X146.891 Y46.589
G1 X146.984 Y46.419
G1 X147.043 Y46.232
G1 X147.065 Y46.031
G1 X147.046 Y45.829
G1 X146.989 Y45.641
G1 X146.898 Y45.471
G1 X146.777 Y45.322
G1 X146.629 Y45.199
G1 X146.46 Y45.105
G1 X146.273 Y45.046
G1 X146.071 Y45.024
G1 X145.87 Y45.043
G1 X145.682 Y45.101
G1 X145.511 Y45.192
G1 X145.362 Y45.313
G1 X145.239 Y45.46
G1 X145.146 Y45.629
G1 X145.087 Y45.817
G1 X145.065 Y46.018
G1 X145.084 Y46.22
G1 X145.141 Y46.408
G1 X145.232 Y46.578
G1 X145.353 Y46.727
; Layer C02 Pass 2 of 3
G1 X145.501 Y46.85
G1 X145.67 Y46.943
G1 X145.857 Y47.003
G1 X146.059 Y47.024
G1 X146.26 Y47.005
G1 X146.448 Y46.948
G1 X146.619 Y46.857
G1 X146.768 Y46.736
G1 X146.891 Y46.589
G1 X146.984 Y46.419
G1 X147.043 Y46.232
G1 X147.065 Y46.031
G1 X147.046 Y45.829
G1 X146.989 Y45.641
G1 X146.898 Y45.471
G1 X146.777 Y45.322
G1 X146.629 Y45.199
G1 X146.46 Y45.105
G1 X146.273 Y45.046
G1 X146.071 Y45.024
G1 X145.87 Y45.043
G1 X145.682 Y45.101
G1 X145.511 Y45.192
G1 X145.362 Y45.313
G1 X145.239 Y45.46
G1 X145.146 Y45.629
G1 X145.087 Y45.817
G1 X145.065 Y46.018
G1 X145.084 Y46.22
G1 X145.141 Y46.408
G1 X145.232 Y46.578
G1 X145.353 Y46.727
; Layer C02 Pass 3 of 3
G1 X145.501 Y46.85
G1 X145.67 Y46.943
G1 X145.857 Y47.003
G1 X146.059 Y47.024
G1 X146.26 Y47.005
G1 X146.448 Y46.948
G1 X146.619 Y46.857
G1 X146.768 Y46.736
G1 X146.891 Y46.589
G1 X146.984 Y46.419
G1 X147.043 Y46.232
G1 X147.065 Y46.031
G1 X147.046 Y45.829
G1 X146.989 Y45.641
G1 X146.898 Y45.471
G1 X146.777 Y45.322
G1 X146.629 Y45.199
G1 X146.46 Y45.105
G1 X146.273 Y45.046
G1 X146.071 Y45.024
G1 X145.87 Y45.043
G1 X145.682 Y45.101
G1 X145.511 Y45.192
G1 X145.362 Y45.313
G1 X145.239 Y45.46
G1 X145.146 Y45.629
G1 X145.087 Y45.817
G1 X145.065 Y46.018
G1 X145.084 Y46.22
G1 X145.141 Y46.408
G1 X145.232 Y46.578
G1 X145.353 Y46.727
M05 
G0 X146.309 Y35.165 F0
; Layer C02 Pass 1 of 3
M03 S1000
G1 X156.808 Y36.622 F600
G1 X157.014 Y35.137
G1 X157.08 Y34.949
G1 X157.208 Y34.807
G1 X157.38 Y34.722
G1 X157.578 Y34.71
G1 X165.898 Y35.865
G1 X166.086 Y35.93
G1 X166.229 Y36.058
G1 X166.313 Y36.231
G1 X166.325 Y36.429
G1 X166.119 Y37.915
G1 X176.321 Y39.33
G1 X177.821
G1 X178.015 Y39.38
G1 X178.174 Y39.488
G1 X178.28 Y39.648
G1 X178.318 Y39.843
G1 X178.284 Y45.388
G1 X178.244 Y45.582
G1 X178.136 Y45.74
G1 X177.976 Y45.847
G1 X177.781 Y45.885
G1 X176.281
G1 X176.22 Y55.975
G1 X177.72
G1 X177.914 Y56.025
G1 X178.072 Y56.133
G1 X178.179 Y56.293
G1 X178.217 Y56.487
G1 X178.161 Y65.687
G1 X178.12 Y65.882
G1 X178.012 Y66.04
G1 X177.853 Y66.146
G1 X177.658 Y66.184
G1 X176.158
G1 X176.097 Y76.173
G1 X177.597
G1 X177.791 Y76.223
G1 X177.95 Y76.331
G1 X178.056 Y76.49
G1 X178.094 Y76.685
G1 X178.039 Y85.687
G1 X177.999 Y85.881
G1 X177.89 Y86.04
G1 X177.731 Y86.146
G1 X177.536 Y86.184
G1 X176.036
G1 X175.975 Y96.275
G1 X177.475
G1 X177.669 Y96.325
G1 X177.827 Y96.433
G1 X177.933 Y96.592
G1 X177.972 Y96.787
G1 X177.916 Y105.887
G1 X177.876 Y106.081
G1 X177.768 Y106.239
G1 X177.608 Y106.345
G1 X177.413 Y106.384
G1 X175.913
G1 X175.855 Y115.974
G1 X177.355
G1 X177.549 Y116.024
G1 X177.707 Y116.132
G1 X177.814 Y116.292
G1 X177.852 Y116.486
G1 X177.796 Y125.586
G1 X177.756 Y125.781
G1 X177.648 Y125.939
G1 X177.488 Y126.045
G1 X177.293 Y126.083
G1 X175.793
G1 X175.706 Y140.466
G1 X177.057 Y141.117
G1 X177.216 Y141.237
G1 X177.312 Y141.402
G1 X177.34 Y141.592
G1 X177.291 Y141.784
G1 X173.386 Y149.893
G1 X173.266 Y150.052
G1 X173.101 Y150.148
G1 X172.911 Y150.176
G1 X172.719 Y150.127
G1 X171.367 Y149.476
G1 X167.028 Y158.486
G1 X168.38 Y159.137
G1 X168.538 Y159.256
G1 X168.635 Y159.422
G1 X168.662 Y159.612
G1 X168.613 Y159.804
G1 X164.709 Y167.913
G1 X164.589 Y168.071
G1 X164.423 Y168.168
G1 X164.234 Y168.195
G1 X164.041 Y168.146
G1 X162.69 Y167.495
G1 X158.351 Y176.505
G1 X159.702 Y177.156
G1 X159.861 Y177.276
G1 X159.957 Y177.441
G1 X159.985 Y177.631
G1 X159.936 Y177.823
G1 X156.031 Y185.932
G1 X155.911 Y186.091
G1 X155.746 Y186.187
G1 X155.556 Y186.215
G1 X155.364 Y186.166
G1 X154.012 Y185.515
G1 X149.674 Y194.525
G1 X151.025 Y195.176
G1 X151.183 Y195.295
G1 X151.28 Y195.461
G1 X151.308 Y195.651
G1 X151.259 Y195.843
G1 X147.354 Y203.952
G1 X147.234 Y204.11
G1 X147.069 Y204.207
G1 X146.879 Y204.234
G1 X146.686 Y204.185
G1 X145.335 Y203.535
G1 X140.633 Y213.3
G1 X140.534 Y213.438
G1 X140.398 Y213.534
G1 X140.239 Y213.58
G1 X140.069 Y213.57
G1 X139.912 Y213.504
G1 X139.79 Y213.393
G1 X139.71 Y213.247
G1 X139.682 Y213.08
G1 X140.812 Y34.402
G1 X141.086 Y32.421
G1 X146.088 Y33.115
G1 X146.276 Y33.181
G1 X146.418 Y33.309
G1 X146.503 Y33.481
G1 X146.515 Y33.679
G1 X146.309 Y35.165
; Layer C02 Pass 2 of 3
G1 X156.808 Y36.622
G1 X157.014 Y35.137
G1 X157.08 Y34.949
G1 X157.208 Y34.807
G1 X157.38 Y34.722
G1 X157.578 Y34.71
G1 X165.898 Y35.865
G1 X166.086 Y35.93
G1 X166.229 Y36.058
G1 X166.313 Y36.231
G1 X166.325 Y36.429
G1 X166.119 Y37.915
G1 X176.321 Y39.33
G1 X177.821
G1 X178.015 Y39.38
G1 X178.174 Y39.488
G1 X178.28 Y39.648
G1 X178.318 Y39.843
G1 X178.284 Y45.388
G1 X178.244 Y45.582
G1 X178.136 Y45.74
G1 X177.976 Y45.847
G1 X177.781 Y45.885
G1 X176.281
G1 X176.22 Y55.975
G1 X177.72
G1 X177.914 Y56.025
G1 X178.072 Y56.133
G1 X178.179 Y56.293
G1 X178.217 Y56.487
G1 X178.161 Y65.687
G1 X178.12 Y65.882
G1 X178.012 Y66.04
G1 X177.853 Y66.146
G1 X177.658 Y66.184
G1 X176.158
G1 X176.097 Y76.173
G1 X177.597
G1 X177.791 Y76.223
G1 X177.95 Y76.331
G1 X178.056 Y76.49
G1 X178.094 Y76.685
G1 X178.039 Y85.687
G1 X177.999 Y85.881
G1 X177.89 Y86.04
G1 X177.731 Y86.146
G1 X177.536 Y86.184
G1 X176.036
G1 X175.975 Y96.275
G1 X177.475
G1 X177.669 Y96.325
G1 X177.827 Y96.433
G1 X177.933 Y96.592
G1 X177.972 Y96.787
G1 X177.916 Y105.887
G1 X177.876 Y106.081
G1 X177.768 Y106.239
G1 X177.608 Y106.345
G1 X177.413 Y106.384
G1 X175.913
G1 X175.855 Y115.974
G1 X177.355
G1 X177.549 Y116.024
G1 X177.707 Y116.132
G1 X177.814 Y116.292
G1 X177.852 Y116.486
G1 X177.796 Y125.586
G1 X177.756 Y125.781
G1 X177.648 Y125.939
G1 X177.488 Y126.045
G1 X177.293 Y126.083
G1 X175.793
G1 X175.706 Y140.466
G1 X177.057 Y141.117
G1 X177.216 Y141.237
G1 X177.312 Y141.402
G1 X177.34 Y141.592
G1 X177.291 Y141.784
G1 X173.386 Y149.893
G1 X173.266 Y150.052
G1 X173.101 Y150.148
G1 X172.911 Y150.176
G1 X172.719 Y150.127
G1 X171.367 Y149.476
G1 X167.028 Y158.486
G1 X168.38 Y159.137
G1 X168.538 Y159.256
G1 X168.635 Y159.422
G1 X168.662 Y159.612
G1 X168.613 Y159.804
G1 X164.709 Y167.913
G1 X164.589 Y168.071
G1 X164.423 Y168.168
G1 X164.234 Y168.195
G1 X164.041 Y168.146
G1 X162.69 Y167.495
G1 X158.351 Y176.505
G1 X159.702 Y177.156
G1 X159.861 Y177.276
G1 X159.957 Y177.441
G1 X159.985 Y177.631
G1 X159.936 Y177.823
G1 X156.031 Y185.932
G1 X155.911 Y186.091
G1 X155.746 Y186.187
G1 X155.556 Y186.215
G1 X155.364 Y186.166
G1 X154.012 Y185.515
G1 X149.674 Y194.525
G1 X151.025 Y195.176
G1 X151.183 Y195.295
G1 X151.28 Y195.461
G1 X151.308 Y195.651
G1 X151.259 Y195.843
G1 X147.354 Y203.952
G1 X147.234 Y204.11
G1 X147.069 Y204.207
G1 X146.879 Y204.234
G1 X146.686 Y204.185
G1 X145.335 Y203.535
G1 X140.633 Y213.3
G1 X140.534 Y213.438
G1 X140.398 Y213.534
G1 X140.239 Y213.58
G1 X140.069 Y213.57
G1 X139.912 Y213.504
G1 X139.79 Y213.393
G1 X139.71 Y213.247
G1 X139.682 Y213.08
G1 X140.812 Y34.402
G1 X141.086 Y32.421
G1 X146.088 Y33.115
G1 X146.276 Y33.181
G1 X146.418 Y33.309
G1 X146.503 Y33.481
G1 X146.515 Y33.679
G1 X146.309 Y35.165
; Layer C02 Pass 3 of 3
G1 X156.808 Y36.622
G1 X157.014 Y35.137
G1 X157.08 Y34.949
G1 X157.208 Y34.807
G1 X157.38 Y34.722
G1 X157.578 Y34.71
G1 X165.898 Y35.865
G1 X166.086 Y35.93
G1 X166.229 Y36.058
G1 X166.313 Y36.231
G1 X166.325 Y36.429
G1 X166.119 Y37.915
G1 X176.321 Y39.33
G1 X177.821
G1 X178.015 Y39.38
G1 X178.174 Y39.488
G1 X178.28 Y39.648
G1 X178.318 Y39.843
G1 X178.284 Y45.388
G1 X178.244 Y45.582
G1 X178.136 Y45.74
G1 X177.976 Y45.847
G1 X177.781 Y45.885
G1 X176.281
G1 X176.22 Y55.975
G1 X177.72
G1 X177.914 Y56.025
G1 X178.072 Y56.133
G1 X178.179 Y56.293
G1 X178.217 Y56.487
G1 X178.161 Y65.687
G1 X178.12 Y65.882
G1 X178.012 Y66.04
G1 X177.853 Y66.146
G1 X177.658 Y66.184
G1 X176.158
G1 X176.097 Y76.173
G1 X177.597
G1 X177.791 Y76.223
G1 X177.95 Y76.331
G1 X178.056 Y76.49
G1 X178.094 Y76.685
G1 X178.039 Y85.687
G1 X177.999 Y85.881
G1 X177.89 Y86.04
G1 X177.731 Y86.146
G1 X177.536 Y86.184
G1 X176.036
G1 X175.975 Y96.275
G1 X177.475
G1 X177.669 Y96.325
G1 X177.827 Y96.433
G1 X177.933 Y96.592
G1 X177.972 Y96.787
G1 X177.916 Y105.887
G1 X177.876 Y106.081
G1 X177.768 Y106.239
G1 X177.608 Y106.345
G1 X177.413 Y106.384
G1 X175.913
G1 X175.855 Y115.974
G1 X177.355
G1 X177.549 Y116.024
G1 X177.707 Y116.132
G1 X177.814 Y116.292
G1 X177.852 Y116.486
G1 X177.796 Y125.586
G1 X177.756 Y125.781
G1 X177.648 Y125.939
G1 X177.488 Y126.045
G1 X177.293 Y126.083
G1 X175.793
G1 X175.706 Y140.466
G1 X177.057 Y141.117
G1 X177.216 Y141.237
G1 X177.312 Y141.402
G1 X177.34 Y141.592
G1 X177.291 Y141.784
G1 X173.386 Y149.893
G1 X173.266 Y150.052
G1 X173.101 Y150.148
G1 X172.911 Y150.176
G1 X172.719 Y150.127
G1 X171.367 Y149.476
G1 X167.028 Y158.486
G1 X168.38 Y159.137
G1 X168.538 Y159.256
G1 X168.635 Y159.422
G1 X168.662 Y159.612
G1 X168.613 Y159.804
G1 X164.709 Y167.913
G1 X164.589 Y168.071
G1 X164.423 Y168.168
G1 X164.234 Y168.195
G1 X164.041 Y168.146
G1 X162.69 Y167.495
G1 X158.351 Y176.505
G1 X159.702 Y177.156
G1 X159.861 Y177.276
G1 X159.957 Y177.441
G1 X159.985 Y177.631
G1 X159.936 Y177.823
G1 X156.031 Y185.932
G1 X155.911 Y186.091
G1 X155.746 Y186.187
G1 X155.556 Y186.215
G1 X155.364 Y186.166
G1 X154.012 Y185.515
G1 X149.674 Y194.525
G1 X151.025 Y195.176
G1 X151.183 Y195.295
G1 X151.28 Y195.461
G1 X151.308 Y195.651
G1 X151.259 Y195.843
G1 X147.354 Y203.952
G1 X147.234 Y204.11
G1 X147.069 Y204.207
G1 X146.879 Y204.234
G1 X146.686 Y204.185
G1 X145.335 Y203.535
G1 X140.633 Y213.3
G1 X140.534 Y213.438
G1 X140.398 Y213.534
G1 X140.239 Y213.58
G1 X140.069 Y213.57
G1 X139.912 Y213.504
G1 X139.79 Y213.393
G1 X139.71 Y213.247
G1 X139.682 Y213.08
G1 X140.812 Y34.402
G1 X141.086 Y32.421
G1 X146.088 Y33.115
G1 X146.276 Y33.181
G1 X146.418 Y33.309
G1 X146.503 Y33.481
G1 X146.515 Y33.679
G1 X146.309 Y35.165
M05 
G0 X136.001 Y33.462 F0
; Layer C02 Pass 1 of 3
M03 S1000
G1 X135.09 Y212.045 F600
G1 X135.061 Y212.212
G1 X134.979 Y212.357
G1 X134.855 Y212.467
G1 X134.698 Y212.531
G1 X134.528
G1 X134.369 Y212.491
G1 X134.235 Y212.394
G1 X134.137 Y212.254
G1 X129.558 Y202.453
G1 X128.199 Y203.088
G1 X128.106 Y203.121
G1 X128.009 Y203.135
G1 X127.912
G1 X127.816 Y203.105
G1 X127.727 Y203.063
G1 X127.649 Y203.004
G1 X127.584 Y202.932
G1 X127.534 Y202.847
G1 X123.724 Y194.693
G1 X123.677 Y194.5
G1 X123.707 Y194.311
G1 X123.805 Y194.147
G1 X123.965 Y194.029
G1 X125.324 Y193.394
G1 X121.09 Y184.334
G1 X119.731 Y184.969
G1 X119.639 Y185.002
G1 X119.542 Y185.016
G1 X119.445
G1 X119.349 Y184.986
G1 X119.26 Y184.944
G1 X119.182 Y184.885
G1 X119.117 Y184.813
G1 X119.067 Y184.728
G1 X115.257 Y176.574
G1 X115.21 Y176.381
G1 X115.24 Y176.192
G1 X115.338 Y176.027
G1 X115.498 Y175.91
G1 X116.857 Y175.274
G1 X112.623 Y166.215
G1 X111.264 Y166.85
G1 X111.071 Y166.897
G1 X110.882 Y166.867
G1 X110.718 Y166.768
G1 X110.6 Y166.609
G1 X106.789 Y158.455
G1 X106.743 Y158.262
G1 X106.772 Y158.073
G1 X106.871 Y157.908
G1 X107.031 Y157.79
G1 X108.39 Y157.155
G1 X104.156 Y148.096
G1 X102.797 Y148.731
G1 X102.604 Y148.777
G1 X102.415 Y148.748
G1 X102.25 Y148.649
G1 X102.132 Y148.489
G1 X98.322 Y140.336
G1 X98.275 Y140.143
G1 X98.305 Y139.953
G1 X98.404 Y139.789
G1 X98.563 Y139.671
G1 X99.922 Y139.036
G1 X99.996 Y124.677
G1 X98.496
G1 X98.301 Y124.629
G1 X98.143 Y124.521
G1 X98.036 Y124.361
G1 X97.998 Y124.167
G1 X98.044 Y115.167
G1 X98.084 Y114.972
G1 X98.192 Y114.814
G1 X98.352 Y114.708
G1 X98.547 Y114.669
G1 X100.047
G1 X100.098 Y104.677
G1 X98.598
G1 X98.403 Y104.629
G1 X98.245 Y104.521
G1 X98.138 Y104.362
G1 X98.1 Y104.167
G1 X98.146 Y95.167
G1 X98.186 Y94.973
G1 X98.294 Y94.814
G1 X98.454 Y94.708
G1 X98.649 Y94.67
G1 X100.149
G1 X100.2 Y84.677
G1 X98.7
G1 X98.505 Y84.629
G1 X98.347 Y84.521
G1 X98.24 Y84.362
G1 X98.202 Y84.167
G1 X98.248 Y75.167
G1 X98.288 Y74.973
G1 X98.396 Y74.814
G1 X98.556 Y74.708
G1 X98.751 Y74.67
G1 X100.251
G1 X100.302 Y64.678
G1 X98.802
G1 X98.607 Y64.63
G1 X98.449 Y64.522
G1 X98.342 Y64.362
G1 X98.304 Y64.167
G1 X98.35 Y55.168
G1 X98.39 Y54.973
G1 X98.498 Y54.815
G1 X98.658 Y54.708
G1 X98.853 Y54.67
G1 X100.353
G1 X100.404 Y44.678
G1 X99.953 Y43.247
G1 X99.932 Y43.05
G1 X99.986 Y42.866
G1 X100.106 Y42.716
G1 X100.279 Y42.62
G1 X108.863 Y39.916
G1 X109.061 Y39.895
G1 X109.245 Y39.949
G1 X109.395 Y40.068
G1 X109.491 Y40.242
G1 X109.941 Y41.673
G1 X119.479 Y38.668
G1 X119.028 Y37.237
G1 X119.007 Y37.04
G1 X119.062 Y36.856
G1 X119.181 Y36.706
G1 X119.355 Y36.61
G1 X128.416 Y33.755
G1 X129.017 Y35.663
G1 X136.001 Y33.462
; Layer C02 Pass 2 of 3
G1 X135.09 Y212.045
G1 X135.061 Y212.212
G1 X134.979 Y212.357
G1 X134.855 Y212.467
G1 X134.698 Y212.531
G1 X134.528
G1 X134.369 Y212.491
G1 X134.235 Y212.394
G1 X134.137 Y212.254
G1 X129.558 Y202.453
G1 X128.199 Y203.088
G1 X128.106 Y203.121
G1 X128.009 Y203.135
G1 X127.912
G1 X127.816 Y203.105
G1 X127.727 Y203.063
G1 X127.649 Y203.004
G1 X127.584 Y202.932
G1 X127.534 Y202.847
G1 X123.724 Y194.693
G1 X123.677 Y194.5
G1 X123.707 Y194.311
G1 X123.805 Y194.147
G1 X123.965 Y194.029
G1 X125.324 Y193.394
G1 X121.09 Y184.334
G1 X119.731 Y184.969
G1 X119.639 Y185.002
G1 X119.542 Y185.016
G1 X119.445
G1 X119.349 Y184.986
G1 X119.26 Y184.944
G1 X119.182 Y184.885
G1 X119.117 Y184.813
G1 X119.067 Y184.728
G1 X115.257 Y176.574
G1 X115.21 Y176.381
G1 X115.24 Y176.192
G1 X115.338 Y176.027
G1 X115.498 Y175.91
G1 X116.857 Y175.274
G1 X112.623 Y166.215
G1 X111.264 Y166.85
G1 X111.071 Y166.897
G1 X110.882 Y166.867
G1 X110.718 Y166.768
G1 X110.6 Y166.609
G1 X106.789 Y158.455
G1 X106.743 Y158.262
G1 X106.772 Y158.073
G1 X106.871 Y157.908
G1 X107.031 Y157.79
G1 X108.39 Y157.155
G1 X104.156 Y148.096
G1 X102.797 Y148.731
G1 X102.604 Y148.777
G1 X102.415 Y148.748
G1 X102.25 Y148.649
G1 X102.132 Y148.489
G1 X98.322 Y140.336
G1 X98.275 Y140.143
G1 X98.305 Y139.953
G1 X98.404 Y139.789
G1 X98.563 Y139.671
G1 X99.922 Y139.036
G1 X99.996 Y124.677
G1 X98.496
G1 X98.301 Y124.629
G1 X98.143 Y124.521
G1 X98.036 Y124.361
G1 X97.998 Y124.167
G1 X98.044 Y115.167
G1 X98.084 Y114.972
G1 X98.192 Y114.814
G1 X98.352 Y114.708
G1 X98.547 Y114.669
G1 X100.047
G1 X100.098 Y104.677
G1 X98.598
G1 X98.403 Y104.629
G1 X98.245 Y104.521
G1 X98.138 Y104.362
G1 X98.1 Y104.167
G1 X98.146 Y95.167
G1 X98.186 Y94.973
G1 X98.294 Y94.814
G1 X98.454 Y94.708
G1 X98.649 Y94.67
G1 X100.149
G1 X100.2 Y84.677
G1 X98.7
G1 X98.505 Y84.629
G1 X98.347 Y84.521
G1 X98.24 Y84.362
G1 X98.202 Y84.167
G1 X98.248 Y75.167
G1 X98.288 Y74.973
G1 X98.396 Y74.814
G1 X98.556 Y74.708
G1 X98.751 Y74.67
G1 X100.251
G1 X100.302 Y64.678
G1 X98.802
G1 X98.607 Y64.63
G1 X98.449 Y64.522
G1 X98.342 Y64.362
G1 X98.304 Y64.167
G1 X98.35 Y55.168
G1 X98.39 Y54.973
G1 X98.498 Y54.815
G1 X98.658 Y54.708
G1 X98.853 Y54.67
G1 X100.353
G1 X100.404 Y44.678
G1 X99.953 Y43.247
G1 X99.932 Y43.05
G1 X99.986 Y42.866
G1 X100.106 Y42.716
G1 X100.279 Y42.62
G1 X108.863 Y39.916
G1 X109.061 Y39.895
G1 X109.245 Y39.949
G1 X109.395 Y40.068
G1 X109.491 Y40.242
G1 X109.941 Y41.673
G1 X119.479 Y38.668
G1 X119.028 Y37.237
G1 X119.007 Y37.04
G1 X119.062 Y36.856
G1 X119.181 Y36.706
G1 X119.355 Y36.61
G1 X128.416 Y33.755
G1 X129.017 Y35.663
G1 X136.001 Y33.462
; Layer C02 Pass 3 of 3
G1 X135.09 Y212.045
G1 X135.061 Y212.212
G1 X134.979 Y212.357
G1 X134.855 Y212.467
G1 X134.698 Y212.531
G1 X134.528
G1 X134.369 Y212.491
G1 X134.235 Y212.394
G1 X134.137 Y212.254
G1 X129.558 Y202.453
G1 X128.199 Y203.088
G1 X128.106 Y203.121
G1 X128.009 Y203.135
G1 X127.912
G1 X127.816 Y203.105
G1 X127.727 Y203.063
G1 X127.649 Y203.004
G1 X127.584 Y202.932
G1 X127.534 Y202.847
G1 X123.724 Y194.693
G1 X123.677 Y194.5
G1 X123.707 Y194.311
G1 X123.805 Y194.147
G1 X123.965 Y194.029
G1 X125.324 Y193.394
G1 X121.09 Y184.334
G1 X119.731 Y184.969
G1 X119.639 Y185.002
G1 X119.542 Y185.016
G1 X119.445
G1 X119.349 Y184.986
G1 X119.26 Y184.944
G1 X119.182 Y184.885
G1 X119.117 Y184.813
G1 X119.067 Y184.728
G1 X115.257 Y176.574
G1 X115.21 Y176.381
G1 X115.24 Y176.192
G1 X115.338 Y176.027
G1 X115.498 Y175.91
G1 X116.857 Y175.274
G1 X112.623 Y166.215
G1 X111.264 Y166.85
G1 X111.071 Y166.897
G1 X110.882 Y166.867
G1 X110.718 Y166.768
G1 X110.6 Y166.609
G1 X106.789 Y158.455
G1 X106.743 Y158.262
G1 X106.772 Y158.073
G1 X106.871 Y157.908
G1 X107.031 Y157.79
G1 X108.39 Y157.155
G1 X104.156 Y148.096
G1 X102.797 Y148.731
G1 X102.604 Y148.777
G1 X102.415 Y148.748
G1 X102.25 Y148.649
G1 X102.132 Y148.489
G1 X98.322 Y140.336
G1 X98.275 Y140.143
G1 X98.305 Y139.953
G1 X98.404 Y139.789
G1 X98.563 Y139.671
G1 X99.922 Y139.036
G1 X99.996 Y124.677
G1 X98.496
G1 X98.301 Y124.629
G1 X98.143 Y124.521
G1 X98.036 Y124.361
G1 X97.998 Y124.167
G1 X98.044 Y115.167
G1 X98.084 Y114.972
G1 X98.192 Y114.814
G1 X98.352 Y114.708
G1 X98.547 Y114.669
G1 X100.047
G1 X100.098 Y104.677
G1 X98.598
G1 X98.403 Y104.629
G1 X98.245 Y104.521
G1 X98.138 Y104.362
G1 X98.1 Y104.167
G1 X98.146 Y95.167
G1 X98.186 Y94.973
G1 X98.294 Y94.814
G1 X98.454 Y94.708
G1 X98.649 Y94.67
G1 X100.149
G1 X100.2 Y84.677
G1 X98.7
G1 X98.505 Y84.629
G1 X98.347 Y84.521
G1 X98.24 Y84.362
G1 X98.202 Y84.167
G1 X98.248 Y75.167
G1 X98.288 Y74.973
G1 X98.396 Y74.814
G1 X98.556 Y74.708
G1 X98.751 Y74.67
G1 X100.251
G1 X100.302 Y64.678
G1 X98.802
G1 X98.607 Y64.63
G1 X98.449 Y64.522
G1 X98.342 Y64.362
G1 X98.304 Y64.167
G1 X98.35 Y55.168
G1 X98.39 Y54.973
G1 X98.498 Y54.815
G1 X98.658 Y54.708
G1 X98.853 Y54.67
G1 X100.353
G1 X100.404 Y44.678
G1 X99.953 Y43.247
G1 X99.932 Y43.05
G1 X99.986 Y42.866
G1 X100.106 Y42.716
G1 X100.279 Y42.62
G1 X108.863 Y39.916
G1 X109.061 Y39.895
G1 X109.245 Y39.949
G1 X109.395 Y40.068
G1 X109.491 Y40.242
G1 X109.941 Y41.673
G1 X119.479 Y38.668
G1 X119.028 Y37.237
G1 X119.007 Y37.04
G1 X119.062 Y36.856
G1 X119.181 Y36.706
G1 X119.355 Y36.61
G1 X128.416 Y33.755
G1 X129.017 Y35.663
G1 X136.001 Y33.462
; Cut @ 25 mm/sec, 100% power
M8
M05 
G0 X82.138 Y103.717 F0
; Layer C00
M03 S1000
G1 X72.138 Y103.685 F1500
G1 X72.106 Y113.685
G1 X82.106 Y113.717
G1 X82.138 Y103.717
M05 
G0 X67.138 Y103.669 F0
M03 S1000
G1 X57.138 Y103.637 F1500
G1 X57.106 Y113.637
G1 X67.106 Y113.669
G1 X67.138 Y103.669
M05 
G0 X51.138 Y103.617 F0
M03 S1000
G1 X41.138 Y103.585 F1500
G1 X41.106 Y113.585
G1 X51.106 Y113.617
G1 X51.138 Y103.617
M05 
G0 X38.139 Y103.325 F0
M03 S1000
G1 X28.139 Y103.293 F1500
G1 X28.107 Y113.293
G1 X38.107 Y113.325
G1 X38.139 Y103.325
M05 
G0 X22.139 Y103.274 F0
M03 S1000
G1 X12.139 Y103.242 F1500
G1 X12.107 Y113.242
G1 X22.107 Y113.274
G1 X22.139 Y103.274
M05 
G0 X22.092 Y118.024 F0
M03 S1000
G1 X12.092 Y117.992 F1500
G1 X12.06 Y127.992
G1 X22.059 Y128.024
G1 X22.092 Y118.024
M05 
G0 X28.092 Y118.043 F0
M03 S1000
G1 X28.059 Y128.043 F1500
G1 X38.059 Y128.075
G1 X38.092 Y118.075
G1 X28.092 Y118.043
M05 
G0 X41.091 Y118.335 F0
M03 S1000
G1 X41.059 Y128.335 F1500
G1 X51.058 Y128.367
G1 X51.091 Y118.367
G1 X41.091 Y118.335
M05 
G0 X57.091 Y118.387 F0
M03 S1000
G1 X57.058 Y128.387 F1500
G1 X67.058 Y128.419
G1 X67.091 Y118.419
G1 X57.091 Y118.387
M05 
G0 X72.091 Y118.435 F0
M03 S1000
G1 X72.058 Y128.435 F1500
G1 X82.058 Y128.467
G1 X82.09 Y118.467
G1 X72.091 Y118.435
M05 
G0 X72.043 Y133.185 F0
M03 S1000
G1 X72.011 Y143.185 F1500
G1 X82.011 Y143.217
G1 X82.043 Y133.217
G1 X72.043 Y133.185
M05 
G0 X67.043 Y133.169 F0
M03 S1000
G1 X57.043 Y133.137 F1500
G1 X57.011 Y143.137
G1 X67.011 Y143.169
G1 X67.043 Y133.169
M05 
G0 X51.043 Y133.117 F0
M03 S1000
G1 X41.043 Y133.085 F1500
G1 X41.011 Y143.085
G1 X51.011 Y143.117
G1 X51.043 Y133.117
M05 
G0 X38.044 Y132.825 F0
M03 S1000
G1 X28.044 Y132.793 F1500
G1 X28.012 Y142.793
G1 X38.012 Y142.825
G1 X38.044 Y132.825
M05 
G0 X22.044 Y132.774 F0
M03 S1000
G1 X12.044 Y132.742 F1500
G1 X12.012 Y142.742
G1 X22.012 Y142.774
G1 X22.044 Y132.774
M05 
G0 X21.997 Y147.524 F0
M03 S1000
G1 X11.997 Y147.492 F1500
G1 X11.964 Y157.492
G1 X21.964 Y157.524
G1 X21.997 Y147.524
M05 
G0 X27.997 Y147.543 F0
M03 S1000
G1 X27.964 Y157.543 F1500
G1 X37.964 Y157.575
G1 X37.996 Y147.575
G1 X27.997 Y147.543
M05 
G0 X40.996 Y147.835 F0
M03 S1000
G1 X40.964 Y157.835 F1500
G1 X50.963 Y157.867
G1 X50.996 Y147.867
G1 X40.996 Y147.835
M05 
G0 X56.996 Y147.886 F0
M03 S1000
G1 X56.963 Y157.886 F1500
G1 X66.963 Y157.918
G1 X66.996 Y147.918
G1 X56.996 Y147.886
M05 
G0 X71.996 Y147.935 F0
M03 S1000
G1 X71.963 Y157.935 F1500
G1 X81.963 Y157.967
G1 X81.995 Y147.967
G1 X71.996 Y147.935
M05 
G0 X71.948 Y162.685 F0
M03 S1000
G1 X71.916 Y172.685 F1500
G1 X81.916 Y172.717
G1 X81.948 Y162.717
G1 X71.948 Y162.685
M05 
G0 X66.948 Y162.668 F0
M03 S1000
G1 X56.948 Y162.636 F1500
G1 X56.916 Y172.636
G1 X66.916 Y172.668
G1 X66.948 Y162.668
M05 
G0 X50.948 Y162.617 F0
M03 S1000
G1 X40.948 Y162.585 F1500
G1 X40.916 Y172.585
G1 X50.916 Y172.617
G1 X50.948 Y162.617
M05 
G0 X37.949 Y162.325 F0
M03 S1000
G1 X27.949 Y162.293 F1500
G1 X27.917 Y172.293
G1 X37.917 Y172.325
G1 X37.949 Y162.325
M05 
G0 X21.949 Y162.273 F0
M03 S1000
G1 X11.949 Y162.241 F1500
G1 X11.917 Y172.241
G1 X21.917 Y172.273
G1 X21.949 Y162.273
M05 
G0 X21.902 Y177.023 F0
M03 S1000
G1 X11.902 Y176.991 F1500
G1 X11.869 Y186.991
G1 X21.869 Y187.023
G1 X21.902 Y177.023
M05 
G0 X27.902 Y177.043 F0
M03 S1000
G1 X27.869 Y187.043 F1500
G1 X37.869 Y187.075
G1 X37.901 Y177.075
G1 X27.902 Y177.043
M05 
G0 X40.901 Y177.335 F0
M03 S1000
G1 X40.868 Y187.335 F1500
G1 X50.868 Y187.367
G1 X50.901 Y177.367
G1 X40.901 Y177.335
M05 
G0 X56.901 Y177.386 F0
M03 S1000
G1 X56.868 Y187.386 F1500
G1 X66.868 Y187.418
G1 X66.901 Y177.418
G1 X56.901 Y177.386
M05 
G0 X71.901 Y177.435 F0
M03 S1000
G1 X71.868 Y187.435 F1500
G1 X81.868 Y187.467
G1 X81.9 Y177.467
G1 X71.901 Y177.435
M05 
G0 X71.853 Y192.185 F0
M03 S1000
G1 X71.821 Y202.185 F1500
G1 X81.821 Y202.217
G1 X81.853 Y192.217
G1 X71.853 Y192.185
M05 
G0 X66.853 Y192.168 F0
M03 S1000
G1 X56.853 Y192.136 F1500
G1 X56.821 Y202.136
G1 X66.821 Y202.168
G1 X66.853 Y192.168
M05 
G0 X50.853 Y192.117 F0
M03 S1000
G1 X40.853 Y192.085 F1500
G1 X40.821 Y202.085
G1 X50.821 Y202.117
G1 X50.853 Y192.117
M05 
G0 X37.854 Y191.825 F0
M03 S1000
G1 X27.854 Y191.793 F1500
G1 X27.822 Y201.793
G1 X37.822 Y201.825
G1 X37.854 Y191.825
M05 
G0 X21.854 Y191.773 F0
M03 S1000
G1 X11.854 Y191.741 F1500
G1 X11.822 Y201.741
G1 X21.822 Y201.773
G1 X21.854 Y191.773
; Image @ 100 mm/sec, 10% power
M8
M05 
G0 X148.259 Y39.599 F0
; Layer C02
G91
G1 X2.5 F6000
M03 S100
G1 X1.1
M05 
G1 X0.1
M03 S100
G1 X0.1
M05 
G1 X0.2
M03 S100
G1 X0.1
M05 
G1 X0.1
M03 S100
G1 X1.6
M05 
G1 X0.1
M03 S100
G1 X0.2
M05 
G1 X0.1
M03 S100
G1 X0.2
M05 
G1 X7.3
M03 S100
G1 X0.1
M05 
G1 X0.1
M03 S100
G1 X0.1
M05 
G1 X0.1
M03 S100
G1 X0.2
M05 
G1 X0.1
M03 S100
G1 X0.2
M05 
G1 X0.1
M03 S100
G1 X0.2
M05 
G1 X0.1
M03 S100
G1 X0.1
M05 
G1 X0.2
M03 S100
G1 X0.1
M05 
G1 X0.6
M03 S100
G1 X0.1
M05 
G1 X2.1
M03 S100
G1 X0.1
M05 
G1 X0.1
M03 S100
G1 X0.2
M05 
G1 X0.1
M03 S100
G1 X0.1
M05 
G1 X0.6
M03 S100
G1 X0.1
M05 
G1 X0.1
M03 S100
G1 X0.1
M05 
G1 X2.5
G1 X0.3Y0.1
G1 X-2.5
M03 S100
G1 X-0.1
M05 
G1 X-0.1
M03 S100
G1 X-0.3
M05 
G1 X-0.2
M03 S100
G1 X-0.1
M05 
G1 X-0.3
M03 S100
G1 X-0.1
M05 
G1 X-0.1
M03 S100
G1 X-0.1
M05 
G1 X-0.1
M03 S100
G1 X-0.2
M05 
G1 X-0.1
M03 S100
G1 X-0.1
M05 
G1 X-1.6
M03 S100
G1 X-0.1
M05 
G1 X-0.1
M03 S100
G1 X-0.1
M05 
G1 X-0.2
M03 S100
G1 X-0.1
M05 
G1 X-0.1
M03 S100
G1 X-0.2
M05 
G1 X-0.1
M03 S100
G1 X-0.1
M05 
G1 X-0.1
M03 S100
G1 X-0.2
M05 
G1 X-0.1
M03 S100
G1 X-0.1
M05 
G1 X-0.2
M03 S100
G1 X-0.1
M05 
G1 X-0.1
M03 S100
G1 X-0.1
M05 
G1 X-0.1
M03 S100
G1 X-0.1
M05 
G1 X-0.1
M03 S100
G1 X-0.1
M05 
G1 X-0.1
M03 S100
G1 X-0.1
M05 
G1 X-0.2
M03 S100
G1 X-0.1
M05 
G1 X-6.8
M03 S100
G1 X-0.1
M05 
G1 X-0.1
M03 S100
G1 X-0.2
M05 
G1 X-0.1
M03 S100
G1 X-0.2
M05 
G1 X-0.1
M03 S100
G1 X-0.2
M05 
G1 X-0.2
M03 S100
G1 X-0.1
M05 
G1 X-0.1
M03 S100
G1 X-0.1
M05 
G1 X-0.1
M03 S100
G1 X-0.6
M05 
G1 X-0.1
M03 S100
G1 X-0.1
M05 
G1 X-0.3
M03 S100
G1 X-0.1
M05 
G1 X-0.1
M03 S100
G1 X-0.2
M05 
G1 X-0.1
M03 S100
G1 X-0.2
M05 
G1 X-0.1
M03 S100
G1 X-0.2
M05 
G1 X-0.1
M03 S100
G1 X-0.2
M05 
G1 X-0.3
M03 S100
G1 X-0.1
M05 
G1 X-1.8
M03 S100
G1 X-0.1
M05 
G1 X-2.5
G1 X-0.3Y0.1
G1 X2.5
M03 S100
G1 X0.1
M05 
G1 X0.4
M03 S100
G1 X0.1
M05 
G1 X0.1
M03 S100
G1 X0.1
M05 
G1 X0.1
M03 S100
G1 X0.1
M05 
G1 X0.1
M03 S100
G1 X0.1
M05 
G1 X0.2
M03 S100
G1 X0.1
M05 
G1 X0.1
M03 S100
G1 X0.1
M05 
G1 X0.1
M03 S100
G1 X0.1
M05 
G1 X0.2
M03 S100
G1 X0.1
M05 
G1 X0.1
M03 S100
G1 X0.1
M05 
G1 X0.1
M03 S100
G1 X0.1
M05 
G1 X0.1
M03 S100
G1 X0.2
M05 
G1 X0.1
M03 S100
G1 X0.2
M05 
G1 X0.1
M03 S100
G1 X0.2
M05 
G1 X0.1
M03 S100
G1 X0.1
M05 
G1 X0.2
M03 S100
G1 X0.1
M05 
G1 X0.1
M03 S100
G1 X0.1
M05 
G1 X0.1
M03 S100
G1 X0.1
M05 
G1 X0.1
M03 S100
G1 X0.1
M05 
G1 X0.1
M03 S100
G1 X0.1
M05 
G1 X0.1
M03 S100
G1 X0.4
M05 
G1 X0.1
M03 S100
G1 X0.2
M05 
G1 X0.1
M03 S100
G1 X0.1
M05 
G1 X0.2
M03 S100
G1 X0.1
M05 
G1 X0.2
M03 S100
G1 X0.1
M05 
G1 X0.1
M03 S100
G1 X0.1
M05 
G1 X0.2
M03 S100
G1 X0.1
M05 
G1 X0.4
M03 S100
G1 X0.1
M05 
G1 X1.3
M03 S100
G1 X0.1
M05 
G1 X0.2
M03 S100
G1 X0.1
M05 
G1 X0.2
M03 S100
G1 X0.1
M05 
G1 X0.2
M03 S100
G1 X0.1
M05 
G1 X1.7
M03 S100
G1 X0.1
M05 
G1 X1.6
M03 S100
G1 X0.1
M05 
G1 X0.3
M03 S100
G1 X0.1
M05 
G1 X0.1
M03 S100
G1 X0.1
M05 
G1 X0.1
M03 S100
G1 X0.1
M05 
G1 X0.1
M03 S100
G1 X0.2
M05 
G1 X0.1
M03 S100
G1 X0.2
M05 
G1 X0.1
M03 S100
G1 X0.2
M05 
G1 X0.2
M03 S100
G1 X0.1
M05 
G1 X0.2
M03 S100
G1 X0.1
M05 
G1 X0.2
M03 S100
G1 X0.1
M05 
G1 X0.2
M03 S100
G1 X0.1
M05 
G1 X0.1
M03 S100
G1 X0.1
M05 
G1 X0.2
M03 S100
G1 X0.1
M05 
G1 X0.4
M03 S100
G1 X0.1
M05 
G1 X0.8
M03 S100
G1 X0.1
M05 
G1 X0.2
M03 S100
G1 X0.1
M05 
G1 X0.1
M03 S100
G1 X0.2
M05 
G1 X0.2
M03 S100
G1 X0.1
M05 
G1 X0.3
M03 S100
G1 X0.1
M05 
G1 X0.2
M03 S100
G1 X0.1
M05 
G1 X0.1
M03 S100
G1 X0.1
M05 
G1 X2.5
G1 X0.2Y0.1
G1 X-2.5
M03 S100
G1 X-0.1
M05 
G1 X-0.2
M03 S100
G1 X-0.2
M05 
G1 X-0.1
M03 S100
G1 X-0.2
M05 
G1 X-0.2
M03 S100
G1 X-0.1
M05 
G1 X-0.2
M03 S100
G1 X-0.1
M05 
G1 X-0.1
M03 S100
G1 X-0.2
M05 
G1 X-0.1
M03 S100
G1 X-0.1
M05 
G1 X-0.4
M03 S100
G1 X-0.1
M05 
G1 X-0.2
M03 S100
G1 X-0.1
M05 
G1 X-0.5
M03 S100
G1 X-0.1
M05 
G1 X-0.7
M03 S100
G1 X-0.1
M05 
G1 X-0.2
M03 S100
G1 X-0.1
M05 
G1 X-0.3
M03 S100
G1 X-0.1
M05 
G1 X-0.1
M03 S100
G1 X-0.1
M05 
G1 X-0.1
M03 S100
G1 X-0.1
M05 
G1 X-0.1
M03 S100
G1 X-0.1
M05 
G1 X-0.1
M03 S100
G1 X-0.1
M05 
G1 X-0.1
M03 S100
G1 X-0.1
M05 
G1 X-0.1
M03 S100
G1 X-0.1
M05 
G1 X-0.1
M03 S100
G1 X-0.1
M05 
G1 X-0.1
M03 S100
G1 X-0.1
M05 
G1 X-0.2
M03 S100
G1 X-0.1
M05 
G1 X-0.3
M03 S100
G1 X-0.1
M05 
G1 X-0.2
M03 S100
G1 X-0.1
M05 
G1 X-0.2
M03 S100
G1 X-0.1
M05 
G1 X-0.2
M03 S100
G1 X-0.1
M05 
G1 X-0.2
M03 S100
G1 X-0.1
M05 
G1 X-0.6
M03 S100
G1 X-0.1
M05 
G1 X-0.2
M03 S100
G1 X-0.1
M05 
G1 X-0.2
M03 S100
G1 X-0.1
M05 
G1 X-0.2
M03 S100
G1 X-0.1
M05 
G1 X-0.2
M03 S100
G1 X-0.1
M05 
G1 X-1.2
M03 S100
G1 X-0.1
M05 
G1 X-0.2
M03 S100
G1 X-0.1
M05 
G1 X-0.2
M03 S100
G1 X-0.1
M05 
G1 X-0.2
M03 S100
G1 X-0.1
M05 
G1 X-0.4
M03 S100
G1 X-0.1
M05 
G1 X-0.6
M03 S100
G1 X-0.1
M05 
G1 X-0.1
M03 S100
G1 X-0.2
M05 
G1 X-0.1
M03 S100
G1 X-0.2
M05 
G1 X-0.1
M03 S100
G1 X-0.2
M05 
G1 X-0.1
M03 S100
G1 X-0.4
M05 
G1 X-0.1
M03 S100
G1 X-0.7
M05 
G1 X-0.1
M03 S100
G1 X-0.1
M05 
G1 X-0.2
M03 S100
G1 X-0.1
M05 
G1 X-0.1
M03 S100
G1 X-0.1
M05 
G1 X-0.1
M03 S100
G1 X-0.2
M05 
G1 X-0.1
M03 S100
G1 X-0.5
M05 
G1 X-0.1
M03 S100
G1 X-0.1
M05 
G1 X-0.4
M03 S100
G1 X-0.1
M05 
G1 X-0.6
M03 S100
G1 X-0.1
M05 
G1 X-0.9
M03 S100
G1 X-0.1
M05 
G1 X-2.5
G1 X0.1Y0.1
G1 X2.5
M03 S100
G1 X0.1
M05 
G1 X0.2
M03 S100
G1 X0.1
M05 
G1 X0.3
M03 S100
G1 X0.1
M05 
G1 X0.4
M03 S100
G1 X0.1
M05 
G1 X0.7
M03 S100
G1 X0.1
M05 
G1 X0.1
M03 S100
G1 X0.1
M05 
G1 X0.1
M03 S100
G1 X0.1
M05 
G1 X0.1
M03 S100
G1 X0.1
M05 
G1 X0.1
M03 S100
G1 X0.2
M05 
G1 X0.1
M03 S100
G1 X0.1
M05 
G1 X0.1
M03 S100
G1 X0.1
M05 
G1 X0.3
M03 S100
G1 X0.1
M05 
G1 X0.2
M03 S100
G1 X0.2
M05 
G1 X0.1
M03 S100
G1 X0.4
M05 
G1 X0.1
M03 S100
G1 X0.1
M05 
G1 X0.1
M03 S100
G1 X0.2
M05 
G1 X0.1
M03 S100
G1 X0.1
M05 
G1 X0.1
M03 S100
G1 X0.2
M05 
G1 X0.1
M03 S100
G1 X0.2
M05 
G1 X0.2
M03 S100
G1 X0.1
M05 
G1 X0.1
M03 S100
G1 X0.1
M05 
G1 X2.7
M03 S100
G1 X0.1
M05 
G1 X1.6
M03 S100
G1 X0.1
M05 
G1 X2.1
M03 S100
G1 X0.1
M05 
G1 X0.2
M03 S100
G1 X0.1
M05 
G1 X0.1
M03 S100
G1 X0.1
M05 
G1 X0.1
M03 S100
G1 X0.1
M05 
G1 X0.1
M03 S100
G1 X0.2
M05 
G1 X0.1
M03 S100
G1 X0.1
M05 
G1 X0.2
M03 S100
G1 X0.1
M05 
G1 X0.1
M03 S100
G1 X0.1
M05 
G1 X0.1
M03 S100
G1 X0.1
M05 
G1 X0.1
M03 S100
G1 X0.1
M05 
G1 X0.2
M03 S100
G1 X0.1
M05 
G1 X0.1
M03 S100
G1 X0.1
M05 
G1 X0.1
M03 S100
G1 X0.1
M05 
G1 X0.1
M03 S100
G1 X0.1
M05 
G1 X1.5
M03 S100
G1 X0.1
M05 
G1 X0.2
M03 S100
G1 X0.1
M05 
G1 X0.1
M03 S100
G1 X0.1
M05 
G1 X0.1
M03 S100
G1 X0.1
M05 
G1 X0.3
M03 S100
G1 X0.1
M05 
G1 X0.2
M03 S100
G1 X0.1
M05 
G1 X0.1
M03 S100
G1 X0.1
M05 
G1 X0.1
M03 S100
G1 X0.1
M05 
G1 X2.5
G1 X-0.1Y0.1
G1 X-2.5
M03 S100
G1 X-0.1
M05 
G1 X-0.1
M03 S100
G1 X-0.1
M05 
G1 X-0.1
M03 S100
G1 X-0.1
M05 
G1 X-0.2
M03 S100
G1 X-0.1
M05 
G1 X-0.1
M03 S100
G1 X-0.1
M05 
G1 X-0.1
M03 S100
G1 X-0.1
M05 
G1 X-0.1
M03 S100
G1 X-0.1
M05 
G1 X-0.1
M03 S100
G1 X-0.1
M05 
G1 X-0.2
M03 S100
G1 X-0.1
M05 
G1 X-0.3
M03 S100
G1 X-0.1
M05 
G1 X-0.3
M03 S100
G1 X-0.1
M05 
G1 X-0.2
M03 S100
G1 X-0.1
M05 
G1 X-0.6
M03 S100
G1 X-0.1
M05 
G1 X-0.3
M03 S100
G1 X-0.1
M05 
G1 X-0.2
M03 S100
G1 X-0.1
M05 
G1 X-0.2
M03 S100
G1 X-0.1
M05 
G1 X-0.2
M03 S100
G1 X-0.2
M05 
G1 X-0.1
M03 S100
G1 X-0.3
M05 
G1 X-0.1
M03 S100
G1 X-0.2
M05 
G1 X-0.1
M03 S100
G1 X-0.1
M05 
G1 X-0.2
M03 S100
G1 X-0.1
M05 
G1 X-0.9
M03 S100
G1 X-0.1
M05 
G1 X-0.6
M03 S100
G1 X-0.1
M05 
G1 X-0.3
M03 S100
G1 X-0.1
M05 
G1 X-0.4
M03 S100
G1 X-0.1
M05 
G1 X-0.2
M03 S100
G1 X-0.1
M05 
G1 X-0.2
M03 S100
G1 X-0.1
M05 
G1 X-0.2
M03 S100
G1 X-0.1
M05 
G1 X-0.7
M03 S100
G1 X-0.1
M05 
G1 X-0.1
M03 S100
G1 X-0.1
M05 
G1 X-0.2
M03 S100
G1 X-0.1
M05 
G1 X-0.6
M03 S100
G1 X-0.1
M05 
G1 X-0.5
M03 S100
G1 X-0.1
M05 
G1 X-0.3
M03 S100
G1 X-0.1
M05 
G1 X-0.5
M03 S100
G1 X-0.1
M05 
G1 X-0.1
M03 S100
G1 X-0.1
M05 
G1 X-0.1
M03 S100
G1 X-0.1
M05 
G1 X-0.2
M03 S100
G1 X-0.1
M05 
G1 X-0.1
M03 S100
G1 X-0.2
M05 
G1 X-0.1
M03 S100
G1 X-0.1
M05 
G1 X-0.1
M03 S100
G1 X-0.2
M05 
G1 X-0.1
M03 S100
G1 X-0.1
M05 
G1 X-0.1
M03 S100
G1 X-0.2
M05 
G1 X-0.1
M03 S100
G1 X-0.1
M05 
G1 X-0.1
M03 S100
G1 X-0.1
M05 
G1 X-0.2
M03 S100
G1 X-0.1
M05 
G1 X-0.2
M03 S100
G1 X-0.1
M05 
G1 X-0.1
M03 S100
G1 X-0.1
M05 
G1 X-0.1
M03 S100
G1 X-0.1
M05 
G1 X-0.1
M03 S100
G1 X-0.3
M05 
G1 X-0.2
M03 S100
G1 X-0.1
M05 
G1 X-0.2
M03 S100
G1 X-0.1
M05 
G1 X-0.2
M03 S100
G1 X-0.1
M05 
G1 X-0.3
M03 S100
G1 X-0.1
M05 
G1 X-0.5
M03 S100
G1 X-0.1
M05 
G1 X-0.6
M03 S100
G1 X-0.1
M05 
G1 X-2.5
G1 X0.2Y0.1
G1 X2.5
M03 S100
G1 X0.1
M05 
G1 X0.2
M03 S100
G1 X0.1
M05 
G1 X0.3
M03 S100
G1 X0.1
M05 
G1 X0.2
M03 S100
G1 X0.1
M05 
G1 X0.5
M03 S100
G1 X0.1
M05 
G1 X0.5
M03 S100
G1 X0.1
M05 
G1 X0.1
M03 S100
G1 X0.1
M05 
G1 X0.1
M03 S100
G1 X0.2
M05 
G1 X0.1
M03 S100
G1 X0.1
M05 
G1 X0.1
M03 S100
G1 X0.1
M05 
G1 X0.1
M03 S100
G1 X0.1
M05 
G1 X0.2
M03 S100
G1 X0.1
M05 
G1 X0.2
M03 S100
G1 X0.1
M05 
G1 X0.1
M03 S100
G1 X0.4
M05 
G1 X0.1
M03 S100
G1 X0.2
M05 
G1 X0.1
M03 S100
G1 X0.2
M05 
G1 X0.1
M03 S100
G1 X0.1
M05 
G1 X0.1
M03 S100
G1 X0.2
M05 
G1 X0.1
M03 S100
G1 X0.2
M05 
G1 X0.1
M03 S100
G1 X0.2
M05 
G1 X0.1
M03 S100
G1 X0.1
M05 
G1 X1
M03 S100
G1 X0.1
M05 
G1 X0.5
M03 S100
G1 X0.1
M05 
G1 X0.2
M03 S100
G1 X0.1
M05 
G1 X1.1
M03 S100
G1 X0.1
M05 
G1 X2.2
M03 S100
G1 X0.1
M05 
G1 X0.2
M03 S100
G1 X0.1
M05 
G1 X0.4
M03 S100
G1 X0.1
M05 
G1 X0.1
M03 S100
G1 X0.1
M05 
G1 X0.2
M03 S100
G1 X0.1
M05 
G1 X0.2
M03 S100
G1 X0.1
M05 
G1 X0.1
M03 S100
G1 X0.1
M05 
G1 X0.1
M03 S100
G1 X0.1
M05 
G1 X0.1
M03 S100
G1 X0.2
M05 
G1 X0.1
M03 S100
G1 X0.1
M05 
G1 X0.1
M03 S100
G1 X0.1
M05 
G1 X0.1
M03 S100
G1 X0.1
M05 
G1 X0.2
M03 S100
G1 X0.1
M05 
G1 X0.2
M03 S100
G1 X0.1
M05 
G1 X0.2
M03 S100
G1 X0.1
M05 
G1 X0.1
M03 S100
G1 X0.1
M05 
G1 X0.2
M03 S100
G1 X0.1
M05 
G1 X0.2
M03 S100
G1 X0.1
M05 
G1 X1.4
M03 S100
G1 X0.1
M05 
G1 X0.2
M03 S100
G1 X0.1
M05 
G1 X0.2
M03 S100
G1 X0.1
M05 
G1 X0.2
M03 S100
G1 X0.1
M05 
G1 X0.1
M03 S100
G1 X0.2
M05 
G1 X0.1
M03 S100
G1 X0.2
M05 
G1 X0.1
M03 S100
G1 X0.1
M05 
G1 X2.5
G1 X0.1Y0.1
G1 X-2.5
M03 S100
G1 X-0.1
M05 
G1 X-0.2
M03 S100
G1 X-0.1
M05 
G1 X-0.1
M03 S100
G1 X-0.1
M05 
G1 X-0.2
M03 S100
G1 X-0.1
M05 
G1 X-0.1
M03 S100
G1 X-0.1
M05 
G1 X-0.1
M03 S100
G1 X-0.1
M05 
G1 X-0.1
M03 S100
G1 X-0.1
M05 
G1 X-0.1
M03 S100
G1 X-0.1
M05 
G1 X-0.2
M03 S100
G1 X-0.1
M05 
G1 X-0.3
M03 S100
G1 X-0.1
M05 
G1 X-0.3
M03 S100
G1 X-0.1
M05 
G1 X-0.6
M03 S100
G1 X-0.1
M05 
G1 X-0.2
M03 S100
G1 X-0.1
M05 
G1 X-0.2
M03 S100
G1 X-0.1
M05 
G1 X-0.2
M03 S100
G1 X-0.1
M05 
G1 X-0.1
M03 S100
G1 X-0.1
M05 
G1 X-0.1
M03 S100
G1 X-0.1
M05 
G1 X-0.1
M03 S100
G1 X-0.1
M05 
G1 X-0.1
M03 S100
G1 X-0.1
M05 
G1 X-0.1
M03 S100
G1 X-0.3
M05 
G1 X-0.1
M03 S100
G1 X-0.2
M05 
G1 X-0.1
M03 S100
G1 X-0.1
M05 
G1 X-0.1
M03 S100
G1 X-0.1
M05 
G1 X-0.2
M03 S100
G1 X-0.1
M05 
G1 X-1.8
M03 S100
G1 X-0.1
M05 
G1 X-0.3
M03 S100
G1 X-0.1
M05 
G1 X-1.7
M03 S100
G1 X-0.1
M05 
G1 X-1.4
M03 S100
G1 X-0.1
M05 
G1 X-0.6
M03 S100
G1 X-0.1
M05 
G1 X-0.3
M03 S100
G1 X-0.1
M05 
G1 X-0.2
M03 S100
G1 X-0.1
M05 
G1 X-0.2
M03 S100
G1 X-0.2
M05 
G1 X-0.1
M03 S100
G1 X-0.2
M05 
G1 X-0.1
M03 S100
G1 X-0.1
M05 
G1 X-0.1
M03 S100
G1 X-0.1
M05 
G1 X-0.1
M03 S100
G1 X-0.2
M05 
G1 X-0.1
M03 S100
G1 X-0.2
M05 
G1 X-0.1
M03 S100
G1 X-0.2
M05 
G1 X-0.1
M03 S100
G1 X-0.2
M05 
G1 X-0.2
M03 S100
G1 X-0.1
M05 
G1 X-0.2
M03 S100
G1 X-0.1
M05 
G1 X-0.2
M03 S100
G1 X-0.1
M05 
G1 X-0.1
M03 S100
G1 X-0.2
M05 
G1 X-0.1
M03 S100
G1 X-0.1
M05 
G1 X-0.1
M03 S100
G1 X-0.1
M05 
G1 X-0.1
M03 S100
G1 X-0.1
M05 
G1 X-0.1
M03 S100
G1 X-0.1
M05 
G1 X-0.5
M03 S100
G1 X-0.1
M05 
G1 X-0.4
M03 S100
G1 X-0.1
M05 
G1 X-0.6
M03 S100
G1 X-0.1
M05 
G1 X-2.5
G1 X-0.3Y0.1
G1 X2.5
M03 S100
G1 X0.1
M05 
G1 X0.5
M03 S100
G1 X0.1
M05 
G1 X0.6
M03 S100
G1 X0.1
M05 
G1 X0.3
M03 S100
G1 X0.1
M05 
G1 X0.2
M03 S100
G1 X0.1
M05 
G1 X0.3
M03 S100
G1 X0.1
M05 
G1 X0.1
M03 S100
G1 X0.2
M05 
G1 X0.2
M03 S100
G1 X0.1
M05 
G1 X0.2
M03 S100
G1 X0.1
M05 
G1 X0.2
M03 S100
G1 X0.1
M05 
G1 X0.3
M03 S100
G1 X0.1
M05 
G1 X0.2
M03 S100
G1 X0.1
M05 
G1 X0.1
M03 S100
G1 X0.4
M05 
G1 X0.1
M03 S100
G1 X0.2
M05 
G1 X0.1
M03 S100
G1 X0.2
M05 
G1 X0.1
M03 S100
G1 X0.1
M05 
G1 X0.2
M03 S100
G1 X0.1
M05 
G1 X0.1
M03 S100
G1 X0.1
M05 
G1 X0.1
M03 S100
G1 X0.1
M05 
G1 X0.2
M03 S100
G1 X0.1
M05 
G1 X0.6
M03 S100
G1 X0.1
M05 
G1 X0.7
M03 S100
G1 X0.1
M05 
G1 X0.4
M03 S100
G1 X0.1
M05 
G1 X0.2
M03 S100
G1 X0.1
M05 
G1 X0.5
M03 S100
G1 X0.1
M05 
G1 X0.3
M03 S100
G1 X0.1
M05 
G1 X0.2
M03 S100
G1 X0.1
M05 
G1 X0.1
M03 S100
G1 X0.1
M05 
G1 X0.2
M03 S100
G1 X0.1
M05 
G1 X0.9
M03 S100
G1 X0.1
M05 
G1 X0.4
M03 S100
G1 X0.1
M05 
G1 X0.3
M03 S100
G1 X0.1
M05 
G1 X0.4
M03 S100
G1 X0.1
M05 
G1 X0.4
M03 S100
G1 X0.1
M05 
G1 X0.2
M03 S100
G1 X0.2
M05 
G1 X0.1
M03 S100
G1 X0.3
M05 
G1 X0.1
M03 S100
G1 X0.1
M05 
G1 X0.2
M03 S100
G1 X0.1
M05 
G1 X0.1
M03 S100
G1 X0.1
M05 
G1 X0.3
M03 S100
G1 X0.1
M05 
G1 X0.1
M03 S100
G1 X0.1
M05 
G1 X0.2
M03 S100
G1 X0.1
M05 
G1 X0.8
M03 S100
G1 X0.1
M05 
G1 X0.4
M03 S100
G1 X0.1
M05 
G1 X0.4
M03 S100
G1 X0.1
M05 
G1 X0.4
M03 S100
G1 X0.1
M05 
G1 X0.1
M03 S100
G1 X0.1
M05 
G1 X0.1
M03 S100
G1 X0.1
M05 
G1 X0.1
M03 S100
G1 X0.1
M05 
G1 X0.1
M03 S100
G1 X0.2
M05 
G1 X0.1
M03 S100
G1 X0.1
M05 
G1 X0.1
M03 S100
G1 X0.1
M05 
G1 X0.2
M03 S100
G1 X0.1
M05 
G1 X2.5
G1 X0.3Y0.1
G1 X-2.5
M03 S100
G1 X-0.1
M05 
G1 X-0.2
M03 S100
G1 X-0.1
M05 
G1 X-0.2
M03 S100
G1 X-0.1
M05 
G1 X-0.1
M03 S100
G1 X-0.2
M05 
G1 X-0.1
M03 S100
G1 X-0.2
M05 
G1 X-0.1
M03 S100
G1 X-0.1
M05 
G1 X-0.1
M03 S100
G1 X-0.1
M05 
G1 X-0.5
M03 S100
G1 X-0.1
M05 
G1 X-1.6
M03 S100
G1 X-0.1
M05 
G1 X-0.1
M03 S100
G1 X-0.1
M05 
G1 X-0.1
M03 S100
G1 X-0.1
M05 
G1 X-0.2
M03 S100
G1 X-0.1
M05 
G1 X-0.3
M03 S100
G1 X-0.1
M05 
G1 X-0.2
M03 S100
G1 X-0.1
M05 
G1 X-0.2
M03 S100
G1 X-0.1
M05 
G1 X-0.2
M03 S100
G1 X-0.1
M05 
G1 X-0.1
M03 S100
G1 X-0.1
M05 
G1 X-0.1
M03 S100
G1 X-0.1
M05 
G1 X-0.2
M03 S100
G1 X-0.1
M05 
G1 X-0.2
M03 S100
G1 X-0.1
M05 
G1 X-0.5
M03 S100
G1 X-0.1
M05 
G1 X-0.8
M03 S100
G1 X-0.1
M05 
G1 X-0.6
M03 S100
G1 X-0.1
M05 
G1 X-0.3
M03 S100
G1 X-0.1
M05 
G1 X-1.6
M03 S100
G1 X-0.1
M05 
G1 X-0.6
M03 S100
G1 X-0.1
M05 
G1 X-0.8
M03 S100
G1 X-0.1
M05 
G1 X-0.5
M03 S100
G1 X-0.1
M05 
G1 X-0.4
M03 S100
G1 X-0.1
M05 
G1 X-0.1
M03 S100
G1 X-0.2
M05 
G1 X-0.1
M03 S100
G1 X-0.1
M05 
G1 X-0.1
M03 S100
G1 X-0.2
M05 
G1 X-0.1
M03 S100
G1 X-0.1
M05 
G1 X-0.1
M03 S100
G1 X-0.1
M05 
G1 X-0.2
M03 S100
G1 X-0.1
M05 
G1 X-0.2
M03 S100
G1 X-0.1
M05 
G1 X-0.1
M03 S100
G1 X-0.2
M05 
G1 X-0.1
M03 S100
G1 X-0.1
M05 
G1 X-0.3
M03 S100
G1 X-0.1
M05 
G1 X-0.3
M03 S100
G1 X-0.1
M05 
G1 X-0.2
M03 S100
G1 X-0.1
M05 
G1 X-0.1
M03 S100
G1 X-0.2
M05 
G1 X-0.1
M03 S100
G1 X-0.1
M05 
G1 X-0.2
M03 S100
G1 X-0.1
M05 
G1 X-0.2
M03 S100
G1 X-0.1
M05 
G1 X-0.2
M03 S100
G1 X-0.1
M05 
G1 X-0.4
M03 S100
G1 X-0.1
M05 
G1 X-0.2
M03 S100
G1 X-0.1
M05 
G1 X-0.2
M03 S100
G1 X-0.1
M05 
G1 X-0.2
M03 S100
G1 X-0.1
M05 
G1 X-2.5
G1 X0.7Y0.1
G1 X2.5
M03 S100
G1 X0.1
M05 
G1 X0.3
M03 S100
G1 X0.1
M05 
G1 X0.2
M03 S100
G1 X0.1
M05 
G1 X0.2
M03 S100
G1 X0.1
M05 
G1 X0.1
M03 S100
G1 X0.1
M05 
G1 X0.1
M03 S100
G1 X0.2
M05 
G1 X0.1
M03 S100
G1 X0.1
M05 
G1 X0.1
M03 S100
G1 X0.2
M05 
G1 X0.1
M03 S100
G1 X0.1
M05 
G1 X0.2
M03 S100
G1 X0.1
M05 
G1 X0.5
M03 S100
G1 X0.1
M05 
G1 X0.3
M03 S100
G1 X0.1
M05 
G1 X0.2
M03 S100
G1 X0.2
M05 
G1 X0.1
M03 S100
G1 X0.1
M05 
G1 X0.1
M03 S100
G1 X0.1
M05 
G1 X0.2
M03 S100
G1 X0.1
M05 
G1 X0.2
M03 S100
G1 X0.1
M05 
G1 X0.1
M03 S100
G1 X0.1
M05 
G1 X0.2
M03 S100
G1 X0.1
M05 
G1 X0.2
M03 S100
G1 X0.1
M05 
G1 X0.5
M03 S100
G1 X0.1
M05 
G1 X0.4
M03 S100
G1 X0.1
M05 
G1 X0.2
M03 S100
G1 X0.1
M05 
G1 X1.3
M03 S100
G1 X0.1
M05 
G1 X0.2
M03 S100
G1 X0.1
M05 
G1 X0.2
M03 S100
G1 X0.1
M05 
G1 X0.4
M03 S100
G1 X0.1
M05 
G1 X0.5
M03 S100
G1 X0.1
M05 
G1 X0.3
M03 S100
G1 X0.1
M05 
G1 X0.7
M03 S100
G1 X0.1
M05 
G1 X1.3
M03 S100
G1 X0.1
M05 
G1 X0.3
M03 S100
G1 X0.1
M05 
G1 X0.1
M03 S100
G1 X0.1
M05 
G1 X0.1
M03 S100
G1 X0.2
M05 
G1 X0.1
M03 S100
G1 X0.1
M05 
G1 X0.3
M03 S100
G1 X0.1
M05 
G1 X0.1
M03 S100
G1 X0.1
M05 
G1 X0.1
M03 S100
G1 X0.1
M05 
G1 X0.2
M03 S100
G1 X0.1
M05 
G1 X0.3
M03 S100
G1 X0.1
M05 
G1 X0.3
M03 S100
G1 X0.1
M05 
G1 X0.2
M03 S100
G1 X0.1
M05 
G1 X0.2
M03 S100
G1 X0.1
M05 
G1 X0.3
M03 S100
G1 X0.1
M05 
G1 X0.4
M03 S100
G1 X0.1
M05 
G1 X0.1
M03 S100
G1 X0.2
M05 
G1 X0.1
M03 S100
G1 X0.1
M05 
G1 X0.1
M03 S100
G1 X0.2
M05 
G1 X0.1
M03 S100
G1 X0.1
M05 
G1 X0.1
M03 S100
G1 X0.1
M05 
G1 X0.1
M03 S100
G1 X0.1
M05 
G1 X0.1
M03 S100
G1 X0.1
M05 
G1 X0.2
M03 S100
G1 X0.1
M05 
G1 X2.5
G1 X0.1Y0.1
G1 X-2.5
M03 S100
G1 X-0.1
M05 
G1 X-0.2
M03 S100
G1 X-0.1
M05 
G1 X-0.1
M03 S100
G1 X-0.2
M05 
G1 X-0.1
M03 S100
G1 X-0.2
M05 
G1 X-0.1
M03 S100
G1 X-0.4
M05 
G1 X-0.1
M03 S100
G1 X-0.1
M05 
G1 X-0.5
M03 S100
G1 X-0.1
M05 
G1 X-1.9
M03 S100
G1 X-0.1
M05 
G1 X-0.1
M03 S100
G1 X-0.1
M05 
G1 X-0.1
M03 S100
G1 X-0.1
M05 
G1 X-0.2
M03 S100
G1 X-0.1
M05 
G1 X-0.3
M03 S100
G1 X-0.1
M05 
G1 X-0.5
M03 S100
G1 X-0.1
M05 
G1 X-0.2
M03 S100
G1 X-0.1
M05 
G1 X-0.1
M03 S100
G1 X-0.1
M05 
G1 X-0.2
M03 S100
G1 X-0.1
M05 
G1 X-0.2
M03 S100
G1 X-0.1
M05 
G1 X-0.2
M03 S100
G1 X-0.1
M05 
G1 X-0.3
M03 S100
G1 X-0.1
M05 
G1 X-0.6
M03 S100
G1 X-0.1
M05 
G1 X-1.5
M03 S100
G1 X-0.1
M05 
G1 X-1.1
M03 S100
G1 X-0.1
M05 
G1 X-0.2
M03 S100
G1 X-0.1
M05 
G1 X-0.3
M03 S100
G1 X-0.1
M05 
G1 X-1.7
M03 S100
G1 X-0.1
M05 
G1 X-0.2
M03 S100
G1 X-0.1
M05 
G1 X-0.1
M03 S100
G1 X-0.1
M05 
G1 X-0.1
M03 S100
G1 X-0.1
M05 
G1 X-0.1
M03 S100
G1 X-0.1
M05 
G1 X-0.1
M03 S100
G1 X-0.1
M05 
G1 X-0.1
M03 S100
G1 X-0.1
M05 
G1 X-0.2
M03 S100
G1 X-0.1
M05 
G1 X-0.2
M03 S100
G1 X-0.1
M05 
G1 X-0.1
M03 S100
G1 X-0.1
M05 
G1 X-0.2
M03 S100
G1 X-0.1
M05 
G1 X-0.4
M03 S100
G1 X-0.1
M05 
G1 X-0.4
M03 S100
G1 X-0.1
M05 
G1 X-0.2
M03 S100
G1 X-0.1
M05 
G1 X-0.1
M03 S100
G1 X-0.2
M05 
G1 X-0.1
M03 S100
G1 X-0.2
M05 
G1 X-0.1
M03 S100
G1 X-0.1
M05 
G1 X-0.1
M03 S100
G1 X-0.1
M05 
G1 X-0.2
M03 S100
G1 X-0.1
M05 
G1 X-0.2
M03 S100
G1 X-0.1
M05 
G1 X-0.5
M03 S100
G1 X-0.1
M05 
G1 X-0.2
M03 S100
G1 X-0.1
M05 
G1 X-0.2
M03 S100
G1 X-0.1
M05 
G1 X-2.5
G1 X0.2Y0.1
G1 X2.5
M03 S100
G1 X0.1
M05 
G1 X0.2
M03 S100
G1 X0.1
M05 
G1 X0.2
M03 S100
G1 X0.1
M05 
G1 X0.2
M03 S100
G1 X0.1
M05 
G1 X0.3
M03 S100
G1 X0.1
M05 
G1 X0.1
M03 S100
G1 X0.1
M05 
G1 X0.1
M03 S100
G1 X0.3
M05 
G1 X0.1
M03 S100
G1 X0.2
M05 
G1 X0.1
M03 S100
G1 X0.2
M05 
G1 X0.1
M03 S100
G1 X0.1
M05 
G1 X0.2
M03 S100
G1 X0.1
M05 
G1 X0.4
M03 S100
G1 X0.1
M05 
G1 X0.4
M03 S100
G1 X0.1
M05 
G1 X0.2
M03 S100
G1 X0.1
M05 
G1 X0.5
M03 S100
G1 X0.1
M05 
G1 X0.3
M03 S100
G1 X0.1
M05 
G1 X0.1
M03 S100
G1 X0.1
M05 
G1 X0.1
M03 S100
G1 X0.1
M05 
G1 X0.2
M03 S100
G1 X0.1
M05 
G1 X0.4
M03 S100
G1 X0.1
M05 
G1 X0.2
M03 S100
G1 X0.1
M05 
G1 X0.3
M03 S100
G1 X0.1
M05 
G1 X0.4
M03 S100
G1 X0.1
M05 
G1 X1.3
M03 S100
G1 X0.1
M05 
G1 X1.3
M03 S100
G1 X0.1
M05 
G1 X0.2
M03 S100
G1 X0.1
M05 
G1 X0.3
M03 S100
G1 X0.1
M05 
G1 X0.5
M03 S100
G1 X0.1
M05 
G1 X1.3
M03 S100
G1 X0.1
M05 
G1 X0.7
M03 S100
G1 X0.1
M05 
G1 X0.2
M03 S100
G1 X0.1
M05 
G1 X0.2
M03 S100
G1 X0.1
M05 
G1 X0.2
M03 S100
G1 X0.1
M05 
G1 X0.2
M03 S100
G1 X0.1
M05 
G1 X0.2
M03 S100
G1 X0.1
M05 
G1 X0.2
M03 S100
G1 X0.1
M05 
G1 X0.1
M03 S100
G1 X0.1
M05 
G1 X0.1
M03 S100
G1 X0.1
M05 
G1 X0.3
M03 S100
G1 X0.1
M05 
G1 X0.5
M03 S100
G1 X0.1
M05 
G1 X1
M03 S100
G1 X0.1
M05 
G1 X0.1
M03 S100
G1 X0.1
M05 
G1 X0.1
M03 S100
G1 X0.2
M05 
G1 X0.1
M03 S100
G1 X0.2
M05 
G1 X0.1
M03 S100
G1 X0.1
M05 
G1 X0.1
M03 S100
G1 X0.1
M05 
G1 X0.1
M03 S100
G1 X0.2
M05 
G1 X0.2
M03 S100
G1 X0.1
M05 
G1 X2.5
G1 X0.1Y0.1
G1 X-2.5
M03 S100
G1 X-0.1
M05 
G1 X-0.2
M03 S100
G1 X-0.2
M05 
G1 X-0.2
M03 S100
G1 X-0.1
M05 
G1 X-0.1
M03 S100
G1 X-0.2
M05 
G1 X-0.1
M03 S100
G1 X-0.5
M05 
G1 X-0.1
M03 S100
G1 X-0.1
M05 
G1 X-0.3
M03 S100
G1 X-0.1
M05 
G1 X-0.2
M03 S100
G1 X-0.1
M05 
G1 X-0.2
M03 S100
G1 X-0.1
M05 
G1 X-0.4
M03 S100
G1 X-0.1
M05 
G1 X-0.4
M03 S100
G1 X-0.1
M05 
G1 X-0.2
M03 S100
G1 X-0.1
M05 
G1 X-0.3
M03 S100
G1 X-0.1
M05 
G1 X-0.3
M03 S100
G1 X-0.1
M05 
G1 X-0.2
M03 S100
G1 X-0.1
M05 
G1 X-0.5
M03 S100
G1 X-0.1
M05 
G1 X-0.6
M03 S100
G1 X-0.1
M05 
G1 X-0.8
M03 S100
G1 X-0.1
M05 
G1 X-0.3
M03 S100
G1 X-0.1
M05 
G1 X-0.3
M03 S100
G1 X-0.1
M05 
G1 X-0.4
M03 S100
G1 X-0.1
M05 
G1 X-1.3
M03 S100
G1 X-0.1
M05 
G1 X-0.3
M03 S100
G1 X-0.1
M05 
G1 X-0.2
M03 S100
G1 X-0.1
M05 
G1 X-0.9
M03 S100
G1 X-0.1
M05 
G1 X-0.3
M03 S100
G1 X-0.1
M05 
G1 X-0.4
M03 S100
G1 X-0.1
M05 
G1 X-1.1
M03 S100
G1 X-0.1
M05 
G1 X-0.1
M03 S100
G1 X-0.1
M05 
G1 X-0.1
M03 S100
G1 X-0.1
M05 
G1 X-0.2
M03 S100
G1 X-0.1
M05 
G1 X-0.4
M03 S100
G1 X-0.1
M05 
G1 X-0.4
M03 S100
G1 X-0.1
M05 
G1 X-0.8
M03 S100
G1 X-0.1
M05 
G1 X-0.4
M03 S100
G1 X-0.1
M05 
G1 X-0.4
M03 S100
G1 X-0.2
M05 
G1 X-0.1
M03 S100
G1 X-0.2
M05 
G1 X-0.1
M03 S100
G1 X-0.4
M05 
G1 X-0.1
M03 S100
G1 X-0.1
M05 
G1 X-0.1
M03 S100
G1 X-0.1
M05 
G1 X-0.2
M03 S100
G1 X-0.1
M05 
G1 X-2.5
G1 X-1.3Y0.1
G1 X2.5
M03 S100
G1 X0.1
M05 
G1 X0.2
M03 S100
G1 X0.1
M05 
G1 X0.2
M03 S100
G1 X0.1
M05 
G1 X0.2
M03 S100
G1 X0.1
M05 
G1 X0.2
M03 S100
G1 X0.1
M05 
G1 X0.2
M03 S100
G1 X0.1
M05 
G1 X0.1
M03 S100
G1 X0.1
M05 
G1 X0.1
M03 S100
G1 X0.2
M05 
G1 X0.1
M03 S100
G1 X0.4
M05 
G1 X0.1
M03 S100
G1 X0.1
M05 
G1 X0.1
M03 S100
G1 X0.1
M05 
G1 X0.1
M03 S100
G1 X0.1
M05 
G1 X2.2
M03 S100
G1 X0.1
M05 
G1 X0.1
M03 S100
G1 X0.1
M05 
G1 X0.2
M03 S100
G1 X0.1
M05 
G1 X0.2
M03 S100
G1 X0.1
M05 
G1 X0.3
M03 S100
G1 X0.1
M05 
G1 X0.3
M03 S100
G1 X0.1
M05 
G1 X0.2
M03 S100
G1 X0.1
M05 
G1 X1.1
M03 S100
G1 X0.1
M05 
G1 X0.2
M03 S100
G1 X0.1
M05 
G1 X0.1
M03 S100
G1 X0.1
M05 
G1 X0.3
M03 S100
G1 X0.1
M05 
G1 X0.5
M03 S100
G1 X0.1
M05 
G1 X0.4
M03 S100
G1 X0.1
M05 
G1 X0.2
M03 S100
G1 X0.1
M05 
G1 X0.3
M03 S100
G1 X0.1
M05 
G1 X1.2
M03 S100
G1 X0.1
M05 
G1 X0.3
M03 S100
G1 X0.1
M05 
G1 X0.6
M03 S100
G1 X0.1
M05 
G1 X0.6
M03 S100
G1 X0.1
M05 
G1 X0.9
M03 S100
G1 X0.1
M05 
G1 X0.2
M03 S100
G1 X0.1
M05 
G1 X0.1
M03 S100
G1 X0.1
M05 
G1 X0.2
M03 S100
G1 X0.1
M05 
G1 X2.3
M03 S100
G1 X0.1
M05 
G1 X0.1
M03 S100
G1 X0.7
M05 
G1 X0.1
M03 S100
G1 X0.2
M05 
G1 X0.1
M03 S100
G1 X0.2
M05 
G1 X0.1
M03 S100
G1 X0.2
M05 
G1 X0.2
M03 S100
G1 X0.1
M05 
G1 X2.5
G1 X-0.3Y0.1
G1 X-2.5
M03 S100
G1 X-0.1
M05 
G1 X-0.1
M03 S100
G1 X-0.1
M05 
G1 X-0.1
M03 S100
G1 X-0.2
M05 
G1 X-0.2
M03 S100
G1 X-0.2
M05 
G1 X-0.1
M03 S100
G1 X-0.1
M05 
G1 X-0.1
M03 S100
G1 X-0.1
M05 
G1 X-0.2
M03 S100
G1 X-0.1
M05 
G1 X-0.5
M03 S100
G1 X-0.1
M05 
G1 X-0.4
M03 S100
G1 X-0.1
M05 
G1 X-0.2
M03 S100
G1 X-0.1
M05 
G1 X-0.3
M03 S100
G1 X-0.1
M05 
G1 X-0.3
M03 S100
G1 X-0.1
M05 
G1 X-0.2
M03 S100
G1 X-0.1
M05 
G1 X-0.1
M03 S100
G1 X-0.1
M05 
G1 X-0.2
M03 S100
G1 X-0.1
M05 
G1 X-0.1
M03 S100
G1 X-0.1
M05 
G1 X-0.2
M03 S100
G1 X-0.1
M05 
G1 X-0.1
M03 S100
G1 X-0.1
M05 
G1 X-0.1
M03 S100
G1 X-0.1
M05 
G1 X-0.2
M03 S100
G1 X-0.1
M05 
G1 X-0.3
M03 S100
G1 X-0.1
M05 
G1 X-0.2
M03 S100
G1 X-0.1
M05 
G1 X-0.3
M03 S100
G1 X-0.2
M05 
G1 X-0.3
M03 S100
G1 X-0.1
M05 
G1 X-0.4
M03 S100
G1 X-0.1
M05 
G1 X-0.2
M03 S100
G1 X-0.1
M05 
G1 X-0.1
M03 S100
G1 X-0.1
M05 
G1 X-0.2
M03 S100
G1 X-0.1
M05 
G1 X-0.1
M03 S100
G1 X-0.1
M05 
G1 X-0.3
M03 S100
G1 X-0.1
M05 
G1 X-0.2
M03 S100
G1 X-0.1
M05 
G1 X-0.3
M03 S100
G1 X-0.1
M05 
G1 X-0.4
M03 S100
G1 X-0.1
M05 
G1 X-0.3
M03 S100
G1 X-0.1
M05 
G1 X-0.1
M03 S100
G1 X-0.1
M05 
G1 X-0.6
M03 S100
G1 X-0.1
M05 
G1 X-0.2
M03 S100
G1 X-0.1
M05 
G1 X-0.1
M03 S100
G1 X-0.1
M05 
G1 X-0.2
M03 S100
G1 X-0.1
M05 
G1 X-0.1
M03 S100
G1 X-0.1
M05 
G1 X-0.2
M03 S100
G1 X-0.1
M05 
G1 X-0.3
M03 S100
G1 X-0.1
M05 
G1 X-0.2
M03 S100
G1 X-0.1
M05 
G1 X-0.1
M03 S100
G1 X-0.1
M05 
G1 X-0.1
M03 S100
G1 X-0.1
M05 
G1 X-0.2
M03 S100
G1 X-0.2
M05 
G1 X-0.1
M03 S100
G1 X-0.1
M05 
G1 X-0.2
M03 S100
G1 X-0.1
M05 
G1 X-0.1
M03 S100
G1 X-0.1
M05 
G1 X-0.1
M03 S100
G1 X-0.1
M05 
G1 X-0.1
M03 S100
G1 X-0.1
M05 
G1 X-0.1
M03 S100
G1 X-0.2
M05 
G1 X-0.1
M03 S100
G1 X-0.1
M05 
G1 X-0.2
M03 S100
G1 X-0.1
M05 
G1 X-0.1
M03 S100
G1 X-0.1
M05 
G1 X-0.2
M03 S100
G1 X-0.1
M05 
G1 X-0.1
M03 S100
G1 X-0.1
M05 
G1 X-0.1
M03 S100
G1 X-0.1
M05 
G1 X-0.1
M03 S100
G1 X-0.3
M05 
G1 X-0.1
M03 S100
G1 X-0.4
M05 
G1 X-0.1
M03 S100
G1 X-0.1
M05 
G1 X-0.2
M03 S100
G1 X-0.1
M05 
G1 X-0.2
M03 S100
G1 X-0.1
M05 
G1 X-0.2
M03 S100
G1 X-0.1
M05 
G1 X-0.3
M03 S100
G1 X-0.1
M05 
G1 X-2.5
G1 X-0.3Y0.1
G1 X2.5
M03 S100
G1 X0.1
M05 
G1 X1.4
M03 S100
G1 X0.1
M05 
G1 X0.1
M03 S100
G1 X0.1
M05 
G1 X0.1
M03 S100
G1 X0.2
M05 
G1 X0.1
M03 S100
G1 X0.2
M05 
G1 X0.1
M03 S100
G1 X0.2
M05 
G1 X0.1
M03 S100
G1 X0.1
M05 
G1 X0.1
M03 S100
G1 X0.1
M05 
G1 X0.1
M03 S100
G1 X0.1
M05 
G1 X0.2
M03 S100
G1 X0.1
M05 
G1 X0.1
M03 S100
G1 X0.1
M05 
G1 X0.2
M03 S100
G1 X0.1
M05 
G1 X0.2
M03 S100
G1 X0.1
M05 
G1 X0.2
M03 S100
G1 X0.1
M05 
G1 X0.2
M03 S100
G1 X0.1
M05 
G1 X0.1
M03 S100
G1 X0.1
M05 
G1 X0.2
M03 S100
G1 X0.1
M05 
G1 X0.2
M03 S100
G1 X0.2
M05 
G1 X0.1
M03 S100
G1 X0.1
M05 
G1 X0.1
M03 S100
G1 X0.1
M05 
G1 X0.1
M03 S100
G1 X0.1
M05 
G1 X0.2
M03 S100
G1 X0.1
M05 
G1 X0.2
M03 S100
G1 X0.1
M05 
G1 X0.3
M03 S100
G1 X0.1
M05 
G1 X0.2
M03 S100
G1 X0.1
M05 
G1 X0.2
M03 S100
G1 X0.1
M05 
G1 X0.2
M03 S100
G1 X0.1
M05 
G1 X0.2
M03 S100
G1 X0.1
M05 
G1 X0.1
M03 S100
G1 X0.1
M05 
G1 X0.2
M03 S100
G1 X0.1
M05 
G1 X0.2
M03 S100
G1 X0.1
M05 
G1 X0.2
M03 S100
G1 X0.1
M05 
G1 X0.1
M03 S100
G1 X0.1
M05 
G1 X0.2
M03 S100
G1 X0.1
M05 
G1 X0.3
M03 S100
G1 X0.1
M05 
G1 X0.2
M03 S100
G1 X0.1
M05 
G1 X0.2
M03 S100
G1 X0.1
M05 
G1 X0.2
M03 S100
G1 X0.1
M05 
G1 X0.2
M03 S100
G1 X0.1
M05 
G1 X0.1
M03 S100
G1 X0.1
M05 
G1 X0.2
M03 S100
G1 X0.1
M05 
G1 X0.1
M03 S100
G1 X0.1
M05 
G1 X0.3
M03 S100
G1 X0.1
M05 
G1 X0.3
M03 S100
G1 X0.1
M05 
G1 X0.2
M03 S100
G1 X0.1
M05 
G1 X0.1
M03 S100
G1 X0.1
M05 
G1 X0.1
M03 S100
G1 X0.1
M05 
G1 X0.2
M03 S100
G1 X0.1
M05 
G1 X0.3
M03 S100
G1 X0.1
M05 
G1 X0.1
M03 S100
G1 X0.1
M05 
G1 X0.1
M03 S100
G1 X0.1
M05 
G1 X0.1
M03 S100
G1 X0.2
M05 
G1 X0.1
M03 S100
G1 X0.1
M05 
G1 X0.1
M03 S100
G1 X0.1
M05 
G1 X0.2
M03 S100
G1 X0.1
M05 
G1 X0.2
M03 S100
G1 X0.1
M05 
G1 X0.5
M03 S100
G1 X0.1
M05 
G1 X0.5
M03 S100
G1 X0.1
M05 
G1 X0.5
M03 S100
G1 X0.1
M05 
G1 X0.2
M03 S100
G1 X0.1
M05 
G1 X0.1
M03 S100
G1 X0.3
M05 
G1 X0.1
M03 S100
G1 X0.1
M05 
G1 X0.1
M03 S100
G1 X0.2
M05 
G1 X0.1
M03 S100
G1 X0.1
M05 
G1 X0.1
M03 S100
G1 X0.3
M05 
G1 X0.1
M03 S100
G1 X0.2
M05 
G1 X2.5
G1 Y0.1
G1 X-2.5
M03 S100
G1 X-0.1
M05 
G1 X-0.1
M03 S100
G1 X-0.4
M05 
G1 X-0.1
M03 S100
G1 X-0.2
M05 
G1 X-0.1
M03 S100
G1 X-0.1
M05 
G1 X-0.1
M03 S100
G1 X-0.4
M05 
G1 X-0.1
M03 S100
G1 X-0.1
M05 
G1 X-0.1
M03 S100
G1 X-0.1
M05 
G1 X-2.4
M03 S100
G1 X-0.1
M05 
G1 X-0.2
M03 S100
G1 X-0.1
M05 
G1 X-0.1
M03 S100
G1 X-0.1
M05 
G1 X-0.1
M03 S100
G1 X-0.1
M05 
G1 X-0.1
M03 S100
G1 X-0.1
M05 
G1 X-0.3
M03 S100
G1 X-0.1
M05 
G1 X-0.1
M03 S100
G1 X-0.1
M05 
G1 X-0.1
M03 S100
G1 X-0.1
M05 
G1 X-0.1
M03 S100
G1 X-0.1
M05 
G1 X-0.2
M03 S100
G1 X-0.1
M05 
G1 X-0.2
M03 S100
G1 X-0.1
M05 
G1 X-0.1
M03 S100
G1 X-0.1
M05 
G1 X-0.1
M03 S100
G1 X-0.1
M05 
G1 X-0.1
M03 S100
G1 X-0.1
M05 
G1 X-0.1
M03 S100
G1 X-0.1
M05 
G1 X-0.1
M03 S100
G1 X-0.1
M05 
G1 X-0.1
M03 S100
G1 X-0.1
M05 
G1 X-0.1
M03 S100
G1 X-0.1
M05 
G1 X-0.2
M03 S100
G1 X-0.1
M05 
G1 X-0.1
M03 S100
G1 X-0.1
M05 
G1 X-0.1
M03 S100
G1 X-0.1
M05 
G1 X-0.1
M03 S100
G1 X-0.1
M05 
G1 X-0.1
M03 S100
G1 X-0.1
M05 
G1 X-0.1
M03 S100
G1 X-0.1
M05 
G1 X-0.2
M03 S100
G1 X-0.2
M05 
G1 X-0.1
M03 S100
G1 X-0.1
M05 
G1 X-0.1
M03 S100
G1 X-0.1
M05 
G1 X-0.1
M03 S100
G1 X-0.1
M05 
G1 X-0.1
M03 S100
G1 X-0.1
M05 
G1 X-0.1
M03 S100
G1 X-0.1
M05 
G1 X-0.1
M03 S100
G1 X-0.1
M05 
G1 X-0.2
M03 S100
G1 X-0.1
M05 
G1 X-0.1
M03 S100
G1 X-0.1
M05 
G1 X-0.1
M03 S100
G1 X-0.1
M05 
G1 X-0.2
M03 S100
G1 X-0.1
M05 
G1 X-0.2
M03 S100
G1 X-0.1
M05 
G1 X-0.1
M03 S100
G1 X-0.1
M05 
G1 X-0.2
M03 S100
G1 X-0.1
M05 
G1 X-0.1
M03 S100
G1 X-0.1
M05 
G1 X-0.2
M03 S100
G1 X-0.1
M05 
G1 X-0.1
M03 S100
G1 X-0.1
M05 
G1 X-0.1
M03 S100
G1 X-0.1
M05 
G1 X-0.2
M03 S100
G1 X-0.1
M05 
G1 X-0.1
M03 S100
G1 X-0.1
M05 
G1 X-0.2
M03 S100
G1 X-0.1
M05 
G1 X-0.1
M03 S100
G1 X-0.1
M05 
G1 X-0.1
M03 S100
G1 X-0.2
M05 
G1 X-0.2
M03 S100
G1 X-0.1
M05 
G1 X-0.2
M03 S100
G1 X-0.1
M05 
G1 X-0.1
M03 S100
G1 X-0.1
M05 
G1 X-0.3
M03 S100
G1 X-0.1
M05 
G1 X-0.1
M03 S100
G1 X-0.1
M05 
G1 X-0.2
M03 S100
G1 X-0.1
M05 
G1 X-0.1
M03 S100
G1 X-0.1
M05 
G1 X-0.2
M03 S100
G1 X-0.1
M05 
G1 X-0.1
M03 S100
G1 X-0.2
M05 
G1 X-0.1
M03 S100
G1 X-0.1
M05 
G1 X-0.1
M03 S100
G1 X-0.3
M05 
G1 X-0.1
M03 S100
G1 X-0.1
M05 
G1 X-0.1
M03 S100
G1 X-0.1
M05 
G1 X-0.3
M03 S100
G1 X-0.1
M05 
G1 X-0.1
M03 S100
G1 X-0.1
M05 
G1 X-0.2
M03 S100
G1 X-0.1
M05 
G1 X-0.2
M03 S100
G1 X-0.1
M05 
G1 X-0.2
M03 S100
G1 X-0.1
M05 
G1 X-2.5
G1 X-34.56Y0.1
G1 X2.5
M03 S100
G1 X0.2
M05 
G1 X0.2
M03 S100
G1 X0.1
M05 
G1 X34.46
M03 S100
G1 X0.1
M05 
G1 X0.3
M03 S100
G1 X0.1
M05 
G1 X0.3
M03 S100
G1 X0.1
M05 
G1 X0.3
M03 S100
G1 X0.1
M05 
G1 X0.1
M03 S100
G1 X0.7
M05 
G1 X0.1
M03 S100
G1 X0.2
M05 
G1 X0.1
M03 S100
G1 X0.2
M05 
G1 X0.1
M03 S100
G1 X0.1
M05 
G1 X0.1
M03 S100
G1 X0.2
M05 
G1 X0.1
M03 S100
G1 X0.1
M05 
G1 X0.1
M03 S100
G1 X0.2
M05 
G1 X0.1
M03 S100
G1 X0.1
M05 
G1 X0.1
M03 S100
G1 X0.1
M05 
G1 X0.1
M03 S100
G1 X0.2
M05 
G1 X0.1
M03 S100
G1 X0.1
M05 
G1 X0.2
M03 S100
G1 X0.1
M05 
G1 X0.1
M03 S100
G1 X0.1
M05 
G1 X0.1
M03 S100
G1 X0.2
M05 
G1 X0.1
M03 S100
G1 X0.1
M05 
G1 X0.1
M03 S100
G1 X0.2
M05 
G1 X0.1
M03 S100
G1 X0.1
M05 
G1 X0.1
M03 S100
G1 X0.1
M05 
G1 X0.1
M03 S100
G1 X0.2
M05 
G1 X0.1
M03 S100
G1 X0.1
M05 
G1 X0.1
M03 S100
G1 X0.2
M05 
G1 X0.1
M03 S100
G1 X0.1
M05 
G1 X0.1
M03 S100
G1 X0.2
M05 
G1 X0.1
M03 S100
G1 X0.2
M05 
G1 X0.1
M03 S100
G1 X0.1
M05 
G1 X0.1
M03 S100
G1 X0.1
M05 
G1 X0.1
M03 S100
G1 X0.2
M05 
G1 X0.1
M03 S100
G1 X0.1
M05 
G1 X0.1
M03 S100
G1 X0.1
M05 
G1 X0.1
M03 S100
G1 X0.1
M05 
G1 X0.1
M03 S100
G1 X0.1
M05 
G1 X0.1
M03 S100
G1 X0.1
M05 
G1 X0.1
M03 S100
G1 X0.1
M05 
G1 X0.1
M03 S100
G1 X0.1
M05 
G1 X0.1
M03 S100
G1 X0.1
M05 
G1 X0.1
M03 S100
G1 X0.1
M05 
G1 X0.1
M03 S100
G1 X0.1
M05 
G1 X0.1
M03 S100
G1 X0.1
M05 
G1 X0.1
M03 S100
G1 X0.1
M05 
G1 X0.1
M03 S100
G1 X0.1
M05 
G1 X0.1
M03 S100
G1 X0.1
M05 
G1 X0.2
M03 S100
G1 X0.1
M05 
G1 X0.1
M03 S100
G1 X0.1
M05 
G1 X0.2
M03 S100
G1 X0.2
M05 
G1 X0.1
M03 S100
G1 X0.1
M05 
G1 X0.1
M03 S100
G1 X0.1
M05 
G1 X0.1
M03 S100
G1 X0.1
M05 
G1 X0.1
M03 S100
G1 X0.2
M05 
G1 X0.1
M03 S100
G1 X0.1
M05 
G1 X0.2
M03 S100
G1 X0.1
M05 
G1 X0.1
M03 S100
G1 X0.1
M05 
G1 X0.1
M03 S100
G1 X0.1
M05 
G1 X0.1
M03 S100
G1 X0.2
M05 
G1 X0.1
M03 S100
G1 X0.1
M05 
G1 X0.1
M03 S100
G1 X0.2
M05 
G1 X0.1
M03 S100
G1 X0.1
M05 
G1 X0.1
M03 S100
G1 X0.1
M05 
G1 X0.1
M03 S100
G1 X0.1
M05 
G1 X0.1
M03 S100
G1 X0.1
M05 
G1 X0.1
M03 S100
G1 X0.1
M05 
G1 X0.2
M03 S100
G1 X0.1
M05 
G1 X0.2
M03 S100
G1 X0.1
M05 
G1 X0.3
M03 S100
G1 X0.1
M05 
G1 X0.3
M03 S100
G1 X0.1
M05 
G1 X0.2
M03 S100
G1 X0.1
M05 
G1 X0.5
M03 S100
G1 X0.1
M05 
G1 X0.1
M03 S100
G1 X0.1
M05 
G1 X0.1
M03 S100
G1 X0.1
M05 
G1 X0.1
M03 S100
G1 X0.1
M05 
G1 X0.1
M03 S100
G1 X0.1
M05 
G1 X0.1
M03 S100
G1 X0.2
M05 
G1 X0.1
M03 S100
G1 X0.2
M05 
G1 X0.1
M03 S100
G1 X0.1
M05 
G1 X0.2
M03 S100
G1 X0.1
M05 
G1 X2.5
G1 X-0.1Y0.1
G1 X-2.5
M03 S100
G1 X-0.1
M05 
G1 X-0.1
M03 S100
G1 X-0.6
M05 
G1 X-0.1
M03 S100
G1 X-0.1
M05 
G1 X-0.1
M03 S100
G1 X-0.2
M05 
G1 X-0.1
M03 S100
G1 X-0.2
M05 
G1 X-0.1
M03 S100
G1 X-0.1
M05 
G1 X-0.3
M03 S100
G1 X-0.1
M05 
G1 X-2
M03 S100
G1 X-0.1
M05 
G1 X-0.3
M03 S100
G1 X-0.1
M05 
G1 X-0.1
M03 S100
G1 X-0.1
M05 
G1 X-0.1
M03 S100
G1 X-0.2
M05 
G1 X-0.1
M03 S100
G1 X-0.1
M05 
G1 X-0.1
M03 S100
G1 X-0.2
M05 
G1 X-0.1
M03 S100
G1 X-0.1
M05 
G1 X-0.1
M03 S100
G1 X-0.1
M05 
G1 X-0.1
M03 S100
G1 X-0.1
M05 
G1 X-0.1
M03 S100
G1 X-0.3
M05 
G1 X-0.1
M03 S100
G1 X-0.1
M05 
G1 X-0.1
M03 S100
G1 X-0.1
M05 
G1 X-0.1
M03 S100
G1 X-0.1
M05 
G1 X-0.1
M03 S100
G1 X-0.1
M05 
G1 X-0.1
M03 S100
G1 X-0.1
M05 
G1 X-0.2
M03 S100
G1 X-0.2
M05 
G1 X-0.1
M03 S100
G1 X-0.1
M05 
G1 X-0.1
M03 S100
G1 X-0.2
M05 
G1 X-0.1
M03 S100
G1 X-0.2
M05 
G1 X-0.1
M03 S100
G1 X-0.1
M05 
G1 X-0.1
M03 S100
G1 X-0.1
M05 
G1 X-0.1
M03 S100
G1 X-0.1
M05 
G1 X-0.1
M03 S100
G1 X-0.1
M05 
G1 X-0.1
M03 S100
G1 X-0.2
M05 
G1 X-0.1
M03 S100
G1 X-0.1
M05 
G1 X-0.1
M03 S100
G1 X-0.1
M05 
G1 X-0.1
M03 S100
G1 X-0.1
M05 
G1 X-0.1
M03 S100
G1 X-0.1
M05 
G1 X-0.1
M03 S100
G1 X-0.1
M05 
G1 X-0.1
M03 S100
G1 X-0.1
M05 
G1 X-0.1
M03 S100
G1 X-0.1
M05 
G1 X-0.1
M03 S100
G1 X-0.1
M05 
G1 X-0.1
M03 S100
G1 X-0.1
M05 
G1 X-0.1
M03 S100
G1 X-0.1
M05 
G1 X-0.1
M03 S100
G1 X-0.1
M05 
G1 X-0.1
M03 S100
G1 X-0.1
M05 
G1 X-0.1
M03 S100
G1 X-0.1
M05 
G1 X-0.1
M03 S100
G1 X-0.1
M05 
G1 X-0.1
M03 S100
G1 X-0.1
M05 
G1 X-0.1
M03 S100
G1 X-0.2
M05 
G1 X-0.1
M03 S100
G1 X-0.1
M05 
G1 X-0.1
M03 S100
G1 X-0.2
M05 
G1 X-0.1
M03 S100
G1 X-0.1
M05 
G1 X-0.1
M03 S100
G1 X-0.1
M05 
G1 X-0.1
M03 S100
G1 X-0.1
M05 
G1 X-0.1
M03 S100
G1 X-0.1
M05 
G1 X-0.1
M03 S100
G1 X-0.1
M05 
G1 X-0.1
M03 S100
G1 X-0.2
M05 
G1 X-0.1
M03 S100
G1 X-0.2
M05 
G1 X-0.1
M03 S100
G1 X-0.2
M05 
G1 X-0.1
M03 S100
G1 X-0.1
M05 
G1 X-0.1
M03 S100
G1 X-0.1
M05 
G1 X-0.1
M03 S100
G1 X-0.1
M05 
G1 X-0.1
M03 S100
G1 X-0.1
M05 
G1 X-0.1
M03 S100
G1 X-0.1
M05 
G1 X-0.1
M03 S100
G1 X-0.1
M05 
G1 X-0.1
M03 S100
G1 X-0.1
M05 
G1 X-0.1
M03 S100
G1 X-0.1
M05 
G1 X-0.1
M03 S100
G1 X-0.1
M05 
G1 X-0.1
M03 S100
G1 X-0.1
M05 
G1 X-0.1
M03 S100
G1 X-0.2
M05 
G1 X-0.1
M03 S100
G1 X-0.1
M05 
G1 X-0.1
M03 S100
G1 X-0.1
M05 
G1 X-0.1
M03 S100
G1 X-0.1
M05 
G1 X-0.1
M03 S100
G1 X-0.1
M05 
G1 X-0.2
M03 S100
G1 X-0.1
M05 
G1 X-1.1
M03 S100
G1 X-0.1
M05 
G1 X-0.2
M03 S100
G1 X-0.1
M05 
G1 X-33.86
M03 S100
G1 X-0.1
M05 
G1 X-0.1
M03 S100
G1 X-0.2
M05 
G1 X-0.1
M03 S100
G1 X-0.1
M05 
G1 X-1.4
M03 S100
G1 X-0.1
M05 
G1 X-1.5
M03 S100
G1 X-0.1
M05 
G1 X-2.5
G1 X-1.5Y0.1
G1 X2.5
M03 S100
G1 X0.1
M05 
G1 X1.8
M03 S100
G1 X0.1
M05 
G1 X0.2
M03 S100
G1 X0.1
M05 
G1 X2.1
M03 S100
G1 X0.1
M05 
G1 X0.4
M03 S100
G1 X0.1
M05 
G1 X0.2
M03 S100
G1 X0.1
M05 
G1 X0.2
M03 S100
G1 X0.1
M05 
G1 X10.7
M03 S100
G1 X0.1
M05 
G1 X0.1
M03 S100
G1 X0.2
M05 
G1 X1.3
M03 S100
G1 X0.1
M05 
G1 X21.16
M03 S100
G1 X0.1
M05 
G1 X0.2
M03 S100
G1 X0.1
M05 
G1 X0.2
M03 S100
G1 X0.1
M05 
G1 X0.2
M03 S100
G1 X0.1
M05 
G1 X0.5
M03 S100
G1 X0.1
M05 
G1 X0.1
M03 S100
G1 X0.1
M05 
G1 X0.1
M03 S100
G1 X0.3
M05 
G1 X0.1
M03 S100
G1 X0.1
M05 
G1 X0.1
M03 S100
G1 X0.1
M05 
G1 X0.1
M03 S100
G1 X0.2
M05 
G1 X0.1
M03 S100
G1 X0.1
M05 
G1 X0.1
M03 S100
G1 X0.1
M05 
G1 X0.1
M03 S100
G1 X0.1
M05 
G1 X0.1
M03 S100
G1 X0.1
M05 
G1 X0.1
M03 S100
G1 X0.1
M05 
G1 X0.1
M03 S100
G1 X0.1
M05 
G1 X0.1
M03 S100
G1 X0.2
M05 
G1 X0.1
M03 S100
G1 X0.1
M05 
G1 X0.2
M03 S100
G1 X0.1
M05 
G1 X0.1
M03 S100
G1 X0.1
M05 
G1 X0.1
M03 S100
G1 X0.1
M05 
G1 X0.2
M03 S100
G1 X0.1
M05 
G1 X0.1
M03 S100
G1 X0.1
M05 
G1 X0.1
M03 S100
G1 X0.1
M05 
G1 X0.1
M03 S100
G1 X0.1
M05 
G1 X0.1
M03 S100
G1 X0.1
M05 
G1 X0.1
M03 S100
G1 X0.1
M05 
G1 X0.2
M03 S100
G1 X0.1
M05 
G1 X0.1
M03 S100
G1 X0.1
M05 
G1 X0.2
M03 S100
G1 X0.1
M05 
G1 X0.1
M03 S100
G1 X0.1
M05 
G1 X0.1
M03 S100
G1 X0.1
M05 
G1 X0.1
M03 S100
G1 X0.1
M05 
G1 X0.1
M03 S100
G1 X0.1
M05 
G1 X0.1
M03 S100
G1 X0.1
M05 
G1 X0.1
M03 S100
G1 X0.1
M05 
G1 X0.1
M03 S100
G1 X0.1
M05 
G1 X0.1
M03 S100
G1 X0.1
M05 
G1 X0.1
M03 S100
G1 X0.1
M05 
G1 X0.1
M03 S100
G1 X0.1
M05 
G1 X0.1
M03 S100
G1 X0.1
M05 
G1 X0.1
M03 S100
G1 X0.1
M05 
G1 X0.1
M03 S100
G1 X0.1
M05 
G1 X0.1
M03 S100
G1 X0.1
M05 
G1 X0.1
M03 S100
G1 X0.1
M05 
G1 X0.2
M03 S100
G1 X0.1
M05 
G1 X0.1
M03 S100
G1 X0.1
M05 
G1 X0.1
M03 S100
G1 X0.1
M05 
G1 X0.1
M03 S100
G1 X0.1
M05 
G1 X0.1
M03 S100
G1 X0.1
M05 
G1 X0.1
M03 S100
G1 X0.1
M05 
G1 X0.1
M03 S100
G1 X0.1
M05 
G1 X0.1
M03 S100
G1 X0.2
M05 
G1 X0.1
M03 S100
G1 X0.1
M05 
G1 X0.1
M03 S100
G1 X0.2
M05 
G1 X0.1
M03 S100
G1 X0.1
M05 
G1 X0.1
M03 S100
G1 X0.1
M05 
G1 X0.1
M03 S100
G1 X0.1
M05 
G1 X0.1
M03 S100
G1 X0.1
M05 
G1 X0.1
M03 S100
G1 X0.1
M05 
G1 X0.1
M03 S100
G1 X0.1
M05 
G1 X0.1
M03 S100
G1 X0.2
M05 
G1 X0.1
M03 S100
G1 X0.2
M05 
G1 X0.1
M03 S100
G1 X0.1
M05 
G1 X0.1
M03 S100
G1 X0.2
M05 
G1 X0.1
M03 S100
G1 X0.2
M05 
G1 X0.1
M03 S100
G1 X0.2
M05 
G1 X0.1
M03 S100
G1 X0.1
M05 
G1 X0.1
M03 S100
G1 X0.1
M05 
G1 X0.4
M03 S100
G1 X0.1
M05 
G1 X0.4
M03 S100
G1 X0.1
M05 
G1 X0.3
M03 S100
G1 X0.1
M05 
G1 X0.3
M03 S100
G1 X0.1
M05 
G1 X0.5
M03 S100
G1 X0.1
M05 
G1 X0.1
M03 S100
G1 X0.2
M05 
G1 X0.1
M03 S100
G1 X0.1
M05 
G1 X0.1
M03 S100
G1 X0.1
M05 
G1 X0.2
M03 S100
G1 X0.1
M05 
G1 X0.1
M03 S100
G1 X0.1
M05 
G1 X0.1
M03 S100
G1 X0.2
M05 
G1 X0.1
M03 S100
G1 X0.2
M05 
G1 X2.5
G1 X0.5Y0.1
G1 X-2.5
M03 S100
G1 X-0.1
M05 
G1 X-0.3
M03 S100
G1 X-0.2
M05 
G1 X-0.1
M03 S100
G1 X-0.2
M05 
G1 X-0.1
M03 S100
G1 X-0.1
M05 
G1 X-0.1
M03 S100
G1 X-0.1
M05 
G1 X-0.2
M03 S100
G1 X-0.2
M05 
G1 X-0.1
M03 S100
G1 X-0.2
M05 
G1 X-0.1
M03 S100
G1 X-0.1
M05 
G1 X-0.4
M03 S100
G1 X-0.1
M05 
G1 X-0.3
M03 S100
G1 X-0.1
M05 
G1 X-0.9
M03 S100
G1 X-0.1
M05 
G1 X-0.4
M03 S100
G1 X-0.1
M05 
G1 X-0.2
M03 S100
G1 X-0.1
M05 
G1 X-0.1
M03 S100
G1 X-0.1
M05 
G1 X-0.2
M03 S100
G1 X-0.1
M05 
G1 X-0.1
M03 S100
G1 X-0.1
M05 
G1 X-0.1
M03 S100
G1 X-0.1
M05 
G1 X-0.3
M03 S100
G1 X-0.1
M05 
G1 X-0.2
M03 S100
G1 X-0.1
M05 
G1 X-0.4
M03 S100
G1 X-0.1
M05 
G1 X-0.2
M03 S100
G1 X-0.1
M05 
G1 X-0.1
M03 S100
G1 X-0.1
M05 
G1 X-0.1
M03 S100
G1 X-0.1
M05 
G1 X-0.1
M03 S100
G1 X-0.1
M05 
G1 X-0.1
M03 S100
G1 X-0.1
M05 
G1 X-0.2
M03 S100
G1 X-0.1
M05 
G1 X-0.2
M03 S100
G1 X-0.1
M05 
G1 X-0.2
M03 S100
G1 X-0.1
M05 
G1 X-0.1
M03 S100
G1 X-0.1
M05 
G1 X-0.2
M03 S100
G1 X-0.1
M05 
G1 X-0.1
M03 S100
G1 X-0.1
M05 
G1 X-0.1
M03 S100
G1 X-0.1
M05 
G1 X-0.1
M03 S100
G1 X-0.1
M05 
G1 X-0.1
M03 S100
G1 X-0.1
M05 
G1 X-0.1
M03 S100
G1 X-0.1
M05 
G1 X-0.1
M03 S100
G1 X-0.1
M05 
G1 X-0.1
M03 S100
G1 X-0.1
M05 
G1 X-0.1
M03 S100
G1 X-0.1
M05 
G1 X-0.1
M03 S100
G1 X-0.1
M05 
G1 X-0.1
M03 S100
G1 X-0.1
M05 
G1 X-0.1
M03 S100
G1 X-0.1
M05 
G1 X-0.1
M03 S100
G1 X-0.1
M05 
G1 X-0.1
M03 S100
G1 X-0.1
M05 
G1 X-0.1
M03 S100
G1 X-0.1
M05 
G1 X-0.1
M03 S100
G1 X-0.1
M05 
G1 X-0.1
M03 S100
G1 X-0.1
M05 
G1 X-0.1
M03 S100
G1 X-0.1
M05 
G1 X-0.1
M03 S100
G1 X-0.1
M05 
G1 X-0.1
M03 S100
G1 X-0.1
M05 
G1 X-0.1
M03 S100
G1 X-0.1
M05 
G1 X-0.1
M03 S100
G1 X-0.1
M05 
G1 X-0.1
M03 S100
G1 X-0.1
M05 
G1 X-0.1
M03 S100
G1 X-0.1
M05 
G1 X-0.1
M03 S100
G1 X-0.1
M05 
G1 X-0.1
M03 S100
G1 X-0.1
M05 
G1 X-0.1
M03 S100
G1 X-0.1
M05 
G1 X-0.1
M03 S100
G1 X-0.1
M05 
G1 X-0.1
M03 S100
G1 X-0.1
M05 
G1 X-0.1
M03 S100
G1 X-0.1
M05 
G1 X-0.1
M03 S100
G1 X-0.1
M05 
G1 X-0.2
M03 S100
G1 X-0.1
M05 
G1 X-0.2
M03 S100
G1 X-0.1
M05 
G1 X-0.1
M03 S100
G1 X-0.1
M05 
G1 X-0.2
M03 S100
G1 X-0.1
M05 
G1 X-0.1
M03 S100
G1 X-0.1
M05 
G1 X-0.1
M03 S100
G1 X-0.1
M05 
G1 X-0.1
M03 S100
G1 X-0.1
M05 
G1 X-0.1
M03 S100
G1 X-0.1
M05 
G1 X-0.1
M03 S100
G1 X-0.1
M05 
G1 X-0.1
M03 S100
G1 X-0.1
M05 
G1 X-0.2
M03 S100
G1 X-0.1
M05 
G1 X-0.1
M03 S100
G1 X-0.1
M05 
G1 X-0.1
M03 S100
G1 X-0.2
M05 
G1 X-0.1
M03 S100
G1 X-0.2
M05 
G1 X-0.1
M03 S100
G1 X-0.1
M05 
G1 X-0.1
M03 S100
G1 X-0.1
M05 
G1 X-0.2
M03 S100
G1 X-0.1
M05 
G1 X-0.2
M03 S100
G1 X-0.1
M05 
G1 X-0.2
M03 S100
G1 X-0.1
M05 
G1 X-20.76
M03 S100
G1 X-0.1
M05 
G1 X-0.2
M03 S100
G1 X-0.1
M05 
G1 X-0.1
M03 S100
G1 X-0.2
M05 
G1 X-0.1
M03 S100
G1 X-0.2
M05 
G1 X-1.1
M03 S100
G1 X-0.1
M05 
G1 X-0.1
M03 S100
G1 X-0.1
M05 
G1 X-0.1
M03 S100
G1 X-0.1
M05 
G1 X-0.1
M03 S100
G1 X-0.1
M05 
G1 X-4.2
M03 S100
G1 X-0.1
M05 
G1 X-0.3
M03 S100
G1 X-0.1
M05 
G1 X-0.8
M03 S100
G1 X-0.1
M05 
G1 X-1.7
M03 S100
G1 X-0.1
M05 
G1 X-1.7
M03 S100
G1 X-0.1
M05 
G1 X-0.2
M03 S100
G1 X-0.1
M05 
G1 X-0.2
M03 S100
G1 X-0.1
M05 
G1 X-0.2
M03 S100
G1 X-0.1
M05 
G1 X-0.2
M03 S100
G1 X-0.1
M05 
G1 X-0.5
M03 S100
G1 X-0.1
M05 
G1 X-0.1
M03 S100
G1 X-0.1
M05 
G1 X-0.1
M03 S100
G1 X-0.2
M05 
G1 X-0.1
M03 S100
G1 X-0.1
M05 
G1 X-0.4
M03 S100
G1 X-0.1
M05 
G1 X-0.2
M03 S100
G1 X-0.1
M05 
G1 X-0.2
M03 S100
G1 X-0.1
M05 
G1 X-0.3
M03 S100
G1 X-0.1
M05 
G1 X-0.4
M03 S100
G1 X-0.1
M05 
G1 X-1.2
M03 S100
G1 X-0.1
M05 
G1 X-0.2
M03 S100
G1 X-0.1
M05 
G1 X-0.3
M03 S100
G1 X-0.1
M05 
G1 X-0.2
M03 S100
G1 X-0.1
M05 
G1 X-0.4
M03 S100
G1 X-0.1
M05 
G1 X-2.5
G1 X1.7Y0.1
G1 X2.5
M03 S100
G1 X0.1
M05 
G1 X0.2
M03 S100
G1 X0.1
M05 
G1 X1
M03 S100
G1 X0.1
M05 
G1 X1.7
M03 S100
G1 X0.1
M05 
G1 X0.2
M03 S100
G1 X0.2
M05 
G1 X0.2
M03 S100
G1 X0.1
M05 
G1 X1.8
M03 S100
G1 X0.1
M05 
G1 X0.2
M03 S100
G1 X0.1
M05 
G1 X0.2
M03 S100
G1 X0.1
M05 
G1 X0.2
M03 S100
G1 X0.1
M05 
G1 X0.2
M03 S100
G1 X0.1
M05 
G1 X0.5
M03 S100
G1 X0.1
M05 
G1 X0.2
M03 S100
G1 X0.1
M05 
G1 X0.3
M03 S100
G1 X0.1
M05 
G1 X0.2
M03 S100
G1 X0.1
M05 
G1 X0.2
M03 S100
G1 X0.1
M05 
G1 X0.4
M03 S100
G1 X0.1
M05 
G1 X0.2
M03 S100
G1 X0.1
M05 
G1 X1
M03 S100
G1 X0.1
M05 
G1 X1.3
M03 S100
G1 X0.1
M05 
G1 X0.8
M03 S100
G1 X0.1
M05 
G1 X1
M03 S100
G1 X0.1
M05 
G1 X0.3
M03 S100
G1 X0.1
M05 
G1 X0.2
M03 S100
G1 X0.1
M05 
G1 X0.1
M03 S100
G1 X0.1
M05 
G1 X0.1
M03 S100
G1 X0.1
M05 
G1 X1
M03 S100
G1 X0.1
M05 
G1 X0.2
M03 S100
G1 X0.1
M05 
G1 X0.1
M03 S100
G1 X0.1
M05 
G1 X0.1
M03 S100
G1 X0.1
M05 
G1 X0.1
M03 S100
G1 X0.1
M05 
G1 X0.2
M03 S100
G1 X0.1
M05 
G1 X0.1
M03 S100
G1 X0.1
M05 
G1 X0.2
M03 S100
G1 X0.1
M05 
G1 X0.2
M03 S100
G1 X0.1
M05 
G1 X19.16
M03 S100
G1 X0.1
M05 
G1 X0.2
M03 S100
G1 X0.1
M05 
G1 X1
M03 S100
G1 X0.1
M05 
G1 X0.3
M03 S100
G1 X0.1
M05 
G1 X0.1
M03 S100
G1 X0.1
M05 
G1 X0.1
M03 S100
G1 X0.1
M05 
G1 X0.1
M03 S100
G1 X0.1
M05 
G1 X0.1
M03 S100
G1 X0.1
M05 
G1 X0.2
M03 S100
G1 X0.1
M05 
G1 X0.2
M03 S100
G1 X0.1
M05 
G1 X0.3
M03 S100
G1 X0.1
M05 
G1 X0.3
M03 S100
G1 X0.1
M05 
G1 X0.3
M03 S100
G1 X0.1
M05 
G1 X0.2
M03 S100
G1 X0.1
M05 
G1 X0.1
M03 S100
G1 X0.1
M05 
G1 X0.2
M03 S100
G1 X0.1
M05 
G1 X0.2
M03 S100
G1 X0.1
M05 
G1 X0.3
M03 S100
G1 X0.1
M05 
G1 X0.3
M03 S100
G1 X0.1
M05 
G1 X0.3
M03 S100
G1 X0.1
M05 
G1 X0.3
M03 S100
G1 X0.1
M05 
G1 X0.2
M03 S100
G1 X0.1
M05 
G1 X0.2
M03 S100
G1 X0.1
M05 
G1 X0.3
M03 S100
G1 X0.1
M05 
G1 X0.3
M03 S100
G1 X0.1
M05 
G1 X0.3
M03 S100
G1 X0.1
M05 
G1 X0.3
M03 S100
G1 X0.1
M05 
G1 X0.3
M03 S100
G1 X0.1
M05 
G1 X0.3
M03 S100
G1 X0.1
M05 
G1 X0.3
M03 S100
G1 X0.1
M05 
G1 X0.1
M03 S100
G1 X0.1
M05 
G1 X0.3
M03 S100
G1 X0.1
M05 
G1 X0.3
M03 S100
G1 X0.1
M05 
G1 X0.2
M03 S100
G1 X0.1
M05 
G1 X0.2
M03 S100
G1 X0.1
M05 
G1 X0.2
M03 S100
G1 X0.1
M05 
G1 X0.1
M03 S100
G1 X0.1
M05 
G1 X0.2
M03 S100
G1 X0.1
M05 
G1 X0.3
M03 S100
G1 X0.1
M05 
G1 X0.3
M03 S100
G1 X0.1
M05 
G1 X0.2
M03 S100
G1 X0.2
M05 
G1 X0.1
M03 S100
G1 X0.1
M05 
G1 X0.2
M03 S100
G1 X0.1
M05 
G1 X0.2
M03 S100
G1 X0.1
M05 
G1 X0.2
M03 S100
G1 X0.1
M05 
G1 X0.1
M03 S100
G1 X0.1
M05 
G1 X0.1
M03 S100
G1 X0.2
M05 
G1 X0.3
M03 S100
G1 X0.1
M05 
G1 X0.2
M03 S100
G1 X0.1
M05 
G1 X0.7
M03 S100
G1 X0.1
M05 
G1 X0.3
M03 S100
G1 X0.1
M05 
G1 X0.9
M03 S100
G1 X0.1
M05 
G1 X0.2
M03 S100
G1 X0.1
M05 
G1 X0.1
M03 S100
G1 X0.1
M05 
G1 X0.2
M03 S100
G1 X0.1
M05 
G1 X0.2
M03 S100
G1 X0.1
M05 
G1 X0.1
M03 S100
G1 X0.3
M05 
G1 X0.1
M03 S100
G1 X0.1
M05 
G1 X0.1
M03 S100
G1 X0.1
M05 
G1 X2.5
G1 X0.1Y0.1
G1 X-2.5
M03 S100
G1 X-0.1
M05 
G1 X-0.1
M03 S100
G1 X-0.1
M05 
G1 X-0.1
M03 S100
G1 X-0.2
M05 
G1 X-0.2
M03 S100
G1 X-0.1
M05 
G1 X-0.2
M03 S100
G1 X-0.1
M05 
G1 X-0.2
M03 S100
G1 X-0.1
M05 
G1 X-0.1
M03 S100
G1 X-0.1
M05 
G1 X-0.1
M03 S100
G1 X-0.1
M05 
G1 X-0.1
M03 S100
G1 X-0.1
M05 
G1 X-0.2
M03 S100
G1 X-0.1
M05 
G1 X-0.8
M03 S100
G1 X-0.1
M05 
G1 X-0.6
M03 S100
G1 X-0.1
M05 
G1 X-0.6
M03 S100
G1 X-0.1
M05 
G1 X-0.1
M03 S100
G1 X-0.1
M05 
G1 X-0.2
M03 S100
G1 X-0.1
M05 
G1 X-0.1
M03 S100
G1 X-0.1
M05 
G1 X-0.2
M03 S100
G1 X-0.1
M05 
G1 X-0.1
M03 S100
G1 X-0.1
M05 
G1 X-0.2
M03 S100
G1 X-0.1
M05 
G1 X-0.2
M03 S100
G1 X-0.1
M05 
G1 X-0.4
M03 S100
G1 X-0.1
M05 
G1 X-0.2
M03 S100
G1 X-0.1
M05 
G1 X-0.2
M03 S100
G1 X-0.1
M05 
G1 X-0.3
M03 S100
G1 X-0.1
M05 
G1 X-0.3
M03 S100
G1 X-0.1
M05 
G1 X-0.2
M03 S100
G1 X-0.1
M05 
G1 X-0.2
M03 S100
G1 X-0.1
M05 
G1 X-0.2
M03 S100
G1 X-0.1
M05 
G1 X-0.2
M03 S100
G1 X-0.1
M05 
G1 X-0.2
M03 S100
G1 X-0.1
M05 
G1 X-0.5
M03 S100
G1 X-0.1
M05 
G1 X-0.3
M03 S100
G1 X-0.1
M05 
G1 X-0.3
M03 S100
G1 X-0.1
M05 
G1 X-0.3
M03 S100
G1 X-0.1
M05 
G1 X-0.3
M03 S100
G1 X-0.1
M05 
G1 X-0.3
M03 S100
G1 X-0.1
M05 
G1 X-0.3
M03 S100
G1 X-0.1
M05 
G1 X-0.4
M03 S100
G1 X-0.1
M05 
G1 X-0.4
M03 S100
G1 X-0.1
M05 
G1 X-0.3
M03 S100
G1 X-0.1
M05 
G1 X-0.3
M03 S100
G1 X-0.1
M05 
G1 X-0.3
M03 S100
G1 X-0.1
M05 
G1 X-0.2
M03 S100
G1 X-0.1
M05 
G1 X-0.2
M03 S100
G1 X-0.1
M05 
G1 X-0.4
M03 S100
G1 X-0.1
M05 
G1 X-0.2
M03 S100
G1 X-0.1
M05 
G1 X-0.3
M03 S100
G1 X-0.1
M05 
G1 X-0.3
M03 S100
G1 X-0.1
M05 
G1 X-0.3
M03 S100
G1 X-0.1
M05 
G1 X-0.2
M03 S100
G1 X-0.1
M05 
G1 X-0.2
M03 S100
G1 X-0.1
M05 
G1 X-0.1
M03 S100
G1 X-0.2
M05 
G1 X-0.1
M03 S100
G1 X-0.1
M05 
G1 X-0.1
M03 S100
G1 X-0.1
M05 
G1 X-0.1
M03 S100
G1 X-0.1
M05 
G1 X-0.3
M03 S100
G1 X-0.1
M05 
G1 X-0.2
M03 S100
G1 X-0.1
M05 
G1 X-0.2
M03 S100
G1 X-0.1
M05 
G1 X-0.2
M03 S100
G1 X-0.1
M05 
G1 X-17.96
M03 S100
G1 X-0.1
M05 
G1 X-0.2
M03 S100
G1 X-0.1
M05 
G1 X-0.1
M03 S100
G1 X-0.1
M05 
G1 X-0.1
M03 S100
G1 X-0.1
M05 
G1 X-0.1
M03 S100
G1 X-0.1
M05 
G1 X-0.1
M03 S100
G1 X-0.1
M05 
G1 X-0.1
M03 S100
G1 X-0.1
M05 
G1 X-0.4
M03 S100
G1 X-0.1
M05 
G1 X-0.2
M03 S100
G1 X-0.1
M05 
G1 X-0.2
M03 S100
G1 X-0.1
M05 
G1 X-0.1
M03 S100
G1 X-0.1
M05 
G1 X-0.1
M03 S100
G1 X-0.1
M05 
G1 X-0.1
M03 S100
G1 X-0.1
M05 
G1 X-0.2
M03 S100
G1 X-0.1
M05 
G1 X-0.6
M03 S100
G1 X-0.1
M05 
G1 X-0.2
M03 S100
G1 X-0.1
M05 
G1 X-0.2
M03 S100
G1 X-0.1
M05 
G1 X-0.1
M03 S100
G1 X-0.1
M05 
G1 X-0.2
M03 S100
G1 X-0.1
M05 
G1 X-0.6
M03 S100
G1 X-0.1
M05 
G1 X-0.2
M03 S100
G1 X-0.1
M05 
G1 X-0.2
M03 S100
G1 X-0.1
M05 
G1 X-0.5
M03 S100
G1 X-0.1
M05 
G1 X-0.2
M03 S100
G1 X-0.1
M05 
G1 X-0.5
M03 S100
G1 X-0.1
M05 
G1 X-0.2
M03 S100
G1 X-0.1
M05 
G1 X-0.2
M03 S100
G1 X-0.1
M05 
G1 X-0.2
M03 S100
G1 X-0.1
M05 
G1 X-0.6
M03 S100
G1 X-0.1
M05 
G1 X-0.3
M03 S100
G1 X-0.1
M05 
G1 X-2.5
M03 S100
G1 X-0.1
M05 
G1 X-2
M03 S100
G1 X-0.1
M05 
G1 X-0.3
M03 S100
G1 X-0.1
M05 
G1 X-0.4
M03 S100
G1 X-0.1
M05 
G1 X-0.2
M03 S100
G1 X-0.1
M05 
G1 X-0.2
M03 S100
G1 X-0.1
M05 
G1 X-0.1
M03 S100
G1 X-0.1
M05 
G1 X-0.1
M03 S100
G1 X-0.1
M05 
G1 X-0.2
M03 S100
G1 X-0.1
M05 
G1 X-0.2
M03 S100
G1 X-0.1
M05 
G1 X-0.4
M03 S100
G1 X-0.1
M05 
G1 X-0.3
M03 S100
G1 X-0.1
M05 
G1 X-0.7
M03 S100
G1 X-0.1
M05 
G1 X-0.2
M03 S100
G1 X-0.1
M05 
G1 X-0.1
M03 S100
G1 X-0.1
M05 
G1 X-0.8
M03 S100
G1 X-0.1
M05 
G1 X-0.3
M03 S100
G1 X-0.1
M05 
G1 X-0.6
M03 S100
G1 X-0.1
M05 
G1 X-2.5
G1 X0.2Y0.1
G1 X2.5
M03 S100
G1 X0.1
M05 
G1 X0.2
M03 S100
G1 X0.1
M05 
G1 X0.8
M03 S100
G1 X0.1
M05 
G1 X1.3
M03 S100
G1 X0.1
M05 
G1 X1
M03 S100
G1 X0.1
M05 
G1 X0.7
M03 S100
G1 X0.1
M05 
G1 X0.1
M03 S100
G1 X0.1
M05 
G1 X0.1
M03 S100
G1 X0.1
M05 
G1 X0.1
M03 S100
G1 X0.1
M05 
G1 X0.6
M03 S100
G1 X0.1
M05 
G1 X0.8
