;FLAVOR:Marlin
;TIME:943
;Filament used: 0.615756m
;Layer height: 0.2
;MINX:54
;MINY:82.745
;MINZ:0.2
;MAXX:166
;MAXY:132.26
;MAXZ:5
;Generated with Cura_SteamEngine 5.4.0
M82 ;absolute extrusion mode
; Ender 3 S1 Start G-code
G92 E0 ; Reset Extruder
G28 ; Home all axes
M420 S1 ;Use bed leveling data
G1 Z10.0 F3000 ; Move Z Axis up little to prevent scratching of Heat Bed
G1 X0 Y0

M104 S200
M190 S60
M109 S200

G1 X0.1 Y20 Z0.3 F5000.0 ; Move to start position
G1 X0.1 Y200.0 Z0.3 F1500.0 E15 ; Draw the first line
G1 X0.4 Y200.0 Z0.3 F5000.0 ; Move to side a little
G1 X0.4 Y20 Z0.3 F1500.0 E30 ; Draw the second line
G92 E0 ; Reset Extruder
G1 Z2.0 F3000 ; Move Z Axis up little to prevent scratching of Heat Bed
G1 X5 Y20 Z0.3 F5000.0 ; Move over to prevent blob squish
G92 E0
G92 E0
G1 F2400 E-0.8
;LAYER_COUNT:25
;LAYER:0
M107
M204 S2000
G0 F7500 X87.077 Y86.438 Z0.2
M204 S500
;TYPE:SKIRT
G1 F2400 E0
G1 F1500 X88.022 Y85.576 E0.04254
G1 X88.393 Y85.278 E0.05837
G1 X89.179 Y84.704 E0.09074
G1 X89.951 Y84.235 E0.12079
G1 X90.891 Y83.775 E0.15559
G1 X91.799 Y83.426 E0.18795
G1 X92.128 Y83.318 E0.19946
G1 X93.065 Y83.056 E0.23182
G1 X94.02 Y82.877 E0.26414
G1 X94.972 Y82.781 E0.29596
G1 X95.875 Y82.753 E0.32601
G1 X97.21 Y82.846 E0.37052
G1 X98.704 Y83.045 E0.42065
G1 X101.229 Y83.329 E0.50516
G1 X103.777 Y83.546 E0.59022
G1 X106.274 Y83.685 E0.6734
G1 X108.803 Y83.756 E0.75754
G1 X111.293 Y83.754 E0.84036
G1 X113.862 Y83.681 E0.92584
G1 X116.31 Y83.54 E1.0074
G1 X118.867 Y83.324 E1.09275
G1 X121.359 Y83.038 E1.17618
G1 X122.283 Y82.909 E1.20721
G1 X123.023 Y82.818 E1.232
G1 X123.994 Y82.745 E1.26439
G1 X124.967 Y82.758 E1.29676
G1 X125.936 Y82.857 E1.32915
G1 X126.856 Y83.033 E1.36031
G1 X127.714 Y83.27 E1.38991
G1 X128.154 Y83.413 E1.4053
G1 X129.065 Y83.756 E1.43768
G1 X129.943 Y84.179 E1.47009
G1 X130.785 Y84.68 E1.50268
G1 X131.716 Y85.363 E1.54108
G1 X132.058 Y85.644 E1.55581
G1 X132.757 Y86.274 E1.5871
G1 X133.549 Y87.136 E1.62604
G1 X135.104 Y89.022 E1.70734
G1 X136.794 Y90.965 E1.79299
G1 X138.493 Y92.812 E1.87646
G1 X140.24 Y94.605 E1.95972
G1 X142.048 Y96.357 E2.04346
G1 X143.893 Y98.046 E2.12665
G1 X145.817 Y99.709 E2.21123
G1 X147.747 Y101.289 E2.29419
G1 X149.731 Y102.819 E2.37752
G1 X151.826 Y104.342 E2.46367
G1 X153.847 Y105.726 E2.54514
G1 X155.986 Y107.103 E2.62975
G1 X158.129 Y108.397 E2.71301
G1 X160.44 Y109.71 E2.80142
G1 X161.277 Y110.24 E2.83437
G1 X162.052 Y110.832 E2.8668
G1 X162.77 Y111.489 E2.89917
G1 X163.428 Y112.208 E2.93159
G1 X164.018 Y112.982 E2.96396
G1 X164.538 Y113.805 E2.99634
G1 X164.984 Y114.67 E3.02871
G1 X165.352 Y115.573 E3.06114
G1 X165.638 Y116.504 E3.09353
G1 X165.84 Y117.455 E3.12587
G1 X165.952 Y118.351 E3.1559
G1 X165.987 Y118.967 E3.17643
G1 X166 Y119.649 E3.19911
G1 X165.991 Y121.346 E3.25556
G1 X165.946 Y122.248 E3.28559
G1 X165.801 Y123.284 E3.32039
G1 X165.578 Y124.232 E3.35278
G1 X165.274 Y125.155 E3.3851
G1 X164.919 Y125.986 E3.41516
G1 X164.424 Y126.907 E3.44993
G1 X163.887 Y127.719 E3.48231
G1 X163.28 Y128.48 E3.51469
G1 X162.608 Y129.186 E3.54711
G1 X161.876 Y129.828 E3.57949
G1 X161.091 Y130.404 E3.61187
G1 X160.289 Y130.891 E3.64308
G1 X159.383 Y131.335 E3.67664
G1 X158.473 Y131.684 E3.70905
G1 X157.538 Y131.952 E3.7414
G1 X156.652 Y132.125 E3.77143
G1 X155.294 Y132.247 E3.81678
G1 X154.67 Y132.26 E3.83754
G1 X65.564 Y132.259 E6.80122
G1 X64.831 Y132.248 E6.8256
G1 X63.859 Y132.191 E6.85798
G1 X62.896 Y132.045 E6.89038
G1 X61.95 Y131.816 E6.92275
G1 X61.026 Y131.504 E6.95519
G1 X60.136 Y131.112 E6.98753
G1 X59.313 Y130.661 E7.01875
G1 X58.474 Y130.1 E7.05232
G1 X57.77 Y129.534 E7.08236
G1 X57.017 Y128.809 E7.11713
G1 X56.38 Y128.073 E7.1495
G1 X55.85 Y127.342 E7.17953
G1 X55.314 Y126.445 E7.21429
G1 X54.892 Y125.567 E7.24669
G1 X54.55 Y124.655 E7.27908
G1 X54.29 Y123.717 E7.31146
G1 X54.112 Y122.748 E7.34423
G1 X54.015 Y121.593 E7.38278
G1 X54 Y120.851 E7.40746
G1 X54.012 Y119.162 E7.46364
G1 X54.064 Y118.19 E7.49601
G1 X54.201 Y117.227 E7.52837
G1 X54.404 Y116.347 E7.5584
G1 X54.729 Y115.353 E7.59319
G1 X55.085 Y114.523 E7.62322
G1 X55.58 Y113.603 E7.65797
G1 X56.118 Y112.79 E7.6904
G1 X56.725 Y112.03 E7.72275
G1 X57.398 Y111.324 E7.75519
G1 X58.103 Y110.705 E7.78639
G1 X58.913 Y110.11 E7.81982
G1 X59.646 Y109.662 E7.84839
G1 X60.295 Y109.299 E7.87313
G1 X62.574 Y107.981 E7.96069
G1 X64.691 Y106.674 E8.04344
G1 X66.799 Y105.29 E8.12731
G1 X68.849 Y103.858 E8.21048
G1 X70.889 Y102.348 E8.2949
G1 X72.872 Y100.79 E8.37878
G1 X74.776 Y99.204 E8.4612
G1 X76.704 Y97.504 E8.54669
G1 X78.545 Y95.787 E8.63042
G1 X80.312 Y94.043 E8.71299
G1 X82.057 Y92.219 E8.79695
G1 X83.738 Y90.361 E8.88029
G1 X85.909 Y87.797 E8.99203
G1 X86.447 Y87.14 E9.02027
G1 X87.077 Y86.438 E9.05165
M204 S2000
G0 F7500 X87.347 Y86.734
M204 S500
G1 F1500 X88.292 Y85.872 E9.09419
G1 X88.63 Y85.601 E9.1086
G1 X89.387 Y85.046 E9.13982
G1 X90.159 Y84.577 E9.16986
G1 X91.035 Y84.148 E9.2023
G1 X91.924 Y83.806 E9.23398
G1 X92.236 Y83.703 E9.24491
G1 X93.139 Y83.449 E9.27611
G1 X94.06 Y83.275 E9.30729
G1 X94.984 Y83.181 E9.33818
G1 X95.887 Y83.153 E9.36823
G1 X97.157 Y83.243 E9.41057
G1 X98.651 Y83.441 E9.4607
G1 X101.195 Y83.728 E9.54585
G1 X103.743 Y83.944 E9.6309
G1 X106.263 Y84.085 E9.71484
G1 X108.792 Y84.156 E9.79899
G1 X111.304 Y84.154 E9.88254
G1 X113.873 Y84.081 E9.96802
G1 X116.344 Y83.939 E10.05034
G1 X118.901 Y83.722 E10.1357
G1 X121.415 Y83.434 E10.21986
G1 X122.332 Y83.306 E10.25065
G1 X123.054 Y83.217 E10.27485
G1 X123.989 Y83.145 E10.30604
G1 X124.927 Y83.156 E10.33724
G1 X125.861 Y83.25 E10.36846
G1 X126.781 Y83.426 E10.39962
G1 X127.591 Y83.651 E10.42758
G1 X128.014 Y83.788 E10.44236
G1 X128.892 Y84.117 E10.47355
G1 X129.739 Y84.523 E10.50479
G1 X130.549 Y85.003 E10.53611
G1 X131.462 Y85.672 E10.57375
G1 X131.791 Y85.942 E10.58791
G1 X132.463 Y86.545 E10.61794
G1 X133.24 Y87.39 E10.65612
G1 X134.802 Y89.285 E10.7378
G1 X136.492 Y91.228 E10.82345
G1 X138.199 Y93.083 E10.90729
G1 X139.962 Y94.892 E10.99131
G1 X141.778 Y96.652 E11.07542
G1 X143.631 Y98.349 E11.15899
G1 X145.555 Y100.012 E11.24358
G1 X147.503 Y101.606 E11.32729
G1 X149.496 Y103.143 E11.411
G1 X151.591 Y104.666 E11.49715
G1 X153.63 Y106.062 E11.57934
G1 X155.769 Y107.439 E11.66395
G1 X157.931 Y108.745 E11.74796
G1 X160.242 Y110.058 E11.83636
G1 X161.035 Y110.558 E11.86754
G1 X161.782 Y111.127 E11.89878
G1 X162.475 Y111.76 E11.92999
G1 X163.11 Y112.451 E11.96121
G1 X163.68 Y113.196 E11.99241
G1 X164.183 Y113.989 E12.02364
G1 X164.614 Y114.822 E12.05483
G1 X164.97 Y115.691 E12.08607
G1 X165.247 Y116.588 E12.11729
G1 X165.443 Y117.505 E12.14848
G1 X165.555 Y118.401 E12.17851
G1 X165.587 Y118.975 E12.19763
G1 X165.6 Y119.647 E12.21999
G1 X165.591 Y121.326 E12.27583
G1 X165.546 Y122.228 E12.30587
G1 X165.412 Y123.193 E12.33828
G1 X165.198 Y124.107 E12.3695
G1 X164.906 Y124.998 E12.40068
G1 X164.551 Y125.829 E12.43074
G1 X164.09 Y126.687 E12.46313
G1 X163.574 Y127.47 E12.49432
G1 X162.99 Y128.205 E12.52555
G1 X162.344 Y128.886 E12.55677
G1 X161.639 Y129.506 E12.58799
G1 X160.883 Y130.062 E12.61921
G1 X160.081 Y130.549 E12.65041
G1 X159.239 Y130.962 E12.68161
G1 X158.363 Y131.3 E12.71284
G1 X157.461 Y131.559 E12.74405
G1 X156.575 Y131.732 E12.77407
G1 X155.286 Y131.847 E12.81712
G1 X154.67 Y131.86 E12.83761
G1 X65.57 Y131.859 E15.80109
G1 X64.854 Y131.849 E15.8249
G1 X63.918 Y131.795 E15.85609
G1 X62.989 Y131.656 E15.88733
G1 X62.077 Y131.437 E15.91852
G1 X61.187 Y131.138 E15.94975
G1 X60.328 Y130.761 E15.98095
G1 X59.505 Y130.31 E16.01217
G1 X58.725 Y129.788 E16.04338
G1 X58.021 Y129.222 E16.07343
G1 X57.319 Y128.547 E16.10582
G1 X56.704 Y127.838 E16.13704
G1 X56.174 Y127.107 E16.16707
G1 X55.674 Y126.271 E16.19947
G1 X55.266 Y125.426 E16.23068
G1 X54.935 Y124.548 E16.26188
G1 X54.683 Y123.644 E16.2931
G1 X54.511 Y122.715 E16.32452
G1 X54.414 Y121.56 E16.36307
G1 X54.4 Y120.854 E16.38656
G1 X54.411 Y119.183 E16.44214
G1 X54.46 Y118.246 E16.47334
G1 X54.591 Y117.317 E16.50455
G1 X54.794 Y116.437 E16.53459
G1 X55.097 Y115.511 E16.56699
G1 X55.453 Y114.681 E16.59703
G1 X55.914 Y113.823 E16.62943
G1 X56.431 Y113.039 E16.66066
G1 X57.015 Y112.306 E16.69183
G1 X57.662 Y111.625 E16.72308
G1 X58.367 Y111.006 E16.75428
G1 X59.122 Y110.451 E16.78545
G1 X59.841 Y110.011 E16.81348
G1 X60.49 Y109.648 E16.83821
G1 X62.774 Y108.327 E16.92597
G1 X64.911 Y107.008 E17.0095
G1 X67.019 Y105.624 E17.09337
G1 X69.087 Y104.18 E17.17726
G1 X71.127 Y102.67 E17.26168
G1 X73.119 Y101.105 E17.34593
G1 X75.041 Y99.504 E17.42913
G1 X76.969 Y97.804 E17.51462
G1 X78.818 Y96.08 E17.59871
G1 X80.593 Y94.328 E17.68166
G1 X82.346 Y92.496 E17.76599
G1 X84.035 Y90.629 E17.84973
G1 X86.219 Y88.05 E17.96213
G1 X86.745 Y87.407 E17.98976
G1 X87.347 Y86.734 E18.0198
M204 S2000
G0 F7500 X87.645 Y87.001
M204 S500
G1 F1500 X88.543 Y86.184 E18.06017
G1 X88.867 Y85.923 E18.07401
G1 X89.595 Y85.388 E18.10406
G1 X90.367 Y84.919 E18.1341
G1 X91.178 Y84.521 E18.16415
G1 X92.05 Y84.186 E18.19522
G1 X92.345 Y84.088 E18.20556
G1 X93.214 Y83.842 E18.2356
G1 X94.101 Y83.673 E18.26563
G1 X94.996 Y83.581 E18.29556
G1 X95.899 Y83.553 E18.3256
G1 X97.105 Y83.64 E18.36582
G1 X98.599 Y83.837 E18.41594
G1 X101.161 Y84.127 E18.5017
G1 X103.709 Y84.342 E18.58675
G1 X106.252 Y84.485 E18.67146
G1 X108.781 Y84.556 E18.75561
G1 X111.315 Y84.554 E18.83989
G1 X113.884 Y84.481 E18.92537
G1 X116.378 Y84.338 E19.00846
G1 X118.935 Y84.12 E19.09381
G1 X121.47 Y83.83 E19.17868
G1 X122.381 Y83.703 E19.20927
G1 X123.085 Y83.616 E19.23286
G1 X123.985 Y83.545 E19.26289
G1 X124.888 Y83.554 E19.29292
G1 X125.787 Y83.643 E19.32297
G1 X126.674 Y83.811 E19.353
G1 X127.468 Y84.032 E19.38041
G1 X127.874 Y84.163 E19.3946
G1 X128.72 Y84.478 E19.42462
G1 X129.536 Y84.867 E19.45469
G1 X130.313 Y85.326 E19.48471
G1 X131.208 Y85.981 E19.52159
G1 X131.524 Y86.24 E19.53518
G1 X132.196 Y86.843 E19.56521
G1 X132.931 Y87.644 E19.60137
G1 X134.5 Y89.548 E19.68343
G1 X136.19 Y91.491 E19.76908
G1 X137.905 Y93.354 E19.8533
G1 X139.684 Y95.179 E19.93807
G1 X141.508 Y96.947 E20.02256
G1 X143.369 Y98.652 E20.1065
G1 X145.293 Y100.315 E20.19109
G1 X147.259 Y101.923 E20.27556
G1 X149.261 Y103.467 E20.35965
G1 X151.356 Y104.99 E20.4458
G1 X153.413 Y106.398 E20.52871
G1 X155.552 Y107.775 E20.61332
G1 X157.733 Y109.093 E20.69808
G1 X160.029 Y110.397 E20.7859
G1 X160.793 Y110.877 E20.81591
G1 X161.513 Y111.423 E20.84596
G1 X162.181 Y112.031 E20.876
G1 X162.793 Y112.695 E20.90604
G1 X163.343 Y113.411 E20.93607
G1 X163.828 Y114.173 E20.96611
G1 X164.244 Y114.974 E20.99613
G1 X164.588 Y115.81 E21.0262
G1 X164.856 Y116.672 E21.05622
G1 X165.046 Y117.555 E21.08626
G1 X165.158 Y118.451 E21.1163
G1 X165.187 Y118.983 E21.13402
G1 X165.2 Y119.645 E21.15604
G1 X165.191 Y121.306 E21.21128
G1 X165.146 Y122.208 E21.24132
G1 X165.022 Y123.103 E21.27137
G1 X164.818 Y123.983 E21.30142
G1 X164.538 Y124.841 E21.33144
G1 X164.183 Y125.672 E21.36149
G1 X163.756 Y126.467 E21.39151
G1 X163.26 Y127.222 E21.42155
G1 X162.7 Y127.93 E21.45158
G1 X162.079 Y128.586 E21.48162
G1 X161.402 Y129.184 E21.51167
G1 X160.675 Y129.72 E21.54171
G1 X159.904 Y130.19 E21.57174
G1 X159.094 Y130.589 E21.60177
G1 X158.252 Y130.916 E21.63181
G1 X157.384 Y131.166 E21.66186
G1 X156.498 Y131.339 E21.69188
G1 X155.277 Y131.447 E21.73265
G1 X154.67 Y131.46 E21.75285
G1 X65.575 Y131.459 E24.71616
G1 X64.877 Y131.45 E24.73937
G1 X63.976 Y131.399 E24.76939
G1 X63.082 Y131.267 E24.79945
G1 X62.204 Y131.058 E24.82947
G1 X61.347 Y130.771 E24.85953
G1 X60.52 Y130.41 E24.88954
G1 X59.727 Y129.977 E24.91959
G1 X58.976 Y129.476 E24.94961
G1 X58.272 Y128.91 E24.97966
G1 X57.621 Y128.284 E25.0097
G1 X57.028 Y127.603 E25.03973
G1 X56.498 Y126.872 E25.06976
G1 X56.034 Y126.097 E25.09981
G1 X55.64 Y125.284 E25.12986
G1 X55.32 Y124.44 E25.15988
G1 X55.076 Y123.57 E25.18993
G1 X54.91 Y122.682 E25.21998
G1 X54.813 Y121.527 E25.25853
G1 X54.8 Y120.856 E25.28085
G1 X54.81 Y119.203 E25.33583
G1 X54.856 Y118.301 E25.36587
G1 X54.981 Y117.407 E25.39589
G1 X55.184 Y116.527 E25.42593
G1 X55.465 Y115.669 E25.45596
G1 X55.821 Y114.839 E25.486
G1 X56.248 Y114.043 E25.51604
G1 X56.744 Y113.288 E25.54609
G1 X57.305 Y112.581 E25.5761
G1 X57.927 Y111.925 E25.60617
G1 X58.604 Y111.328 E25.63619
G1 X59.331 Y110.792 E25.66623
G1 X60.036 Y110.36 E25.69373
G1 X60.685 Y109.997 E25.71847
G1 X62.974 Y108.673 E25.80642
G1 X65.121 Y107.348 E25.89033
G1 X67.248 Y105.952 E25.97495
G1 X69.325 Y104.502 E26.0592
G1 X71.365 Y102.992 E26.14362
G1 X73.366 Y101.42 E26.22825
G1 X75.306 Y99.804 E26.31223
G1 X77.234 Y98.104 E26.39772
G1 X79.091 Y96.373 E26.48216
G1 X80.874 Y94.613 E26.56549
G1 X82.635 Y92.773 E26.6502
G1 X84.332 Y90.897 E26.73434
G1 X86.524 Y88.309 E26.84714
G1 X87.043 Y87.674 E26.87442
G1 X87.645 Y87.001 E26.90445
M204 S2000
G1 F2400 E26.10445
;MESH:SmallMudGuard.stl
G0 F7500 X93.514 Y95.306
G0 X109.61 Y119.856
M204 S500
;TYPE:WALL-INNER
G1 F2400 E26.90445
G1 F1500 X108.797 Y119.817 E26.93152
G1 X107.994 Y119.738 E26.95836
G1 X107.23 Y119.624 E26.98405
G1 X106.433 Y119.466 E27.01107
G1 X105.657 Y119.274 E27.03766
G1 X104.901 Y119.045 E27.06393
G1 X104.144 Y118.776 E27.09066
G1 X103.422 Y118.479 E27.11662
G1 X102.685 Y118.134 E27.14369
G1 X102.005 Y117.773 E27.16929
G1 X101.306 Y117.359 E27.19631
G1 X100.62 Y116.902 E27.22373
G1 X99.994 Y116.443 E27.24955
G1 X99.389 Y115.95 E27.2755
G1 X98.772 Y115.396 E27.30308
G1 X98.21 Y114.84 E27.32938
G1 X97.683 Y114.264 E27.35535
G1 X97.162 Y113.637 E27.38246
G1 X96.686 Y113 E27.40891
G1 X96.246 Y112.351 E27.43499
G1 X95.824 Y111.657 E27.462
G1 X95.443 Y110.955 E27.48857
G1 X95.105 Y110.254 E27.51445
G1 X94.787 Y109.503 E27.54158
G1 X94.514 Y108.755 E27.56806
G1 X94.275 Y107.993 E27.59462
G1 X94.083 Y107.258 E27.61989
G1 X93.918 Y106.455 E27.64715
G1 X93.79 Y105.653 E27.67417
G1 X93.705 Y104.86 E27.70069
G1 X93.66 Y104.11 E27.72568
G1 X93.652 Y103.282 E27.75322
G1 X93.682 Y102.47 E27.78025
G1 X93.753 Y101.67 E27.80696
G1 X93.859 Y100.895 E27.83298
G1 X94.006 Y100.117 E27.85931
G1 X94.193 Y99.324 E27.88641
G1 X94.413 Y98.57 E27.91254
G1 X94.669 Y97.822 E27.93883
G1 X94.973 Y97.064 E27.96599
G1 X95.305 Y96.341 E27.99246
G1 X95.658 Y95.658 E28.01803
G1 X96.092 Y94.91 E28.04679
G1 X96.115 Y94.684 E28.05435
G1 X96.074 Y94.558 E28.05875
G1 X95.875 Y94.376 E28.06772
G1 X95.698 Y94.346 E28.07369
G1 X95.55 Y94.395 E28.07888
G1 X95.398 Y94.518 E28.08538
G1 X95.004 Y95.191 E28.11132
G1 X94.637 Y95.891 E28.13761
G1 X94.297 Y96.62 E28.16436
G1 X94.007 Y97.319 E28.18953
G1 X93.752 Y98.032 E28.21472
G1 X93.505 Y98.824 E28.24231
G1 X93.312 Y99.566 E28.26781
G1 X93.153 Y100.314 E28.29325
G1 X93.022 Y101.1 E28.31975
G1 X92.93 Y101.873 E28.34564
G1 X92.873 Y102.655 E28.37172
G1 X92.85 Y103.436 E28.39771
G1 X92.866 Y104.215 E28.42362
G1 X92.916 Y104.993 E28.44955
G1 X92.998 Y105.758 E28.47514
G1 X93.122 Y106.544 E28.50161
G1 X93.279 Y107.308 E28.52755
G1 X93.463 Y108.055 E28.55314
G1 X93.693 Y108.816 E28.57958
G1 X93.908 Y109.445 E28.60169
G1 X94.241 Y110.27 E28.63128
G1 X94.568 Y110.99 E28.65758
G1 X94.917 Y111.669 E28.68297
G1 X95.311 Y112.36 E28.70943
G1 X95.722 Y113.01 E28.73501
G1 X96.218 Y113.719 E28.76378
G1 X96.653 Y114.275 E28.78726
G1 X97.15 Y114.866 E28.81295
G1 X97.697 Y115.458 E28.83976
G1 X97.916 Y115.712 E28.85091
G1 X98.11 Y116.025 E28.86316
G1 X98.253 Y116.337 E28.87457
G1 X98.342 Y116.618 E28.88438
G1 X98.407 Y116.984 E28.89674
G1 X98.422 Y117.279 E28.90657
G1 X98.404 Y117.579 E28.91656
G1 X98.337 Y117.916 E28.92799
G1 X98.23 Y118.238 E28.93928
G1 X98.087 Y118.539 E28.95036
G1 X97.784 Y118.997 E28.96862
G1 X97.424 Y119.309 E28.98447
G1 X97.082 Y119.535 E28.9981
G1 X96.778 Y119.679 E29.00929
G1 X96.527 Y119.763 E29.01809
G1 X96.066 Y119.86 E29.03376
G1 X65.6 Y119.86 E30.04707
G1 X65.6 Y120.66 E30.07367
G1 X154.4 Y120.66 E33.02717
G1 X154.4 Y119.86 E33.05378
G1 X123.951 Y119.86 E34.06652
G1 X123.473 Y119.763 E34.08274
G1 X123.221 Y119.679 E34.09158
G1 X122.918 Y119.535 E34.10274
G1 X122.576 Y119.309 E34.11637
G1 X122.216 Y118.997 E34.13221
G1 X121.913 Y118.539 E34.15048
G1 X121.77 Y118.238 E34.16156
G1 X121.663 Y117.916 E34.17285
G1 X121.597 Y117.579 E34.18427
